; generated by Slic3r 1.3.0 on 2022-03-30 at 09:25:48

; external perimeters extrusion width = 0.44mm (0.85mm^3/s)
; perimeters extrusion width = 0.48mm (3.77mm^3/s)
; infill extrusion width = 0.48mm (4.40mm^3/s)
; solid infill extrusion width = 0.48mm (1.26mm^3/s)
; top infill extrusion width = 0.48mm (0.88mm^3/s)

M190 S65 ; set bed temperature and wait for it to be reached
M104 S205 ; set temperature
; M106 P0 S255 ; turn hot-end fan on
G28 ; home all axes
G1 Z5 F5000 ; lift nozzle


; Filament gcode

M109 S205 ; set temperature and wait for it to be reached
G21 ; set units to millimeters
G90 ; use absolute coordinates
M82 ; use absolute distances for extrusion
G92 E0
G1 Z-0.150 F3900.000
G1 E-3.50000 F3000.00000
G92 E0
G1 X39.391 Y86.223 F3900.000
G1 E3.50000 F3000.00000
G1 F900
G1 X111.307 Y28.066 E9.55478
G1 X111.635 Y27.823 E9.58148
G1 X122.279 Y20.591 E10.42393
G1 X130.045 Y15.733 E11.02355
G1 X132.642 Y14.989 E11.20041
G1 X154.996 Y14.989 E12.66381
G1 X156.646 Y15.275 E12.77348
G1 X166.468 Y18.789 E13.45634
G1 X168.151 Y19.812 E13.58529
G1 X169.295 Y21.415 E13.71424
G1 X169.716 Y23.335 E13.84297
G1 X170.092 Y50.955 E15.65125
G1 X170.092 Y140.893 E21.53902
G1 X169.716 Y176.649 E23.87993
G1 X169.300 Y178.575 E24.00888
G1 X168.160 Y180.180 E24.13782
G1 X166.468 Y181.211 E24.26753
G1 X156.646 Y184.725 E24.95039
G1 X154.996 Y185.011 E25.06006
G1 X132.642 Y185.011 E26.52346
G1 X130.045 Y184.267 E26.70032
G1 X122.279 Y179.409 E27.29994
G1 X111.635 Y172.177 E28.14239
G1 X111.307 Y171.934 E28.16909
G1 X39.391 Y113.777 E34.22387
G1 X39.058 Y113.482 E34.25298
G1 X31.394 Y106.038 E34.95246
G1 X30.285 Y104.409 E35.08140
G1 X29.908 Y102.523 E35.20736
G1 X29.908 Y97.477 E35.53766
G1 X30.304 Y95.548 E35.66661
G1 X31.394 Y93.962 E35.79257
G1 X39.058 Y86.518 E36.49204
G1 X39.346 Y86.263 E36.51722
G1 X39.674 Y86.573 F3900.000
G1 F900
G1 X111.590 Y28.415 E42.57200
G1 X111.888 Y28.195 E42.59625
G1 X122.532 Y20.963 E43.43870
G1 X130.283 Y16.115 E44.03720
G1 X132.642 Y15.438 E44.19782
G1 X154.996 Y15.438 E45.66122
G1 X156.495 Y15.698 E45.76082
G1 X166.316 Y19.212 E46.44368
G1 X167.910 Y20.203 E46.56650
G1 X168.953 Y21.762 E46.68933
G1 X169.266 Y23.342 E46.79477
G1 X169.642 Y50.955 E48.60266
G1 X169.642 Y140.940 E54.49349
G1 X169.267 Y176.645 E56.83102
G1 X168.852 Y178.474 E56.95384
G1 X167.720 Y179.970 E57.07666
G1 X166.316 Y180.788 E57.18300
G1 X156.495 Y184.302 E57.86587
G1 X154.996 Y184.562 E57.96547
G1 X132.642 Y184.562 E59.42886
G1 X130.283 Y183.885 E59.58948
G1 X122.532 Y179.037 E60.18798
G1 X111.888 Y171.805 E61.03043
G1 X111.590 Y171.585 E61.05468
G1 X39.674 Y113.427 E67.10946
G1 X39.372 Y113.159 E67.13590
G1 X31.707 Y105.715 E67.83537
G1 X30.667 Y104.153 E67.95819
G1 X30.358 Y102.523 E68.06685
G1 X30.358 Y97.477 E68.39716
G1 X30.753 Y95.643 E68.51998
G1 X31.707 Y94.285 E68.62864
G1 X39.372 Y86.841 E69.32811
G1 X39.629 Y86.613 E69.35062
G1 E65.85062 F3000.00000
G92 E0
G1 X164.030 Y139.731 F3900.000
G1 E3.50000 F3000.00000
G1 F900
G1 X160.063 Y139.731 E3.75973
G1 X160.063 Y52.117 E9.49532
G1 X164.030 Y52.117 E9.75505
G1 X164.030 Y139.671 E15.48672
G1 X164.480 Y140.181 F3900.000
G1 F900
G1 X159.613 Y140.181 E15.80535
G1 X159.613 Y51.668 E21.59985
G1 X164.480 Y51.668 E21.91848
G1 X164.480 Y140.121 E27.70905
G1 X164.930 Y140.631 F3900.000
G1 F900
G1 X159.163 Y140.631 E28.08659
G1 X159.163 Y51.218 E33.93999
G1 X164.930 Y51.218 E34.31752
G1 X164.930 Y140.571 E40.16700
G1 X164.579 Y140.438 F3900.000
G1 X163.533 Y139.329 F3900.000
G1 F900
G1 X163.628 Y139.233 E40.17585
G1 X163.628 Y138.596 E40.21757
G1 X162.896 Y139.329 E40.28542
G1 X162.259 Y139.329 E40.32714
G1 X163.628 Y137.960 E40.45399
G1 X163.628 Y137.323 E40.49571
G1 X161.622 Y139.329 E40.68156
G1 X160.986 Y139.329 E40.72327
G1 X163.628 Y136.686 E40.96812
G1 X163.628 Y136.049 E41.00984
G1 X160.465 Y139.213 E41.30292
G1 X160.465 Y138.576 E41.34464
G1 X163.628 Y135.413 E41.63772
G1 X163.628 Y134.776 E41.67944
G1 X160.465 Y137.939 E41.97253
G1 X160.465 Y137.302 E42.01424
G1 X163.628 Y134.139 E42.30733
G1 X163.628 Y133.502 E42.34905
G1 X160.465 Y136.666 E42.64213
G1 X160.465 Y136.029 E42.68385
G1 X163.628 Y132.866 E42.97693
G1 X163.628 Y132.229 E43.01865
G1 X160.465 Y135.392 E43.31174
G1 X160.465 Y134.755 E43.35345
G1 X163.628 Y131.592 E43.64654
G1 X163.628 Y130.955 E43.68826
G1 X160.465 Y134.119 E43.98134
G1 X160.465 Y133.482 E44.02306
G1 X163.628 Y130.319 E44.31614
G1 X163.628 Y129.682 E44.35786
G1 X160.465 Y132.845 E44.65094
G1 X160.465 Y132.208 E44.69266
G1 X163.628 Y129.045 E44.98575
G1 X163.628 Y128.408 E45.02746
G1 X160.465 Y131.572 E45.32055
G1 X160.465 Y130.935 E45.36227
G1 X163.628 Y127.772 E45.65535
G1 X163.628 Y127.135 E45.69707
G1 X160.465 Y130.298 E45.99015
G1 X160.465 Y129.661 E46.03187
G1 X163.628 Y126.498 E46.32496
G1 X163.628 Y125.861 E46.36667
G1 X160.465 Y129.025 E46.65976
G1 X160.465 Y128.388 E46.70148
G1 X163.628 Y125.225 E46.99456
G1 X163.628 Y124.588 E47.03628
G1 X160.465 Y127.751 E47.32936
G1 X160.465 Y127.114 E47.37108
G1 X163.628 Y123.951 E47.66416
G1 X163.628 Y123.314 E47.70588
G1 X160.465 Y126.478 E47.99897
G1 X160.465 Y125.841 E48.04068
G1 X163.628 Y122.678 E48.33377
G1 X163.628 Y122.041 E48.37549
G1 X160.465 Y125.204 E48.66857
G1 X160.465 Y124.567 E48.71029
G1 X163.628 Y121.404 E49.00337
G1 X163.628 Y120.767 E49.04509
G1 X160.465 Y123.931 E49.33818
G1 X160.465 Y123.294 E49.37989
G1 X163.628 Y120.131 E49.67298
G1 X163.628 Y119.494 E49.71470
G1 X160.465 Y122.657 E50.00778
G1 X160.465 Y122.020 E50.04950
G1 X163.628 Y118.857 E50.34258
G1 X163.628 Y118.220 E50.38430
G1 X160.465 Y121.384 E50.67738
G1 X160.465 Y120.747 E50.71910
G1 X163.628 Y117.584 E51.01219
G1 X163.628 Y116.947 E51.05390
G1 X160.465 Y120.110 E51.34699
G1 X160.465 Y119.473 E51.38871
G1 X163.628 Y116.310 E51.68179
G1 X163.628 Y115.674 E51.72351
G1 X160.465 Y118.837 E52.01659
G1 X160.465 Y118.200 E52.05831
G1 X163.628 Y115.037 E52.35140
G1 X163.628 Y114.400 E52.39311
G1 X160.465 Y117.563 E52.68620
G1 X160.465 Y116.926 E52.72792
G1 X163.628 Y113.763 E53.02100
G1 X163.628 Y113.127 E53.06272
G1 X160.465 Y116.290 E53.35580
G1 X160.465 Y115.653 E53.39752
G1 X163.628 Y112.490 E53.69061
G1 X163.628 Y111.853 E53.73232
G1 X160.465 Y115.016 E54.02541
G1 X160.465 Y114.379 E54.06713
G1 X163.628 Y111.216 E54.36021
G1 X163.628 Y110.580 E54.40193
G1 X160.465 Y113.743 E54.69501
G1 X160.465 Y113.106 E54.73673
G1 X163.628 Y109.943 E55.02982
G1 X163.628 Y109.306 E55.07153
G1 X160.465 Y112.469 E55.36462
G1 X160.465 Y111.833 E55.40634
G1 X163.628 Y108.669 E55.69942
G1 X163.628 Y108.033 E55.74114
G1 X160.465 Y111.196 E56.03422
G1 X160.465 Y110.559 E56.07594
G1 X163.628 Y107.396 E56.36903
G1 X163.628 Y106.759 E56.41074
G1 X160.465 Y109.922 E56.70383
G1 X160.465 Y109.286 E56.74555
G1 X163.628 Y106.122 E57.03863
G1 X163.628 Y105.486 E57.08035
G1 X160.465 Y108.649 E57.37343
G1 X160.465 Y108.012 E57.41515
G1 X163.628 Y104.849 E57.70824
G1 X163.628 Y104.212 E57.74995
G1 X160.465 Y107.375 E58.04304
G1 X160.465 Y106.739 E58.08476
G1 X163.628 Y103.575 E58.37784
G1 X163.628 Y102.939 E58.41956
G1 X160.465 Y106.102 E58.71264
G1 X160.465 Y105.465 E58.75436
G1 X163.628 Y102.302 E59.04745
G1 X163.628 Y101.665 E59.08916
G1 X160.465 Y104.828 E59.38225
G1 X160.465 Y104.192 E59.42397
G1 X163.628 Y101.028 E59.71705
G1 X163.628 Y100.392 E59.75877
G1 X160.465 Y103.555 E60.05185
G1 X160.465 Y102.918 E60.09357
G1 X163.628 Y99.755 E60.38666
G1 X163.628 Y99.118 E60.42837
G1 X160.465 Y102.281 E60.72146
G1 X160.465 Y101.645 E60.76318
G1 X163.628 Y98.481 E61.05626
G1 X163.628 Y97.845 E61.09798
G1 X160.465 Y101.008 E61.39106
G1 X160.465 Y100.371 E61.43278
G1 X163.628 Y97.208 E61.72587
G1 X163.628 Y96.571 E61.76758
G1 X160.465 Y99.734 E62.06067
G1 X160.465 Y99.098 E62.10239
G1 X163.628 Y95.934 E62.39547
G1 X163.628 Y95.298 E62.43719
G1 X160.465 Y98.461 E62.73027
G1 X160.465 Y97.824 E62.77199
G1 X163.628 Y94.661 E63.06508
G1 X163.628 Y94.024 E63.10679
G1 X160.465 Y97.187 E63.39988
G1 X160.465 Y96.551 E63.44160
G1 X163.628 Y93.387 E63.73468
G1 X163.628 Y92.751 E63.77640
G1 X160.465 Y95.914 E64.06948
G1 X160.465 Y95.277 E64.11120
G1 X163.628 Y92.114 E64.40429
G1 X163.628 Y91.477 E64.44600
G1 X160.465 Y94.640 E64.73909
G1 X160.465 Y94.004 E64.78081
G1 X163.628 Y90.840 E65.07389
G1 X163.628 Y90.204 E65.11561
G1 X160.465 Y93.367 E65.40869
G1 X160.465 Y92.730 E65.45041
G1 X163.628 Y89.567 E65.74350
G1 X163.628 Y88.930 E65.78521
G1 X160.465 Y92.093 E66.07830
G1 X160.465 Y91.457 E66.12002
G1 X163.628 Y88.293 E66.41310
G1 X163.628 Y87.657 E66.45482
G1 X160.465 Y90.820 E66.74791
G1 X160.465 Y90.183 E66.78962
G1 X163.628 Y87.020 E67.08271
G1 X163.628 Y86.383 E67.12443
G1 X160.465 Y89.546 E67.41751
G1 X160.465 Y88.910 E67.45923
G1 X163.628 Y85.746 E67.75231
G1 X163.628 Y85.110 E67.79403
G1 X160.465 Y88.273 E68.08712
G1 X160.465 Y87.636 E68.12883
G1 X163.628 Y84.473 E68.42192
G1 X163.628 Y83.836 E68.46364
G1 X160.465 Y86.999 E68.75672
G1 X160.465 Y86.363 E68.79844
G1 X163.628 Y83.200 E69.09152
G1 X163.628 Y82.563 E69.13324
G1 X160.465 Y85.726 E69.42633
G1 X160.465 Y85.089 E69.46804
G1 X163.628 Y81.926 E69.76113
G1 X163.628 Y81.289 E69.80285
G1 X160.465 Y84.452 E70.09593
G1 X160.465 Y83.816 E70.13765
G1 X163.628 Y80.653 E70.43073
G1 X163.628 Y80.016 E70.47245
G1 X160.465 Y83.179 E70.76554
G1 X160.465 Y82.542 E70.80725
G1 X163.628 Y79.379 E71.10034
G1 X163.628 Y78.742 E71.14206
G1 X160.465 Y81.905 E71.43514
G1 X160.465 Y81.269 E71.47686
G1 X163.628 Y78.106 E71.76995
G1 X163.628 Y77.469 E71.81166
G1 X160.465 Y80.632 E72.10475
G1 X160.465 Y79.995 E72.14647
G1 X163.628 Y76.832 E72.43955
G1 X163.628 Y76.195 E72.48127
G1 X160.465 Y79.358 E72.77435
G1 X160.465 Y78.722 E72.81607
G1 X163.628 Y75.559 E73.10916
G1 X163.628 Y74.922 E73.15087
G1 X160.465 Y78.085 E73.44396
G1 X160.465 Y77.448 E73.48568
G1 X163.628 Y74.285 E73.77876
G1 X163.628 Y73.648 E73.82048
G1 X160.465 Y76.812 E74.11356
G1 X160.465 Y76.175 E74.15528
G1 X163.628 Y73.012 E74.44837
G1 X163.628 Y72.375 E74.49008
G1 X160.465 Y75.538 E74.78317
G1 X160.465 Y74.901 E74.82489
G1 X163.628 Y71.738 E75.11797
G1 X163.628 Y71.101 E75.15969
G1 X160.465 Y74.265 E75.45277
G1 X160.465 Y73.628 E75.49449
G1 X163.628 Y70.465 E75.78758
G1 X163.628 Y69.828 E75.82930
G1 X160.465 Y72.991 E76.12238
G1 X160.465 Y72.354 E76.16410
G1 X163.628 Y69.191 E76.45718
G1 X163.628 Y68.554 E76.49890
G1 X160.465 Y71.718 E76.79199
G1 X160.465 Y71.081 E76.83370
G1 X163.628 Y67.918 E77.12679
G1 X163.628 Y67.281 E77.16851
G1 X160.465 Y70.444 E77.46159
G1 X160.465 Y69.807 E77.50331
G1 X163.628 Y66.644 E77.79639
G1 X163.628 Y66.007 E77.83811
G1 X160.465 Y69.171 E78.13120
G1 X160.465 Y68.534 E78.17291
G1 X163.628 Y65.371 E78.46600
G1 X163.628 Y64.734 E78.50772
G1 X160.465 Y67.897 E78.80080
G1 X160.465 Y67.260 E78.84252
G1 X163.628 Y64.097 E79.13561
G1 X163.628 Y63.460 E79.17732
G1 X160.465 Y66.624 E79.47041
G1 X160.465 Y65.987 E79.51213
G1 X163.628 Y62.824 E79.80521
G1 X163.628 Y62.187 E79.84693
G1 X160.465 Y65.350 E80.14001
G1 X160.465 Y64.713 E80.18173
G1 X163.628 Y61.550 E80.47482
G1 X163.628 Y60.913 E80.51653
G1 X160.465 Y64.077 E80.80962
G1 X160.465 Y63.440 E80.85134
G1 X163.628 Y60.277 E81.14442
G1 X163.628 Y59.640 E81.18614
G1 X160.465 Y62.803 E81.47923
G1 X160.465 Y62.166 E81.52094
G1 X163.628 Y59.003 E81.81403
G1 X163.628 Y58.366 E81.85575
G1 X160.465 Y61.530 E82.14883
G1 X160.465 Y60.893 E82.19055
G1 X163.628 Y57.730 E82.48363
G1 X163.628 Y57.093 E82.52535
G1 X160.465 Y60.256 E82.81844
G1 X160.465 Y59.619 E82.86015
G1 X163.628 Y56.456 E83.15324
G1 X163.628 Y55.819 E83.19496
G1 X160.465 Y58.983 E83.48804
G1 X160.465 Y58.346 E83.52976
G1 X163.628 Y55.183 E83.82285
G1 X163.628 Y54.546 E83.86456
G1 X160.465 Y57.709 E84.15765
G1 X160.465 Y57.072 E84.19937
G1 X163.628 Y53.909 E84.49245
G1 X163.628 Y53.272 E84.53417
G1 X160.465 Y56.436 E84.82725
G1 X160.465 Y55.799 E84.86897
G1 X163.628 Y52.636 E85.16206
G1 X163.628 Y52.520 E85.16967
G1 X163.108 Y52.520 E85.20377
G1 X160.465 Y55.162 E85.44862
G1 X160.465 Y54.525 E85.49034
G1 X162.471 Y52.520 E85.67619
G1 X161.834 Y52.520 E85.71791
G1 X160.465 Y53.889 E85.84476
G1 X160.465 Y53.252 E85.88648
G1 X161.197 Y52.520 E85.95434
G1 X160.561 Y52.520 E85.99606
G1 X160.465 Y52.615 E86.00490
G1 Z-0.150 F3900.000
G1 E82.50490 F3000.00000
G92 E0
G1 X140.475 Y95.067 F3900.000
G1 E3.50000 F3000.00000
G1 F900
G1 X140.475 Y104.069 E4.08928
G1 X131.474 Y104.069 E4.67856
G1 X131.474 Y95.067 E5.26784
G1 X140.415 Y95.067 E5.85319
G1 X140.025 Y95.517 F3900.000
G1 F900
G1 X140.025 Y103.619 E6.38357
G1 X131.924 Y103.619 E6.91395
G1 X131.924 Y95.517 E7.44433
G1 X139.965 Y95.517 E7.97077
G1 X139.576 Y95.967 F3900.000
G1 F900
G1 X139.576 Y103.169 E8.44225
G1 X132.374 Y103.169 E8.91372
G1 X132.374 Y95.967 E9.38520
G1 X139.516 Y95.967 E9.85274
G1 X139.962 Y95.863 F3900.000
G1 E6.35274 F3000.00000
G92 E0
G1 X149.824 Y85.719 F3900.000
G1 E3.50000 F3000.00000
G1 F900
G1 X149.824 Y113.417 E5.31327
G1 X122.125 Y113.417 E7.12654
G1 X122.125 Y85.719 E8.93981
G1 X149.764 Y85.719 E10.74914
G1 X150.274 Y85.269 F3900.000
G1 F900
G1 X150.274 Y113.867 E12.62132
G1 X121.676 Y113.867 E14.49349
G1 X121.676 Y85.269 E16.36566
G1 X150.214 Y85.269 E18.23390
G1 X150.724 Y84.819 F3900.000
G1 F900
G1 X150.724 Y114.317 E20.16498
G1 X121.226 Y114.317 E22.09606
G1 X121.226 Y84.819 E24.02713
G1 X150.664 Y84.819 E25.95428
G1 X150.620 Y85.205 F3900.000
G1 E22.45428 F3000.00000
G92 E0
G1 X122.623 Y86.121 F3900.000
G1 E3.50000 F3000.00000
G1 F900
G1 X122.528 Y86.216 E3.50888
G1 X122.528 Y86.854 E3.55077
G1 X123.261 Y86.121 E3.61888
G1 X123.899 Y86.121 E3.66077
G1 X122.528 Y87.492 E3.78813
G1 X122.528 Y88.131 E3.83002
G1 X124.537 Y86.121 E4.01662
G1 X125.175 Y86.121 E4.05851
G1 X122.528 Y88.769 E4.30435
G1 X122.528 Y89.407 E4.34624
G1 X125.813 Y86.121 E4.65132
G1 X126.452 Y86.121 E4.69321
G1 X122.528 Y90.045 E5.05753
G1 X122.528 Y90.683 E5.09942
G1 X127.090 Y86.121 E5.52298
G1 X127.728 Y86.121 E5.56487
G1 X122.528 Y91.321 E6.04768
G1 X122.528 Y91.959 E6.08957
G1 X128.366 Y86.121 E6.63162
G1 X129.004 Y86.121 E6.67351
G1 X122.528 Y92.597 E7.27479
G1 X122.528 Y93.235 E7.31668
G1 X129.642 Y86.121 E7.97721
G1 X130.280 Y86.121 E8.01910
G1 X122.528 Y93.873 E8.73887
G1 X122.528 Y94.511 E8.78076
G1 X130.918 Y86.121 E9.55977
G1 X131.556 Y86.121 E9.60166
G1 X122.528 Y95.149 E10.43991
G1 X122.528 Y95.787 E10.48180
G1 X132.194 Y86.121 E11.37930
G1 X132.832 Y86.121 E11.42119
G1 X122.528 Y96.425 E12.37792
G1 X122.528 Y97.063 E12.41981
G1 X133.470 Y86.121 E13.43579
G1 X134.108 Y86.121 E13.47768
G1 X122.528 Y97.701 E14.55289
G1 X122.528 Y98.340 E14.59478
G1 X134.746 Y86.121 E15.72924
G1 X135.384 Y86.121 E15.77113
G1 X122.528 Y98.978 E16.96483
G1 X122.528 Y99.616 E17.00672
G1 X136.022 Y86.121 E18.25966
G1 X136.660 Y86.121 E18.30155
G1 X122.528 Y100.254 E19.61373
G1 X122.528 Y100.892 E19.65562
G1 X137.299 Y86.121 E21.02705
G1 X137.937 Y86.121 E21.06894
G1 X122.528 Y101.530 E22.49960
G1 X122.528 Y102.168 E22.54149
G1 X138.575 Y86.121 E24.03140
G1 X139.213 Y86.121 E24.07329
G1 X122.528 Y102.806 E25.62243
G1 X122.528 Y103.444 E25.66432
G1 X130.976 Y94.995 E26.44875
G1 X130.976 Y94.665 E26.47044
G1 X131.307 Y94.665 E26.49213
G1 X139.851 Y86.121 E27.28542
G1 X140.489 Y86.121 E27.32731
G1 X131.945 Y94.665 E28.12060
G1 X132.583 Y94.665 E28.16249
G1 X141.127 Y86.121 E28.95577
G1 X141.765 Y86.121 E28.99766
G1 X133.221 Y94.665 E29.79095
G1 X133.859 Y94.665 E29.83284
G1 X142.403 Y86.121 E30.62613
G1 X143.041 Y86.121 E30.66802
G1 X134.497 Y94.665 E31.46131
G1 X135.135 Y94.665 E31.50320
G1 X143.679 Y86.121 E32.29649
G1 X144.317 Y86.121 E32.33838
G1 X135.773 Y94.665 E33.13167
G1 X136.411 Y94.665 E33.17356
G1 X144.955 Y86.121 E33.96685
G1 X145.593 Y86.121 E34.00874
G1 X137.049 Y94.665 E34.80203
G1 X137.687 Y94.665 E34.84392
G1 X146.231 Y86.121 E35.63721
G1 X146.869 Y86.121 E35.67910
G1 X138.325 Y94.665 E36.47239
G1 X138.963 Y94.665 E36.51428
G1 X147.507 Y86.121 E37.30757
G1 X148.146 Y86.121 E37.34946
G1 X139.601 Y94.665 E38.14275
G1 X140.239 Y94.665 E38.18464
G1 X148.784 Y86.121 E38.97793
G1 X149.422 Y86.121 E39.01982
G1 X140.877 Y94.665 E39.81311
