; generated by Slic3r 1.3.0 on 2021-07-30 at 17:17:35

; external perimeters extrusion width = 0.44mm (0.85mm^3/s)
; perimeters extrusion width = 0.48mm (3.77mm^3/s)
; infill extrusion width = 0.48mm (4.40mm^3/s)
; solid infill extrusion width = 0.48mm (1.26mm^3/s)
; top infill extrusion width = 0.48mm (0.88mm^3/s)
; support material extrusion width = 0.44mm (3.38mm^3/s)

M190 S65 ; set bed temperature and wait for it to be reached
M104 S205 ; set temperature
; M106 P0 S255 ; turn hot-end fan on
G28 ; home all axes
G1 Z5 F5000 ; lift nozzle


; Filament gcode

M109 S205 ; set temperature and wait for it to be reached
G21 ; set units to millimeters
G90 ; use absolute coordinates
M82 ; use absolute distances for extrusion
G92 E0
G1 Z-0.150 F3900.000
G1 E-3.50000 F3000.00000
G92 E0
G1 X39.579 Y86.223 F3900.000
G1 E3.50000 F3000.00000
G1 F900
G1 X111.495 Y28.066 E9.55478
G1 X111.823 Y27.823 E9.58148
G1 X122.467 Y20.591 E10.42393
G1 X130.233 Y15.733 E11.02355
G1 X132.829 Y14.989 E11.20041
G1 X155.183 Y14.989 E12.66381
G1 X156.834 Y15.275 E12.77348
G1 X166.655 Y18.789 E13.45634
G1 X168.339 Y19.812 E13.58529
G1 X169.483 Y21.415 E13.71424
G1 X169.905 Y23.402 E13.84725
G1 X169.905 Y176.598 E23.87616
G1 X169.509 Y178.527 E24.00511
G1 X168.385 Y180.145 E24.13406
G1 X166.655 Y181.211 E24.26707
G1 X156.834 Y184.725 E24.94993
G1 X155.183 Y185.011 E25.05960
G1 X132.829 Y185.011 E26.52300
G1 X130.233 Y184.267 E26.69986
G1 X122.467 Y179.409 E27.29948
G1 X111.823 Y172.177 E28.14193
G1 X111.495 Y171.934 E28.16863
G1 X39.579 Y113.777 E34.22341
G1 X39.246 Y113.482 E34.25252
G1 X31.582 Y106.038 E34.95200
G1 X30.473 Y104.409 E35.08094
G1 X30.095 Y102.523 E35.20690
G1 X30.095 Y97.477 E35.53720
G1 X30.491 Y95.548 E35.66615
G1 X31.582 Y93.962 E35.79211
G1 X39.246 Y86.518 E36.49158
G1 X39.534 Y86.263 E36.51676
G1 X39.862 Y86.573 F3900.000
G1 F900
G1 X111.778 Y28.415 E42.57154
G1 X112.075 Y28.195 E42.59579
G1 X122.720 Y20.963 E43.43824
G1 X130.471 Y16.115 E44.03674
G1 X132.829 Y15.438 E44.19736
G1 X155.183 Y15.438 E45.66076
G1 X156.682 Y15.698 E45.76036
G1 X166.504 Y19.212 E46.44322
G1 X168.097 Y20.203 E46.56604
G1 X169.141 Y21.762 E46.68887
G1 X169.455 Y23.402 E46.79821
G1 X169.455 Y176.598 E56.82713
G1 X169.059 Y178.432 E56.94995
G1 X167.943 Y179.940 E57.07277
G1 X166.504 Y180.788 E57.18212
G1 X156.682 Y184.302 E57.86499
G1 X155.183 Y184.562 E57.96459
G1 X132.829 Y184.562 E59.42799
G1 X130.471 Y183.885 E59.58860
G1 X122.720 Y179.037 E60.18710
G1 X112.075 Y171.805 E61.02956
G1 X111.778 Y171.585 E61.05380
G1 X39.862 Y113.427 E67.10858
G1 X39.560 Y113.159 E67.13502
G1 X31.895 Y105.715 E67.83449
G1 X30.855 Y104.153 E67.95732
G1 X30.545 Y102.523 E68.06597
G1 X30.545 Y97.477 E68.39628
G1 X30.941 Y95.643 E68.51910
G1 X31.895 Y94.285 E68.62776
G1 X39.560 Y86.841 E69.32724
G1 X39.817 Y86.613 E69.34974
G1 E65.84974 F3000.00000
G92 E0
G1 X58.334 Y94.476 F3900.000
G1 E3.50000 F3000.00000
G1 F900
G1 X60.406 Y91.631 E3.73042
G1 X74.711 Y96.086 E4.71124
G1 X74.676 Y96.315 E4.72642
G1 X37.860 Y96.315 E7.13658
G1 X43.382 Y90.952 E7.64053
G1 X58.275 Y94.462 E8.64220
G1 E5.14220 F3000.00000
G92 E0
G1 X94.954 Y88.476 F3900.000
G1 E3.50000 F3000.00000
G1 F900
G1 X101.284 Y60.307 E5.39007
G1 X107.508 Y42.794 E6.60681
G1 X114.591 Y33.742 E7.35929
G1 X117.945 Y37.886 E7.70827
G1 X126.053 Y25.494 E8.67772
G1 X131.977 Y21.792 E9.13500
G1 X133.627 Y31.409 E9.77376
G1 X145.981 Y22.848 E10.75773
G1 X153.780 Y21.343 E11.27770
G1 X153.102 Y25.685 E11.56541
G1 X160.805 Y24.963 E12.07189
G1 X160.879 Y25.151 E12.08513
G1 X131.803 Y47.874 E14.50091
G1 X112.584 Y67.918 E16.31881
G1 X100.779 Y87.700 E17.82690
G1 X106.832 Y91.721 E18.30266
G1 X110.635 Y90.263 E18.56927
G1 X114.236 Y93.021 E18.86619
G1 X114.236 Y96.315 E19.08185
G1 X74.913 Y96.315 E21.65613
G1 X77.546 Y93.687 E21.89964
G1 X88.315 Y88.697 E22.67666
G1 X94.894 Y88.478 E23.10765
G1 X94.592 Y88.038 F3900.000
G1 F900
G1 X100.851 Y60.182 E24.97671
G1 X107.108 Y42.574 E26.20002
G1 X114.585 Y33.019 E26.99430
G1 X117.907 Y37.123 E27.33989
G1 X125.731 Y25.165 E28.27541
G1 X132.307 Y21.055 E28.78304
G1 X133.951 Y30.637 E29.41948
G1 X145.803 Y22.424 E30.36344
G1 X154.323 Y20.780 E30.93152
G1 X153.635 Y25.183 E31.22328
G1 X162.292 Y24.372 E31.79245
G1 X162.367 Y24.560 E31.80569
G1 X132.106 Y48.209 E34.31990
G1 X112.944 Y68.192 E36.13234
G1 X101.385 Y87.562 E37.60902
G1 X106.888 Y91.218 E38.04153
G1 X110.709 Y89.753 E38.30941
G1 X114.686 Y92.799 E38.63734
G1 X114.686 Y96.765 E38.89699
G1 X36.751 Y96.765 E43.99895
G1 X43.103 Y90.596 E44.57860
G1 X43.302 Y90.470 E44.59398
G1 X58.146 Y93.969 E45.59238
G1 X60.232 Y91.106 E45.82433
G1 X74.914 Y95.678 E46.83100
G1 X77.284 Y93.313 E47.05017
G1 X88.208 Y88.250 E47.83839
G1 X94.532 Y88.040 E48.25258
G1 X94.229 Y87.600 F3900.000
G1 F900
G1 X100.418 Y60.057 E50.10065
G1 X106.709 Y42.355 E51.33052
G1 X114.580 Y32.297 E52.16659
G1 X117.868 Y36.360 E52.50879
G1 X125.409 Y24.836 E53.41038
G1 X132.637 Y20.318 E53.96838
G1 X134.275 Y29.865 E54.60249
G1 X145.624 Y22.000 E55.50643
G1 X154.866 Y20.217 E56.12263
G1 X154.169 Y24.681 E56.41843
G1 X163.779 Y23.781 E57.05029
G1 X163.854 Y23.969 E57.06353
G1 X132.408 Y48.543 E59.67617
G1 X113.304 Y68.466 E61.48315
G1 X101.991 Y87.424 E62.92843
G1 X106.944 Y90.715 E63.31768
G1 X110.782 Y89.243 E63.58684
G1 X115.135 Y92.576 E63.94578
G1 X115.135 Y97.215 E64.24942
G1 X35.642 Y97.215 E69.45343
G1 X42.823 Y90.240 E70.10875
G1 X43.221 Y89.989 E70.13956
G1 X57.958 Y93.463 E71.13076
G1 X60.059 Y90.580 E71.36423
G1 X74.789 Y95.167 E72.37421
G1 X77.023 Y92.938 E72.58082
G1 X88.102 Y87.803 E73.38024
G1 X94.169 Y87.602 E73.77763
G1 X94.629 Y87.619 F3900.000
G1 X95.296 Y88.844 F3900.000
G1 F900
G1 X105.949 Y78.191 E74.76623
G1 X106.892 Y76.609 E74.88710
G1 X95.481 Y88.021 E75.94615
G1 X95.666 Y87.198 E76.00147
G1 X107.836 Y75.028 E77.13096
G1 X108.780 Y73.446 E77.25183
G1 X95.851 Y86.376 E78.45176
G1 X96.035 Y85.553 E78.50708
G1 X109.724 Y71.865 E79.77745
G1 X110.668 Y70.283 E79.89832
G1 X96.220 Y84.731 E81.23913
G1 X96.405 Y83.908 E81.29446
G1 X111.612 Y68.701 E82.70571
G1 X112.272 Y67.595 E82.79023
G1 X116.746 Y62.929 E83.21444
G1 X96.590 Y83.085 E85.08501
G1 X96.775 Y82.263 E85.14034
G1 E81.64034 F3000.00000
G92 E0
G1 X113.738 Y95.913 F3900.000
G1 E3.50000 F3000.00000
G1 F900
G1 X113.834 Y95.817 E3.50887
G1 X113.834 Y95.179 E3.55072
G1 X113.100 Y95.913 E3.61878
G1 X112.462 Y95.913 E3.66064
G1 X113.834 Y94.542 E3.78788
G1 X113.834 Y93.904 E3.82974
G1 X111.825 Y95.913 E4.01617
G1 X111.187 Y95.913 E4.05803
G1 X113.834 Y93.266 E4.30365
G1 X113.834 Y93.195 E4.30831
G1 X113.513 Y92.949 E4.33484
G1 X110.549 Y95.913 E4.60987
G1 X109.911 Y95.913 E4.65172
G1 X113.151 Y92.673 E4.95242
G1 X112.790 Y92.396 E4.98227
G1 X109.274 Y95.913 E5.30864
G1 X108.636 Y95.913 E5.35049
G1 X112.429 Y92.119 E5.70253
G1 X112.068 Y91.843 E5.73238
G1 X107.998 Y95.913 E6.11009
G1 X107.360 Y95.913 E6.15194
G1 X111.707 Y91.566 E6.55532
G1 X111.346 Y91.290 E6.58518
G1 X106.722 Y95.913 E7.01422
G1 X106.085 Y95.913 E7.05608
G1 X110.984 Y91.013 E7.51079
G1 X110.623 Y90.736 E7.54065
G1 X105.447 Y95.913 E8.02104
G1 X104.809 Y95.913 E8.06289
G1 X109.616 Y91.106 E8.50897
G1 X108.581 Y91.503 E8.58168
G1 X104.171 Y95.913 E8.99094
G1 X103.534 Y95.913 E9.03279
G1 X107.547 Y91.900 E9.40524
G1 X106.824 Y92.177 E9.45601
G1 X106.709 Y92.100 E9.46512
G1 X102.896 Y95.913 E9.81898
G1 X102.258 Y95.913 E9.86083
G1 X106.326 Y91.845 E10.23833
G1 X105.942 Y91.591 E10.26852
G1 X101.620 Y95.913 E10.66963
G1 X100.982 Y95.913 E10.71149
G1 X105.559 Y91.336 E11.13623
G1 X105.176 Y91.081 E11.16642
G1 X100.345 Y95.913 E11.61479
G1 X99.707 Y95.913 E11.65665
G1 X104.793 Y90.827 E12.12864
G1 X104.410 Y90.572 E12.15883
G1 X99.069 Y95.913 E12.65446
G1 X98.431 Y95.913 E12.69631
G1 X104.026 Y90.318 E13.21556
G1 X103.643 Y90.063 E13.24575
G1 X97.794 Y95.913 E13.78863
G1 X97.156 Y95.913 E13.83048
G1 X103.260 Y89.809 E14.39699
G1 X102.877 Y89.554 E14.42718
G1 X96.518 Y95.913 E15.01731
G1 X95.880 Y95.913 E15.05916
G1 X102.494 Y89.299 E15.67292
G1 X102.110 Y89.045 E15.70311
G1 X95.242 Y95.913 E16.34050
G1 X94.605 Y95.913 E16.38235
G1 X101.727 Y88.790 E17.04336
G1 X101.344 Y88.536 E17.07355
G1 X93.967 Y95.913 E17.75819
G1 X93.329 Y95.913 E17.80004
G1 X100.961 Y88.281 E18.50830
G1 X100.578 Y88.026 E18.53849
G1 X92.691 Y95.913 E19.27039
G1 X92.054 Y95.913 E19.31224
G1 X100.285 Y87.681 E20.07620
G1 X101.229 Y86.099 E20.19706
G1 X91.416 Y95.913 E21.10781
G1 X90.778 Y95.913 E21.14966
G1 X102.173 Y84.518 E22.20718
G1 X103.117 Y82.936 E22.32805
G1 X90.140 Y95.913 E23.53236
G1 X89.502 Y95.913 E23.57421
G1 X104.061 Y81.354 E24.92530
G1 X105.005 Y79.773 E25.04617
G1 X88.865 Y95.913 E26.54405
G1 X88.227 Y95.913 E26.58590
G1 X95.270 Y88.870 E27.23952
G1 X94.610 Y88.892 E27.28283
G1 X87.589 Y95.913 E27.93441
G1 X86.951 Y95.913 E27.97626
G1 X93.950 Y88.914 E28.62582
G1 X93.291 Y88.936 E28.66913
G1 X86.314 Y95.913 E29.31665
G1 X85.676 Y95.913 E29.35850
G1 X92.631 Y88.957 E30.00399
G1 X91.971 Y88.979 E30.04731
G1 X85.038 Y95.913 E30.69076
G1 X84.400 Y95.913 E30.73262
G1 X91.312 Y89.001 E31.37404
G1 X90.652 Y89.023 E31.41736
G1 X83.762 Y95.913 E32.05675
G1 X83.125 Y95.913 E32.09860
G1 X89.992 Y89.045 E32.73597
G1 X89.333 Y89.067 E32.77928
G1 X82.487 Y95.913 E33.41462
G1 X81.849 Y95.913 E33.45647
G1 X88.673 Y89.089 E34.08977
G1 X88.469 Y89.096 E34.10319
G1 X87.648 Y89.476 E34.16252
G1 X81.211 Y95.913 E34.75991
G1 X80.574 Y95.913 E34.80177
G1 X86.460 Y90.027 E35.34804
G1 X85.271 Y90.577 E35.43401
G1 X79.936 Y95.913 E35.92917
G1 X79.298 Y95.913 E35.97102
G1 X84.083 Y91.128 E36.41506
G1 X82.894 Y91.679 E36.50103
G1 X78.660 Y95.913 E36.89394
G1 X78.022 Y95.913 E36.93579
G1 X81.705 Y92.230 E37.27759
G1 X80.517 Y92.781 E37.36356
G1 X77.385 Y95.913 E37.65423
G1 X76.747 Y95.913 E37.69608
G1 X79.328 Y93.332 E37.93564
G1 X78.139 Y93.882 E38.02161
G1 X76.109 Y95.913 E38.21004
G1 X75.952 Y95.913 E38.22031
G1 X77.759 Y94.110 E38.38782
G1 X78.044 Y93.978 E38.40841
G1 E34.90841 F3000.00000
G92 E0
G1 X105.016 Y51.061 F3900.000
G1 E3.50000 F3000.00000
G1 F900
G1 X117.783 Y38.294 E4.68484
G1 X117.498 Y37.942 E4.71459
G1 X105.368 Y50.072 E5.84032
G1 X105.720 Y49.082 E5.90923
G1 X117.213 Y37.589 E6.97584
G1 X116.928 Y37.237 E7.00560
G1 X106.071 Y48.093 E8.01310
G1 X106.423 Y47.103 E8.08201
G1 X116.642 Y36.884 E9.03041
G1 X116.357 Y36.532 E9.06016
G1 X106.775 Y46.114 E9.94945
G1 X107.126 Y45.124 E10.01835
G1 X116.072 Y36.179 E10.84853
G1 X115.786 Y35.827 E10.87829
G1 X107.478 Y44.135 E11.64935
G1 X107.830 Y43.146 E11.71826
G1 X115.501 Y35.474 E12.43021
G1 X115.216 Y35.122 E12.45997
G1 X109.959 Y40.378 E12.94782
G1 X112.254 Y37.446 E13.19218
G1 X114.930 Y34.769 E13.44058
G1 X114.645 Y34.417 E13.47034
G1 X114.550 Y34.512 E13.47920
G1 E9.97920 F3000.00000
G92 E0
G1 X126.467 Y25.784 F3900.000
G1 E3.50000 F3000.00000
G1 F900
G1 X126.328 Y25.871 E3.51075
G1 X126.229 Y26.021 E3.52258
G1 X126.562 Y25.688 E3.55348
G1 X128.263 Y24.625 E3.68510
G1 X125.022 Y27.866 E3.98587
G1 X123.815 Y29.711 E4.13056
G1 X129.964 Y23.563 E4.70121
G1 X131.665 Y22.500 E4.83282
G1 X122.608 Y31.556 E5.67334
G1 X121.400 Y33.401 E5.81803
G1 X131.786 Y23.016 E6.78187
G1 X131.880 Y23.560 E6.81812
G1 X120.193 Y35.246 E7.90267
G1 X118.986 Y37.091 E8.04735
G1 X131.973 Y24.104 E9.25260
G1 X132.066 Y24.649 E9.28885
G1 X104.665 Y52.050 E11.83185
G1 X104.313 Y53.040 E11.90076
G1 X132.160 Y25.193 E14.48506
G1 X132.253 Y25.738 E14.52130
G1 X103.962 Y54.029 E17.14691
G1 X103.610 Y55.019 E17.21582
G1 X132.347 Y26.282 E19.88272
G1 X132.440 Y26.826 E19.91897
G1 X103.258 Y56.008 E22.62717
G1 X102.907 Y56.997 E22.69608
G1 X132.533 Y27.371 E25.44559
G1 X132.627 Y27.915 E25.48184
G1 X102.555 Y57.987 E28.27265
G1 X102.203 Y58.976 E28.34156
G1 X132.720 Y28.459 E31.17367
G1 X132.814 Y29.004 E31.20991
G1 X101.852 Y59.966 E34.08333
G1 X101.669 Y60.480 E34.11914
G1 X101.580 Y60.875 E34.14571
G1 X132.907 Y29.548 E37.05300
G1 X133.000 Y30.093 E37.08924
G1 X101.395 Y61.698 E40.02235
G1 X101.211 Y62.520 E40.07767
G1 X133.094 Y30.637 E43.03660
G1 X133.187 Y31.181 E43.07284
G1 X101.026 Y63.343 E46.05759
G1 X100.841 Y64.165 E46.11292
G1 X133.281 Y31.726 E49.12348
G1 X133.350 Y32.133 E49.15059
G1 X133.874 Y31.770 E49.19241
G1 X100.656 Y64.988 E52.27522
G1 X100.471 Y65.811 E52.33054
G1 X135.951 Y30.331 E55.62328
G1 X138.029 Y28.891 E55.78911
G1 X100.286 Y66.633 E59.29177
G1 X100.102 Y67.456 E59.34710
G1 X140.106 Y27.452 E63.05968
G1 X142.183 Y26.012 E63.22552
G1 X99.917 Y68.278 E67.14802
G1 X99.732 Y69.101 E67.20335
G1 X144.260 Y24.573 E71.33578
G1 X146.207 Y23.224 E71.49122
G1 X146.256 Y23.214 E71.49453
G1 X99.547 Y69.924 E75.82940
G1 X99.362 Y70.746 E75.88473
G1 X147.047 Y23.062 E80.31008
G1 X147.837 Y22.909 E80.36290
G1 X99.177 Y71.569 E84.87876
G1 X98.993 Y72.391 E84.93408
G1 X148.627 Y22.757 E89.54043
G1 X149.418 Y22.604 E89.59325
G1 X98.808 Y73.214 E94.29009
G1 X98.623 Y74.037 E94.34542
G1 X150.208 Y22.452 E99.13276
G1 X150.998 Y22.299 E99.18558
G1 X98.438 Y74.859 E104.06341
G1 X98.253 Y75.682 E104.11874
G1 X151.788 Y22.147 E109.08706
G1 X152.579 Y21.994 E109.13988
G1 X98.068 Y76.505 E114.19870
G1 X97.884 Y77.327 E114.25403
G1 X153.272 Y21.939 E119.39432
G1 X153.154 Y22.695 E119.44452
G1 X97.699 Y78.150 E124.59101
G1 X97.514 Y78.972 E124.64634
G1 X153.036 Y23.451 E129.79903
G1 X152.918 Y24.206 E129.84923
G1 X97.329 Y79.795 E135.00812
G1 X97.144 Y80.618 E135.06344
G1 X152.800 Y24.962 E140.22853
G1 X152.682 Y25.718 E140.27873
G1 X96.959 Y81.440 E145.45001
G1 X96.775 Y82.263 E145.50534
G1 X152.928 Y26.110 E150.71661
G1 X153.631 Y26.044 E150.76299
G1 X134.358 Y45.317 E152.55166
G1 X137.277 Y43.036 E152.79477
G1 X154.335 Y25.978 E154.37785
G1 X155.039 Y25.912 E154.42423
G1 X140.196 Y40.755 E155.80172
G1 X143.115 Y38.474 E156.04484
G1 X155.742 Y25.846 E157.21674
G1 X156.446 Y25.780 E157.26312
G1 X146.034 Y36.192 E158.22944
G1 X148.953 Y33.911 E158.47255
G1 X157.150 Y25.714 E159.23327
G1 X157.854 Y25.648 E159.27966
G1 X151.872 Y31.630 E159.83479
G1 X154.791 Y29.349 E160.07791
G1 X158.557 Y25.582 E160.42745
G1 X159.261 Y25.516 E160.47384
G1 X157.710 Y27.068 E160.61780
G1 E157.11780 F3000.00000
G92 E0
G1 X73.793 Y96.063 F3900.000
G1 E3.50000 F3000.00000
G1 F900
G1 X73.426 Y96.007 E3.50188
G1 F900
G1 X73.059 Y95.952 E3.50881
G1 F900
G1 X72.692 Y95.896 E3.52081
G1 F900
G1 X72.325 Y95.840 E3.53787
G1 F900
G1 X71.958 Y95.784 E3.56000
G1 X71.443 Y95.913 F3900.000
G1 F900
G1 X71.539 Y95.817 E3.56887
G1 X71.584 Y95.520 E3.58857
G1 X71.290 Y95.429 E3.60879
G1 X70.805 Y95.913 E3.65372
G1 X70.168 Y95.913 E3.69556
G1 X70.803 Y95.277 E3.75453
G1 X70.317 Y95.126 E3.78794
G1 X69.530 Y95.913 E3.86097
G1 X68.892 Y95.913 E3.90281
G1 X69.831 Y94.974 E3.98988
G1 X69.345 Y94.823 E4.02330
G1 X68.255 Y95.913 E4.12442
G1 X67.617 Y95.913 E4.16626
G1 X68.858 Y94.672 E4.28144
G1 X68.372 Y94.520 E4.31485
G1 X66.979 Y95.913 E4.44408
G1 X66.342 Y95.913 E4.48592
G1 X67.886 Y94.369 E4.62920
G1 X67.400 Y94.217 E4.66261
G1 X65.704 Y95.913 E4.81994
G1 X65.066 Y95.913 E4.86178
G1 X66.913 Y94.066 E5.03316
G1 X66.427 Y93.914 E5.06658
G1 X64.429 Y95.913 E5.25201
G1 X63.791 Y95.913 E5.29384
G1 X65.941 Y93.763 E5.49333
G1 X65.455 Y93.612 E5.52674
G1 X63.153 Y95.913 E5.74027
G1 X62.516 Y95.913 E5.78211
G1 X64.968 Y93.460 E6.00969
G1 X64.482 Y93.309 E6.04311
G1 X61.878 Y95.913 E6.28474
G1 X61.240 Y95.913 E6.32658
G1 X63.996 Y93.157 E6.58227
G1 X63.510 Y93.006 E6.61568
G1 X60.603 Y95.913 E6.88542
G1 X59.965 Y95.913 E6.92726
G1 X63.023 Y92.854 E7.21104
G1 X62.537 Y92.703 E7.24446
G1 X59.327 Y95.913 E7.54230
G1 X58.690 Y95.913 E7.58414
G1 X62.051 Y92.552 E7.89602
G1 X61.565 Y92.400 E7.92944
G1 X58.052 Y95.913 E8.25538
G1 X57.414 Y95.913 E8.29722
G1 X58.426 Y94.901 E8.39113
G1 X57.910 Y94.779 E8.42592
G1 X56.777 Y95.913 E8.53113
G1 X56.139 Y95.913 E8.57297
G1 X57.394 Y94.657 E8.68946
G1 X56.878 Y94.536 E8.72424
G1 X55.501 Y95.913 E8.85202
G1 X54.864 Y95.913 E8.89386
G1 X56.362 Y94.414 E9.03292
G1 X55.846 Y94.292 E9.06771
G1 X54.226 Y95.913 E9.21806
G1 X53.588 Y95.913 E9.25990
G1 X55.330 Y94.171 E9.42153
G1 X54.814 Y94.049 E9.45632
G1 X52.950 Y95.913 E9.62924
