; generated by Slic3r 1.3.0 on 2022-03-30 at 11:05:12

; external perimeters extrusion width = 0.44mm (0.85mm^3/s)
; perimeters extrusion width = 0.48mm (3.77mm^3/s)
; infill extrusion width = 0.48mm (4.40mm^3/s)
; solid infill extrusion width = 0.48mm (1.26mm^3/s)
; top infill extrusion width = 0.48mm (0.88mm^3/s)

M190 S65 ; set bed temperature and wait for it to be reached
M104 S205 ; set temperature
; M106 P0 S255 ; turn hot-end fan on
G28 ; home all axes
G1 Z5 F5000 ; lift nozzle


; Filament gcode

M109 S205 ; set temperature and wait for it to be reached
G21 ; set units to millimeters
G90 ; use absolute coordinates
M82 ; use absolute distances for extrusion
G92 E0
G1 Z-0.150 F3900.000
G1 E-3.50000 F3000.00000
G92 E0
G1 X67.861 Y91.367 F3900.000
G1 E3.50000 F3000.00000
G1 F900
G1 X104.076 Y62.125 E6.54716
G1 X104.401 Y61.885 E6.57362
G1 X109.723 Y58.269 E6.99484
G1 X113.684 Y55.789 E7.30077
G1 X116.281 Y55.044 E7.47763
G1 X127.458 Y55.044 E8.20933
G1 X129.108 Y55.331 E8.31900
G1 X134.019 Y57.088 E8.66043
G1 X135.703 Y58.110 E8.78938
G1 X136.847 Y59.714 E8.91832
G1 X137.267 Y61.606 E9.04526
G1 X137.536 Y75.557 E9.95873
G1 X137.536 Y120.526 E12.90261
G1 X137.268 Y138.373 E14.07105
G1 X136.843 Y140.296 E14.20000
G1 X135.695 Y141.897 E14.32894
G1 X134.019 Y142.912 E14.45722
G1 X129.108 Y144.669 E14.79866
G1 X127.458 Y144.956 E14.90833
G1 X116.281 Y144.956 E15.64002
G1 X113.684 Y144.211 E15.81688
G1 X109.723 Y141.731 E16.12281
G1 X104.401 Y138.115 E16.54404
G1 X104.076 Y137.875 E16.57049
G1 X67.861 Y108.633 E19.61765
G1 X67.525 Y108.336 E19.64701
G1 X63.950 Y104.864 E19.97328
G1 X62.842 Y103.235 E20.10222
G1 X62.464 Y101.349 E20.22818
G1 X62.464 Y98.651 E20.40479
G1 X62.860 Y96.722 E20.53373
G1 X63.950 Y95.136 E20.65969
G1 X67.525 Y91.664 E20.98596
G1 X67.816 Y91.406 E21.01138
G1 X68.144 Y91.717 F3900.000
G1 F900
G1 X104.359 Y62.476 E24.05854
G1 X104.654 Y62.257 E24.08257
G1 X109.976 Y58.641 E24.50380
G1 X113.922 Y56.171 E24.80860
G1 X116.281 Y55.494 E24.96922
G1 X127.458 Y55.494 E25.70092
G1 X128.957 Y55.754 E25.80052
G1 X133.868 Y57.511 E26.14195
G1 X135.461 Y58.501 E26.26477
G1 X136.505 Y60.060 E26.38759
G1 X136.818 Y61.615 E26.49141
G1 X137.085 Y75.471 E27.39868
G1 X137.086 Y120.593 E30.35257
G1 X136.818 Y138.366 E31.51618
G1 X136.395 Y140.194 E31.63900
G1 X135.256 Y141.685 E31.76183
G1 X133.868 Y142.489 E31.86686
G1 X128.957 Y144.246 E32.20829
G1 X127.458 Y144.506 E32.30789
G1 X116.281 Y144.506 E33.03959
G1 X113.922 Y143.829 E33.20021
G1 X109.976 Y141.359 E33.50502
G1 X104.654 Y137.743 E33.92624
G1 X104.359 Y137.524 E33.95027
G1 X68.144 Y108.283 E36.99743
G1 X67.839 Y108.013 E37.02409
G1 X64.264 Y104.541 E37.35036
G1 X63.223 Y102.980 E37.47318
G1 X62.914 Y101.349 E37.58184
G1 X62.914 Y98.651 E37.75845
G1 X63.309 Y96.817 E37.88127
G1 X64.264 Y95.459 E37.98993
G1 X67.839 Y91.987 E38.31619
G1 X68.099 Y91.756 E38.33893
G1 E34.83893 F3000.00000
G92 E0
G1 X125.728 Y136.509 F3900.000
G1 E3.50000 F3000.00000
G1 F900
G1 X126.054 Y138.601 E3.63862
G1 X123.087 Y138.029 E3.83646
G1 X116.261 Y133.299 E4.38013
G1 X115.428 Y138.152 E4.70252
G1 X113.309 Y136.828 E4.86610
G1 X108.889 Y130.072 E5.39465
G1 X107.170 Y132.196 E5.57353
G1 X104.136 Y128.319 E5.89577
G1 X101.067 Y119.685 E6.49566
G1 X97.812 Y105.196 E7.46783
G1 X94.161 Y105.075 E7.70698
G1 X89.086 Y102.723 E8.07313
G1 X89.133 Y102.511 E8.08733
G1 X106.403 Y102.511 E9.21792
G1 X106.403 Y103.203 E9.26319
G1 X105.088 Y104.210 E9.37160
G1 X103.210 Y103.489 E9.50326
G1 X99.473 Y105.973 E9.79701
G1 X105.693 Y116.396 E10.59163
G1 X115.377 Y126.495 E11.50763
G1 X128.243 Y136.550 E12.57660
G1 X128.169 Y136.738 E12.58984
G1 X125.787 Y136.515 E12.74640
G1 X126.261 Y137.011 F3900.000
G1 F900
G1 X126.598 Y139.164 E12.88907
G1 X122.909 Y138.452 E13.13502
G1 X116.585 Y134.070 E13.63868
G1 X115.758 Y138.889 E13.95874
G1 X112.987 Y137.157 E14.17269
G1 X108.850 Y130.835 E14.66731
G1 X107.164 Y132.918 E14.84279
G1 X103.737 Y128.539 E15.20683
G1 X100.634 Y119.810 E15.81329
G1 X97.449 Y105.634 E16.76445
G1 X94.055 Y105.521 E16.98681
G1 X88.715 Y103.047 E17.37205
G1 X87.727 Y102.061 E17.46341
G1 X106.853 Y102.061 E18.71544
G1 X106.853 Y103.425 E18.80471
G1 X105.162 Y104.720 E18.94412
G1 X103.266 Y103.993 E19.07705
G1 X100.079 Y106.110 E19.32756
G1 X106.053 Y116.121 E20.09076
G1 X115.680 Y126.161 E21.00130
G1 X129.730 Y137.141 E22.16871
G1 X129.656 Y137.329 E22.18194
G1 X126.321 Y137.017 E22.40120
G1 E18.90120 F3000.00000
G92 E0
G1 X76.552 Y102.750 F3900.000
G1 E3.50000 F3000.00000
G1 F900
G1 X71.661 Y103.903 E3.82893
G1 X70.229 Y102.511 E3.95967
G1 X76.524 Y102.511 E4.37181
G1 X76.545 Y102.690 E4.38361
G1 E0.88361 F3000.00000
G92 E0
G1 X79.569 Y102.511 F3900.000
G1 E3.50000 F3000.00000
G1 F900
G1 X82.717 Y102.511 E3.70608
G1 X82.752 Y102.740 E3.72127
G1 X80.294 Y103.506 E3.88980
G1 X79.604 Y102.560 E3.96645
G1 X79.088 Y102.614 F3900.000
G1 F900
G1 X71.581 Y104.384 E4.47136
G1 X71.382 Y104.258 E4.48674
G1 X69.120 Y102.061 E4.69319
G1 X85.675 Y102.061 E5.77696
G1 X85.710 Y102.291 E5.79215
G1 X80.120 Y104.031 E6.17541
G1 X79.123 Y102.663 E6.28624
G1 X78.900 Y103.121 F3900.000
G1 F900
G1 X71.500 Y104.865 E6.78394
G1 X71.102 Y104.614 E6.81475
G1 X68.011 Y101.611 E7.09687
G1 X107.303 Y101.611 E9.66910
G1 X107.303 Y103.647 E9.80236
G1 X105.236 Y105.230 E9.97279
G1 X103.322 Y104.496 E10.10699
G1 X100.685 Y106.248 E10.31424
G1 X106.413 Y115.847 E11.04604
G1 X115.982 Y125.826 E11.95112
G1 X131.218 Y137.732 E13.21695
G1 X131.143 Y137.920 E13.23019
G1 X126.795 Y137.513 E13.51606
G1 X127.141 Y139.727 E13.66278
G1 X122.730 Y138.876 E13.95684
G1 X116.909 Y134.842 E14.42049
G1 X116.088 Y139.626 E14.73822
G1 X112.665 Y137.486 E15.00253
G1 X108.812 Y131.597 E15.46322
G1 X107.158 Y133.641 E15.63531
G1 X103.337 Y128.759 E16.04115
G1 X100.201 Y119.935 E16.65417
G1 X97.087 Y106.072 E17.58433
G1 X93.948 Y105.968 E17.78990
G1 X88.454 Y103.422 E18.18634
G1 X87.297 Y102.267 E18.29331
G1 X79.946 Y104.557 E18.79733
G1 X78.935 Y103.169 E18.90969
G1 X78.639 Y102.818 F3900.000
G1 X78.677 Y102.382 F3900.000
G1 F900
G1 X78.198 Y102.438 E18.92097
G1 F900
G1 X77.719 Y102.493 E18.93895
G1 F900
G1 X77.240 Y102.549 E18.96365
G1 F900
G1 X76.762 Y102.605 E18.99507
G1 X75.390 Y102.764 F3900.000
G1 F900
G1 X74.936 Y102.817 E18.99734
G1 F900
G1 X74.482 Y102.870 E19.00575
G1 F900
G1 X74.027 Y102.922 E19.02030
G1 F900
G1 X73.573 Y102.975 E19.04100
G1 F900
G1 X73.119 Y103.028 E19.06785
G1 F900
G1 X72.892 Y103.054 E19.08434
G1 X72.414 Y103.300 F3900.000
G1 F900
G1 X72.509 Y103.204 E19.09418
G1 X72.476 Y102.913 E19.11547
G1 X72.093 Y102.913 E19.14333
G1 X71.649 Y103.357 E19.18902
G1 X71.290 Y103.009 E19.22541
G1 X71.386 Y102.913 E19.23524
G1 E15.73524 F3000.00000
G92 E0
G1 X78.677 Y102.382 F3900.000
G1 E3.50000 F3000.00000
G1 F900
G1 X79.156 Y102.326 E3.50456
G1 X80.211 Y103.010 F3900.000
G1 F900
G1 X80.391 Y102.982 E3.51498
G1 F900
G1 X80.752 Y102.927 E3.53106
G1 F900
G1 X81.112 Y102.873 E3.54236
G1 F900
G1 X81.473 Y102.818 E3.54888
G1 F900
G1 X81.834 Y102.763 E3.55062
G1 X82.957 Y102.592 F3900.000
G1 F900
G1 X83.324 Y102.536 E3.57275
G1 F900
G1 X83.691 Y102.480 E3.58981
G1 F900
G1 X84.058 Y102.425 E3.60180
G1 F900
G1 X84.424 Y102.369 E3.60874
G1 F900
G1 X84.791 Y102.313 E3.61062
G1 X85.915 Y102.142 F3900.000
G1 F900
G1 X86.370 Y102.073 E3.63798
G1 F900
G1 X86.826 Y102.003 E3.65885
G1 F900
G1 X87.282 Y101.934 E3.67320
G1 E0.17320 F3000.00000
G92 E0
G1 X90.622 Y103.009 F3900.000
G1 E3.50000 F3000.00000
G1 F900
G1 X90.718 Y102.913 E3.50891
G1 X91.359 Y102.913 E3.55124
G1 X91.060 Y103.212 E3.57912
G1 X91.499 Y103.415 E3.61100
G1 X92.000 Y102.913 E3.65784
G1 X92.642 Y102.913 E3.70018
G1 X91.937 Y103.618 E3.76597
G1 X92.375 Y103.821 E3.79786
G1 X93.283 Y102.913 E3.88261
G1 X93.925 Y102.913 E3.92495
G1 X92.814 Y104.024 E4.02866
G1 X93.252 Y104.228 E4.06055
G1 X94.566 Y102.913 E4.18322
G1 X95.208 Y102.913 E4.22556
G1 X93.690 Y104.431 E4.36719
G1 X94.129 Y104.634 E4.39908
G1 X95.849 Y102.913 E4.55968
G1 X96.491 Y102.913 E4.60201
G1 X94.712 Y104.692 E4.76805
G1 X95.333 Y104.713 E4.80905
G1 X97.132 Y102.913 E4.97702
G1 X97.774 Y102.913 E5.01936
G1 X95.953 Y104.733 E5.18924
G1 X96.574 Y104.754 E5.23024
G1 X98.415 Y102.913 E5.40205
G1 X99.056 Y102.913 E5.44439
G1 X97.195 Y104.775 E5.61812
G1 X97.816 Y104.795 E5.65912
G1 X99.698 Y102.913 E5.83478
G1 X100.339 Y102.913 E5.87712
G1 X98.186 Y105.067 E6.07815
G1 X98.303 Y105.591 E6.11358
G1 X100.981 Y102.913 E6.36350
G1 X101.622 Y102.913 E6.40584
G1 X98.421 Y106.115 E6.70465
G1 X98.539 Y106.638 E6.74008
G1 X99.092 Y106.085 E6.79175
G1 X99.332 Y106.487 E6.82262
G1 X98.656 Y107.162 E6.88568
G1 X98.774 Y107.686 E6.92111
G1 X99.572 Y106.888 E6.99556
G1 X99.811 Y107.290 E7.02644
G1 X98.892 Y108.210 E7.11228
G1 X99.009 Y108.733 E7.14771
G1 X100.051 Y107.692 E7.24495
G1 X100.291 Y108.093 E7.27583
G1 X99.127 Y109.257 E7.38445
G1 X99.245 Y109.781 E7.41988
G1 X100.531 Y108.495 E7.53990
G1 X100.770 Y108.897 E7.57078
G1 X99.362 Y110.305 E7.70219
G1 X99.480 Y110.829 E7.73762
G1 X101.010 Y109.299 E7.88042
G1 X101.250 Y109.700 E7.91130
G1 X99.598 Y111.352 E8.06550
G1 X99.715 Y111.876 E8.10093
G1 X101.489 Y110.102 E8.26651
G1 X101.729 Y110.504 E8.29739
G1 X99.833 Y112.400 E8.47437
G1 X99.951 Y112.924 E8.50980
G1 X101.969 Y110.905 E8.69817
G1 X102.209 Y111.307 E8.72905
G1 X100.069 Y113.447 E8.92881
G1 X100.186 Y113.971 E8.96424
G1 X102.448 Y111.709 E9.17539
G1 X102.688 Y112.111 E9.20627
G1 X100.304 Y114.495 E9.42882
G1 X100.422 Y115.019 E9.46425
G1 X102.928 Y112.512 E9.69818
G1 X103.168 Y112.914 E9.72906
G1 X100.539 Y115.542 E9.97439
G1 X100.657 Y116.066 E10.00982
G1 X103.407 Y113.316 E10.26654
G1 X103.647 Y113.718 E10.29742
G1 X100.775 Y116.590 E10.56553
G1 X100.892 Y117.114 E10.60096
G1 X103.887 Y114.119 E10.88047
G1 X104.127 Y114.521 E10.91135
G1 X101.010 Y117.638 E11.20224
G1 X101.128 Y118.161 E11.23767
G1 X104.366 Y114.923 E11.53996
G1 X104.606 Y115.324 E11.57084
G1 X101.245 Y118.685 E11.88452
G1 X101.363 Y119.209 E11.91995
G1 X104.846 Y115.726 E12.24503
G1 X105.085 Y116.128 E12.27590
G1 X101.493 Y119.721 E12.61124
G1 X101.661 Y120.194 E12.64439
G1 X105.325 Y116.530 E12.98641
G1 X105.381 Y116.622 E12.99355
G1 X105.622 Y116.874 E13.01657
G1 X101.829 Y120.667 E13.37059
G1 X101.997 Y121.140 E13.40374
G1 X105.936 Y117.202 E13.77137
G1 X106.250 Y117.529 E13.80131
G1 X102.166 Y121.614 E14.18255
G1 X102.334 Y122.087 E14.21570
G1 X106.564 Y117.857 E14.61055
G1 X106.878 Y118.184 E14.64049
G1 X102.502 Y122.560 E15.04895
G1 X102.670 Y123.033 E15.08210
G1 X107.192 Y118.512 E15.50417
G1 X107.506 Y118.839 E15.53411
G1 X102.838 Y123.507 E15.96978
G1 X103.007 Y123.980 E16.00293
G1 X107.820 Y119.166 E16.45222
G1 X108.134 Y119.494 E16.48216
G1 X103.175 Y124.453 E16.94506
G1 X103.343 Y124.926 E16.97820
G1 X108.448 Y119.821 E17.45471
G1 X108.762 Y120.149 E17.48465
G1 X103.511 Y125.400 E17.97476
G1 X103.679 Y125.873 E18.00791
G1 X109.076 Y120.476 E18.51163
G1 X109.390 Y120.804 E18.54158
G1 X103.848 Y126.346 E19.05890
G1 X104.016 Y126.819 E19.09205
G1 X109.704 Y121.131 E19.62299
G1 X110.018 Y121.459 E19.65294
G1 X104.184 Y127.293 E20.19748
G1 X104.352 Y127.766 E20.23063
G1 X110.332 Y121.786 E20.78879
G1 X110.646 Y122.114 E20.81873
G1 X104.542 Y128.217 E21.38844
G1 X104.824 Y128.577 E21.41860
G1 X110.960 Y122.441 E21.99134
G1 X111.274 Y122.768 E22.02128
G1 X105.106 Y128.937 E22.59704
G1 X105.387 Y129.297 E22.62720
G1 X111.588 Y123.096 E23.20599
G1 X111.902 Y123.423 E23.23593
G1 X105.669 Y129.657 E23.81774
G1 X105.950 Y130.016 E23.84790
G1 X112.216 Y123.751 E24.43273
G1 X112.530 Y124.078 E24.46267
G1 X106.232 Y130.376 E25.05053
G1 X106.513 Y130.736 E25.08069
G1 X112.844 Y124.406 E25.67157
G1 X113.158 Y124.733 E25.70152
G1 X106.795 Y131.096 E26.29542
G1 X107.077 Y131.456 E26.32558
G1 X107.622 Y130.911 E26.37649
G1 X108.879 Y129.357 E26.50840
G1 X108.997 Y129.536 E26.52252
G1 X113.472 Y125.061 E26.94024
G1 X113.786 Y125.388 E26.97019
G1 X109.250 Y129.924 E27.39354
G1 X109.504 Y130.311 E27.42412
G1 X114.100 Y125.716 E27.85310
G1 X114.414 Y126.043 E27.88304
G1 X109.758 Y130.699 E28.31765
G1 X110.011 Y131.087 E28.34823
G1 X114.728 Y126.370 E28.78847
G1 X115.042 Y126.698 E28.81841
G1 X110.265 Y131.475 E29.26427
G1 X110.519 Y131.862 E29.29485
G1 X115.390 Y126.991 E29.74954
G1 X115.750 Y127.273 E29.77970
G1 X110.773 Y132.250 E30.24431
G1 X111.026 Y132.638 E30.27489
G1 X116.110 Y127.554 E30.74943
G1 X116.470 Y127.835 E30.77959
G1 X111.280 Y133.026 E31.26406
G1 X111.534 Y133.413 E31.29464
G1 X116.830 Y128.117 E31.78903
G1 X117.190 Y128.398 E31.81919
G1 X111.787 Y133.801 E32.32351
G1 X112.041 Y134.189 E32.35409
G1 X117.550 Y128.680 E32.86834
G1 X117.911 Y128.961 E32.89850
G1 X112.295 Y134.577 E33.42267
G1 X112.549 Y134.964 E33.45326
G1 X118.271 Y129.242 E33.98736
G1 X118.631 Y129.524 E34.01752
G1 X112.802 Y135.352 E34.56154
G1 X113.056 Y135.740 E34.59213
G1 X115.820 Y132.975 E34.85017
G1 X115.889 Y132.574 E34.87702
G1 X116.085 Y132.710 E34.89277
G1 X118.991 Y129.805 E35.16395
G1 X119.351 Y130.086 E35.19411
G1 X116.464 Y132.973 E35.46353
G1 X116.843 Y133.236 E35.49396
G1 X119.711 Y130.368 E35.76162
G1 X120.071 Y130.649 E35.79178
G1 X117.222 Y133.498 E36.05769
G1 X117.601 Y133.761 E36.08811
G1 X120.431 Y130.931 E36.35226
G1 X120.791 Y131.212 E36.38242
G1 X117.980 Y134.023 E36.64481
G1 X118.359 Y134.286 E36.67524
G1 X121.151 Y131.493 E36.93587
G1 X121.511 Y131.775 E36.96603
G1 X118.738 Y134.548 E37.22491
G1 X119.117 Y134.811 E37.25533
G1 X121.871 Y132.056 E37.51245
G1 X122.231 Y132.338 E37.54261
G1 X119.496 Y135.073 E37.79797
G1 X119.874 Y135.336 E37.82839
G1 X122.591 Y132.619 E38.08200
G1 X122.951 Y132.900 E38.11216
G1 X120.253 Y135.599 E38.36400
G1 X120.632 Y135.861 E38.39442
G1 X123.311 Y133.182 E38.64451
G1 X123.672 Y133.463 E38.67467
G1 X121.011 Y136.124 E38.92300
G1 X121.390 Y136.386 E38.95342
G1 X124.032 Y133.745 E39.19999
G1 X124.392 Y134.026 E39.23015
G1 X121.769 Y136.649 E39.47497
G1 X122.148 Y136.911 E39.50539
G1 X124.752 Y134.307 E39.74844
G1 X125.112 Y134.589 E39.77860
G1 X122.527 Y137.174 E40.01990
G1 X122.906 Y137.436 E40.05033
G1 X125.472 Y134.870 E40.28986
G1 X125.832 Y135.152 E40.32002
G1 X123.312 Y137.671 E40.55519
G1 X123.850 Y137.775 E40.59133
G1 X125.299 Y136.326 E40.72655
G1 X125.386 Y136.881 E40.76361
G1 X124.388 Y137.878 E40.85673
G1 X124.926 Y137.982 E40.89288
G1 X125.472 Y137.436 E40.94389
G1 X125.559 Y137.990 E40.98096
G1 X125.463 Y138.086 E40.98987
G1 E37.48987 F3000.00000
G92 E0
G1 X126.707 Y136.201 F3900.000
G1 E3.50000 F3000.00000
G1 F900
G1 X126.912 Y135.996 E3.51919
G1 X126.552 Y135.714 E3.54935
G1 X126.120 Y136.146 E3.58968
G1 X125.534 Y136.091 E3.62856
G1 X126.192 Y135.433 E3.69002
G1 X125.832 Y135.152 E3.72018
G1 E0.22018 F3000.00000
G92 E0
G1 X115.916 Y132.880 F3900.000
G1 E3.50000 F3000.00000
G1 F900
G1 X115.783 Y133.654 E3.55185
G1 X113.310 Y136.128 E3.78272
G1 X113.563 Y136.515 E3.81330
G1 X115.650 Y134.429 E4.00809
G1 X115.517 Y135.203 E4.05994
G1 X113.947 Y136.773 E4.20654
G1 X114.341 Y137.020 E4.23726
G1 X115.385 Y135.977 E4.33462
G1 X115.252 Y136.751 E4.38647
G1 X114.736 Y137.267 E4.43458
G1 E0.93458 F3000.00000
G92 E0
G1 X98.997 Y106.180 F3900.000
G1 E3.50000 F3000.00000
G1 F900
G1 X98.819 Y105.883 E3.52287
G1 X100.235 Y104.942 E3.63502
G1 X102.264 Y102.913 E3.82442
G1 X102.905 Y102.913 E3.86675
G1 X102.146 Y103.673 E3.93764
G1 X103.107 Y103.034 E4.01382
G1 X103.338 Y103.122 E4.03010
G1 X103.547 Y102.913 E4.04962
G1 X104.188 Y102.913 E4.09196
G1 X103.801 Y103.300 E4.12807
G1 X104.265 Y103.478 E4.16084
G1 X104.830 Y102.913 E4.21355
G1 X105.471 Y102.913 E4.25589
G1 X104.728 Y103.656 E4.32519
G1 E0.82519 F3000.00000
G92 E0
G1 X115.116 Y102.615 F3900.000
G1 E3.50000 F3000.00000
G1 F900
G1 X115.116 Y96.952 E3.87073
G1 X120.779 Y96.952 E4.24146
G1 X120.779 Y102.615 E4.61219
G1 X115.176 Y102.615 E4.97899
G1 X115.566 Y102.166 F3900.000
G1 F900
G1 X115.566 Y97.402 E5.29081
G1 X120.329 Y97.402 E5.60264
G1 X120.329 Y102.166 E5.91446
G1 X115.626 Y102.166 E6.22236
G1 X116.016 Y101.716 F3900.000
G1 F900
G1 X116.016 Y97.852 E6.47528
G1 X119.879 Y97.852 E6.72820
G1 X119.879 Y101.716 E6.98112
