; generated by Slic3r 1.3.0 on 2021-08-01 at 10:19:48

; external perimeters extrusion width = 0.44mm (0.85mm^3/s)
; perimeters extrusion width = 0.48mm (3.77mm^3/s)
; infill extrusion width = 0.48mm (4.40mm^3/s)
; solid infill extrusion width = 0.48mm (1.26mm^3/s)
; top infill extrusion width = 0.48mm (0.88mm^3/s)

M190 S65 ; set bed temperature and wait for it to be reached
M104 S205 ; set temperature
; M106 P0 S255 ; turn hot-end fan on
G28 ; home all axes
G1 Z5 F5000 ; lift nozzle


; Filament gcode

M109 S205 ; set temperature and wait for it to be reached
G21 ; set units to millimeters
G90 ; use absolute coordinates
M82 ; use absolute distances for extrusion
G92 E0
G1 Z-0.150 F3900.000
G1 E-3.50000 F3000.00000
G92 E0
G1 X74.724 Y82.326 F3900.000
G1 E3.50000 F3000.00000
G1 F900
G1 X75.631 Y81.573 E3.57721
G1 X76.047 Y81.264 E3.61110
G1 X77.133 Y80.584 E3.69499
G1 X77.725 Y80.265 E3.73905
G1 X79.065 Y79.664 E3.83516
G1 X103.063 Y70.403 E5.51910
G1 X105.005 Y70.077 E5.64805
G1 X106.873 Y70.522 E5.77370
G1 X110.281 Y72.088 E6.01926
G1 X110.781 Y72.354 E6.05634
G1 X114.008 Y74.326 E6.30393
G1 X114.353 Y74.557 E6.33111
G1 X121.703 Y79.966 E6.92856
G1 X122.202 Y80.394 E6.97156
G1 X123.114 Y81.532 E7.06703
G1 X123.485 Y82.227 E7.11859
G1 X127.255 Y90.742 E7.72824
G1 X128.102 Y93.032 E7.88806
G1 X128.407 Y94.733 E8.00118
G1 X128.407 Y121.911 E9.78038
G1 X128.011 Y123.840 E9.90933
G1 X126.887 Y125.458 E10.03828
G1 X124.918 Y126.603 E10.18743
G1 X120.405 Y127.949 E10.49572
G1 X120.016 Y128.048 E10.52198
G1 X115.371 Y129.028 E10.83275
G1 X114.970 Y129.095 E10.85936
G1 X110.083 Y129.705 E11.18182
G1 X105.030 Y129.922 E11.51291
G1 X104.624 Y129.922 E11.53949
G1 X99.836 Y129.723 E11.85320
G1 X99.432 Y129.690 E11.87971
G1 X94.818 Y129.114 E12.18410
G1 X94.284 Y129.028 E12.21952
G1 X89.790 Y128.081 E12.52019
G1 X89.248 Y127.949 E12.55668
G1 X84.736 Y126.603 E12.86493
G1 X83.002 Y125.669 E12.99388
G1 X81.440 Y123.273 E13.18112
G1 X71.796 Y89.948 E15.45224
G1 X71.606 Y88.760 E15.53097
G1 X71.596 Y88.472 E15.54985
G1 X71.711 Y87.227 E15.63170
G1 X71.818 Y86.767 E15.66260
G1 X72.016 Y86.159 E15.70449
G1 X72.221 Y85.645 E15.74071
G1 X72.599 Y84.894 E15.79578
G1 X72.968 Y84.298 E15.84163
G1 X73.443 Y83.675 E15.89293
G1 X74.206 Y82.824 E15.96775
G1 X74.681 Y82.368 E16.01084
G1 X75.011 Y82.672 F3900.000
G1 F900
G1 X75.919 Y81.919 E16.08806
G1 X76.296 Y81.639 E16.11883
G1 X77.370 Y80.966 E16.20183
G1 X77.912 Y80.674 E16.24210
G1 X79.227 Y80.083 E16.33645
G1 X103.225 Y70.822 E18.02040
G1 X105.078 Y70.531 E18.14322
G1 X106.685 Y70.930 E18.25160
G1 X110.092 Y72.496 E18.49712
G1 X110.546 Y72.738 E18.53079
G1 X113.774 Y74.710 E18.77837
G1 X114.087 Y74.920 E18.80305
G1 X121.413 Y80.310 E19.39848
G1 X121.897 Y80.725 E19.44020
G1 X122.725 Y81.758 E19.52691
G1 X123.074 Y82.410 E19.57526
G1 X126.833 Y90.898 E20.18304
G1 X127.680 Y93.188 E20.34286
G1 X127.957 Y94.733 E20.44560
G1 X127.957 Y121.911 E22.22480
G1 X127.562 Y123.745 E22.34762
G1 X126.445 Y125.253 E22.47044
G1 X124.788 Y126.172 E22.59452
G1 X124.610 Y126.226 E22.60667
G1 X120.276 Y127.518 E22.90275
G1 X119.923 Y127.608 E22.92659
G1 X115.278 Y128.588 E23.23737
G1 X114.914 Y128.649 E23.26153
G1 X110.040 Y129.257 E23.58312
G1 X105.011 Y129.472 E23.91262
G1 X104.642 Y129.472 E23.93675
G1 X99.854 Y129.274 E24.25047
G1 X99.488 Y129.243 E24.27455
G1 X94.874 Y128.668 E24.57893
G1 X94.377 Y128.588 E24.61190
G1 X89.883 Y127.641 E24.91256
G1 X89.377 Y127.518 E24.94664
G1 X84.866 Y126.172 E25.25482
G1 X83.223 Y125.266 E25.37765
G1 X81.872 Y123.148 E25.54210
G1 X72.229 Y89.823 E27.81322
G1 X72.056 Y88.744 E27.88473
G1 X72.046 Y88.456 E27.90360
G1 X72.150 Y87.325 E27.97794
G1 X72.254 Y86.878 E28.00797
G1 X72.434 Y86.326 E28.04602
G1 X72.639 Y85.812 E28.08224
G1 X72.982 Y85.130 E28.13225
G1 X73.346 Y84.541 E28.17754
G1 X73.778 Y83.975 E28.22414
G1 X74.541 Y83.125 E28.29894
G1 X74.968 Y82.714 E28.33772
G1 E24.83772 F3000.00000
G92 E0
G1 X90.537 Y87.857 F3900.000
G1 E3.50000 F3000.00000
G1 F900
G1 X77.834 Y87.857 E4.33160
G1 X78.661 Y86.937 E4.41259
G1 X79.442 Y86.288 E4.47908
G1 X80.274 Y85.769 E4.54330
G1 X81.213 Y85.338 E4.61091
G1 X83.195 Y84.854 E4.74448
G1 X92.910 Y84.854 E5.38044
G1 X95.865 Y81.838 E5.65691
G1 X98.759 Y79.537 E5.89891
G1 X101.910 Y77.596 E6.14117
G1 X104.827 Y76.253 E6.35143
G1 X107.681 Y77.564 E6.55700
G1 X110.789 Y79.463 E6.79544
G1 X113.640 Y81.710 E7.03314
G1 X116.584 Y84.667 E7.30626
G1 X117.789 Y84.668 E7.38512
G1 X117.926 Y84.689 E7.39421
G1 X117.953 Y84.796 E7.40147
G1 X117.953 Y86.420 E7.50777
G1 X119.465 Y88.700 E7.68685
G1 X120.609 Y90.756 E7.84090
G1 X121.585 Y92.888 E7.99436
G1 X122.345 Y94.941 E8.13770
G1 X122.345 Y121.045 E9.84657
G1 X118.718 Y122.126 E10.09433
G1 X114.167 Y123.086 E10.39882
G1 X109.519 Y123.668 E10.70550
G1 X104.827 Y123.863 E11.01293
G1 X100.135 Y123.668 E11.32033
G1 X95.487 Y123.086 E11.62701
G1 X90.935 Y122.126 E11.93153
G1 X87.309 Y121.045 E12.17926
G1 X87.309 Y94.947 E13.88775
G1 X88.324 Y92.284 E14.07431
G1 X90.511 Y87.911 E14.39436
G1 X89.809 Y88.307 F3900.000
G1 F900
G1 X77.208 Y88.307 E15.21933
G1 X77.412 Y87.782 E15.25622
G1 X77.663 Y87.375 E15.28758
G1 X78.348 Y86.612 E15.35468
G1 X79.178 Y85.923 E15.42532
G1 X80.061 Y85.372 E15.49340
G1 X81.064 Y84.911 E15.56571
G1 X83.144 Y84.404 E15.70587
G1 X92.721 Y84.404 E16.33278
G1 X95.564 Y81.503 E16.59869
G1 X98.500 Y79.168 E16.84429
G1 X101.697 Y77.199 E17.09008
G1 X104.827 Y75.758 E17.31567
G1 X107.893 Y77.167 E17.53655
G1 X111.046 Y79.093 E17.77845
G1 X113.940 Y81.374 E18.01967
G1 X116.772 Y84.217 E18.28235
G1 X117.823 Y84.218 E18.35121
G1 X117.961 Y84.239 E18.36030
G1 X118.149 Y84.311 E18.37352
G1 X118.335 Y84.469 E18.38949
G1 X118.403 Y84.742 E18.40790
G1 X118.403 Y86.284 E18.50890
G1 X119.849 Y88.466 E18.68024
G1 X121.011 Y90.553 E18.83659
G1 X122.001 Y92.716 E18.99232
G1 X122.795 Y94.860 E19.14204
G1 X122.795 Y121.380 E20.87813
G1 X118.829 Y122.563 E21.14905
G1 X114.242 Y123.531 E21.45597
G1 X109.556 Y124.117 E21.76511
G1 X104.827 Y124.313 E22.07498
G1 X100.098 Y124.117 E22.38482
G1 X95.412 Y123.531 E22.69396
G1 X90.824 Y122.563 E23.00092
G1 X86.859 Y121.380 E23.27180
G1 X86.859 Y94.864 E25.00766
G1 X87.912 Y92.103 E25.20112
G1 X89.783 Y88.361 E25.47498
G1 X89.081 Y88.757 F3900.000
G1 F900
G1 X76.972 Y88.757 E26.26772
G1 X76.834 Y88.644 E26.27943
G1 X76.764 Y88.539 E26.28765
G1 X76.756 Y88.322 E26.30189
G1 X76.807 Y88.097 E26.31698
G1 X77.007 Y87.581 E26.35324
G1 X77.302 Y87.104 E26.38993
G1 X78.035 Y86.287 E26.46183
G1 X78.914 Y85.557 E26.53662
G1 X79.847 Y84.975 E26.60856
G1 X80.916 Y84.484 E26.68557
G1 X83.094 Y83.954 E26.83235
G1 X92.532 Y83.954 E27.45017
G1 X95.262 Y81.168 E27.70554
G1 X98.241 Y78.799 E27.95472
G1 X101.484 Y76.802 E28.20405
G1 X104.827 Y75.263 E28.44497
G1 X108.105 Y76.769 E28.68115
G1 X111.304 Y78.723 E28.92652
G1 X114.240 Y81.037 E29.17127
G1 X116.959 Y83.767 E29.42349
G1 X117.858 Y83.768 E29.48236
G1 X118.060 Y83.799 E29.49574
G1 X118.228 Y83.849 E29.50721
G1 X118.396 Y83.931 E29.51947
G1 X118.674 Y84.166 E29.54333
G1 X118.761 Y84.315 E29.55458
G1 X118.853 Y84.687 E29.57967
G1 X118.853 Y86.149 E29.67538
G1 X120.234 Y88.232 E29.83899
G1 X121.412 Y90.349 E29.99764
G1 X122.417 Y92.544 E30.15563
G1 X123.245 Y94.780 E30.31173
G1 X123.245 Y121.715 E32.07504
G1 X118.940 Y122.999 E32.36912
G1 X114.316 Y123.975 E32.67848
G1 X109.593 Y124.566 E32.99007
G1 X104.827 Y124.764 E33.30239
G1 X100.061 Y124.566 E33.61468
G1 X95.338 Y123.975 E33.92627
G1 X90.713 Y122.999 E34.23566
G1 X86.409 Y121.715 E34.52970
G1 X86.409 Y94.781 E36.29293
G1 X87.499 Y91.921 E36.49328
G1 X89.055 Y88.811 E36.72094
G1 X89.137 Y88.361 F3900.000
G1 E33.22094 F3000.00000
G92 E0
G1 X79.022 Y87.213 F3900.000
G1 E3.50000 F3000.00000
G1 F900
G1 X78.795 Y87.455 E3.52176
G1 X79.416 Y87.455 E3.56247
G1 X80.939 Y85.933 E3.70348
G1 X81.409 Y85.717 E3.73735
G1 X81.915 Y85.593 E3.77144
G1 X80.053 Y87.455 E3.94388
G1 X80.689 Y87.455 E3.98555
G1 X82.757 Y85.388 E4.17700
G1 X83.297 Y85.256 E4.21340
G1 X83.525 Y85.256 E4.22834
G1 X81.326 Y87.455 E4.43199
G1 X81.962 Y87.455 E4.47367
G1 X84.161 Y85.256 E4.67732
G1 X84.798 Y85.256 E4.71899
G1 X82.598 Y87.455 E4.92265
G1 X83.235 Y87.455 E4.96432
G1 X85.434 Y85.256 E5.16797
G1 X86.070 Y85.256 E5.20965
G1 X83.871 Y87.455 E5.41330
G1 X84.508 Y87.455 E5.45497
G1 X86.707 Y85.256 E5.65863
G1 X87.343 Y85.256 E5.70030
G1 X85.144 Y87.455 E5.90395
G1 X85.781 Y87.455 E5.94563
G1 X87.980 Y85.256 E6.14928
G1 X88.616 Y85.256 E6.19095
G1 X86.417 Y87.455 E6.39461
G1 X87.053 Y87.455 E6.43628
G1 X89.252 Y85.256 E6.63993
G1 X89.889 Y85.256 E6.68160
G1 X87.690 Y87.455 E6.88526
G1 X88.326 Y87.455 E6.92693
G1 X90.525 Y85.256 E7.13058
G1 X91.162 Y85.256 E7.17226
G1 X88.963 Y87.455 E7.37591
G1 X89.599 Y87.455 E7.41758
G1 X91.798 Y85.256 E7.62124
G1 X92.435 Y85.256 E7.66291
G1 X90.235 Y87.455 E7.86656
G1 X90.872 Y87.455 E7.90824
G1 X93.071 Y85.256 E8.11189
G1 X93.146 Y85.256 E8.11683
G1 X96.215 Y82.125 E8.40392
G1 X99.066 Y79.858 E8.64240
G1 X99.168 Y79.795 E8.65027
G1 X90.927 Y88.037 E9.41345
G1 X90.290 Y89.309 E9.50664
G1 X100.826 Y78.774 E10.48229
G1 X102.170 Y77.946 E10.58567
G1 X102.393 Y77.843 E10.60177
G1 X89.654 Y90.582 E11.78150
G1 X89.018 Y91.855 E11.87468
G1 X103.573 Y77.300 E13.22256
G1 X104.752 Y76.757 E13.30757
G1 X88.499 Y93.010 E14.81265
G1 X88.107 Y94.038 E14.88472
G1 X105.266 Y76.880 E16.47368
G1 X105.702 Y77.080 E16.50510
G1 X87.715 Y95.067 E18.17075
G1 X87.711 Y95.707 E18.21268
G1 X106.138 Y77.281 E19.91908
G1 X106.574 Y77.481 E19.95051
G1 X87.711 Y96.344 E21.69728
G1 X87.711 Y96.980 E21.73896
G1 X107.010 Y77.681 E23.52611
G1 X107.445 Y77.883 E23.55751
G1 X87.711 Y97.616 E25.38497
G1 X87.711 Y98.253 E25.42664
G1 X107.841 Y78.123 E27.29077
G1 X108.237 Y78.363 E27.32111
G1 X87.711 Y98.889 E29.22191
G1 X87.711 Y99.526 E29.26358
G1 X108.633 Y78.604 E31.20105
G1 X109.029 Y78.844 E31.23139
G1 X87.711 Y100.162 E33.20553
G1 X87.711 Y100.798 E33.24721
G1 X109.425 Y79.085 E35.25803
G1 X109.821 Y79.325 E35.28836
G1 X87.711 Y101.435 E37.33585
G1 X87.711 Y102.071 E37.37752
G1 X110.217 Y79.565 E39.46169
G1 X110.610 Y79.809 E39.49195
G1 X87.711 Y102.708 E41.61247
G1 X87.711 Y103.344 E41.65414
G1 X110.966 Y80.090 E43.80762
G1 X111.321 Y80.370 E43.83730
G1 X87.711 Y103.980 E46.02374
G1 X87.711 Y104.617 E46.06541
G1 X111.677 Y80.651 E48.28481
G1 X112.033 Y80.931 E48.31448
G1 X87.711 Y105.253 E50.56684
G1 X87.711 Y105.890 E50.60852
G1 X112.389 Y81.212 E52.89384
G1 X112.745 Y81.492 E52.92351
G1 X87.711 Y106.526 E55.24179
G1 X87.711 Y107.163 E55.28346
G1 X113.101 Y81.773 E57.63470
G1 X113.450 Y82.061 E57.66431
G1 X87.711 Y107.799 E60.04782
G1 X87.711 Y108.435 E60.08950
G1 X113.767 Y82.379 E62.50242
G1 X114.085 Y82.698 E62.53189
G1 X87.711 Y109.072 E64.97422
G1 X87.711 Y109.708 E65.01589
G1 X114.402 Y83.017 E67.48763
G1 X114.720 Y83.336 E67.51709
G1 X87.711 Y110.345 E70.01824
G1 X87.711 Y110.981 E70.05991
G1 X115.037 Y83.655 E72.59046
G1 X115.355 Y83.974 E72.61993
G1 X87.711 Y111.617 E75.17988
G1 X87.711 Y112.254 E75.22155
G1 X115.672 Y84.293 E77.81092
G1 X115.990 Y84.611 E77.84038
G1 X87.711 Y112.890 E80.45915
G1 X87.711 Y113.527 E80.50083
G1 X116.307 Y84.930 E83.14900
G1 X116.445 Y85.069 E83.16178
G1 X116.805 Y85.069 E83.18536
G1 X87.711 Y114.163 E85.87964
G1 X87.711 Y114.799 E85.92131
G1 X117.441 Y85.069 E88.67447
G1 X117.551 Y85.070 E88.68165
G1 X117.551 Y85.596 E88.71614
G1 X87.711 Y115.436 E91.47945
G1 X87.711 Y116.072 E91.52113
G1 X117.551 Y86.233 E94.28444
G1 X117.551 Y86.508 E94.30248
G1 X117.695 Y86.725 E94.31953
G1 X87.711 Y116.709 E97.09618
G1 X87.711 Y117.345 E97.13785
G1 X117.948 Y87.108 E99.93800
G1 X118.202 Y87.490 E99.96807
G1 X87.711 Y117.981 E102.79171
G1 X87.711 Y118.618 E102.83338
G1 X118.456 Y87.873 E105.68052
G1 X118.710 Y88.256 E105.71059
G1 X87.711 Y119.254 E108.58122
G1 X87.711 Y119.891 E108.62290
G1 X118.963 Y88.638 E111.51703
G1 X119.208 Y89.030 E111.54728
G1 X87.711 Y120.527 E114.46405
G1 X87.711 Y120.757 E114.47911
G1 X88.024 Y120.850 E114.50050
G1 X119.435 Y89.439 E117.40936
G1 X119.663 Y89.848 E117.44000
G1 X88.514 Y120.997 E120.32454
G1 X89.005 Y121.143 E120.35803
G1 X119.891 Y90.257 E123.21825
G1 X120.118 Y90.666 E123.24889
G1 X89.495 Y121.289 E126.08478
G1 X89.985 Y121.435 E126.11828
G1 X120.335 Y91.086 E128.92883
G1 X120.535 Y91.522 E128.96027
G1 X90.475 Y121.582 E131.74393
G1 X90.965 Y121.728 E131.77743
G1 X120.734 Y91.959 E134.53421
G1 X120.934 Y92.395 E134.56565
G1 X91.488 Y121.841 E137.29250
G1 X92.014 Y121.952 E137.32767
G1 X121.134 Y92.832 E140.02436
G1 X121.318 Y93.285 E140.05636
G1 X92.540 Y122.063 E142.72136
G1 X93.065 Y122.174 E142.75653
G1 X121.490 Y93.749 E145.38880
G1 X121.661 Y94.214 E145.42123
G1 X93.591 Y122.285 E148.02074
G1 X94.116 Y122.395 E148.05591
G1 X121.833 Y94.678 E150.62268
G1 X121.943 Y94.974 E150.64333
G1 X121.943 Y95.205 E150.65847
G1 X94.642 Y122.506 E153.18671
G1 X95.167 Y122.617 E153.22188
G1 X121.943 Y95.842 E155.70145
G1 X121.943 Y96.478 E155.74312
G1 X95.706 Y122.714 E158.17276
G1 X96.272 Y122.785 E158.21008
G1 X121.943 Y97.114 E160.58734
G1 X121.943 Y97.751 E160.62902
G1 X96.838 Y122.856 E162.95390
G1 X97.403 Y122.927 E162.99122
G1 X121.943 Y98.387 E165.26372
G1 X121.943 Y99.024 E165.30540
G1 X97.969 Y122.998 E167.52552
G1 X98.534 Y123.068 E167.56285
G1 X121.943 Y99.660 E169.73060
G1 X121.943 Y100.296 E169.77227
G1 X99.100 Y123.139 E171.88764
G1 X99.666 Y123.210 E171.92497
G1 X121.943 Y100.933 E173.98796
G1 X121.943 Y101.569 E174.02963
G1 X100.240 Y123.272 E176.03946
G1 X100.851 Y123.298 E176.07951
G1 X121.943 Y102.206 E178.03274
G1 X121.943 Y102.842 E178.07441
G1 X101.462 Y123.323 E179.97106
G1 X102.073 Y123.348 E180.01111
G1 X121.943 Y103.478 E181.85117
G1 X121.943 Y104.115 E181.89284
G1 X102.684 Y123.374 E183.67631
G1 X103.295 Y123.399 E183.71636
G1 X121.943 Y104.751 E185.44324
G1 X121.943 Y105.388 E185.48491
G1 X103.906 Y123.424 E187.15520
G1 X104.517 Y123.450 E187.19525
G1 X121.943 Y106.024 E188.80895
G1 X121.943 Y106.660 E188.85062
G1 X105.159 Y123.445 E190.40494
G1 X105.823 Y123.417 E190.44845
G1 X121.943 Y107.297 E191.94128
G1 X121.943 Y107.933 E191.98295
G1 X106.486 Y123.390 E193.41430
G1 X107.150 Y123.362 E193.45781
G1 X121.943 Y108.570 E194.82768
G1 X121.943 Y109.206 E194.86935
G1 X107.814 Y123.335 E196.17773
G1 X108.478 Y123.307 E196.22125
G1 X121.943 Y109.842 E197.46814
G1 X121.943 Y110.479 E197.50982
G1 X109.142 Y123.280 E198.69523
G1 X109.434 Y123.267 E198.71434
G1 X109.842 Y123.216 E198.74126
G1 X121.943 Y111.115 E199.86189
G1 X121.943 Y111.752 E199.90356
G1 X110.569 Y123.125 E200.95682
G1 X111.297 Y123.034 E201.00483
G1 X121.943 Y112.388 E201.99072
G1 X121.943 Y113.025 E202.03240
G1 X112.024 Y122.943 E202.95092
G1 X112.752 Y122.852 E202.99893
G1 X121.943 Y113.661 E203.85008
G1 X121.943 Y114.297 E203.89175
G1 X113.479 Y122.761 E204.67553
G1 X114.224 Y122.652 E204.72484
G1 X121.943 Y114.934 E205.43962
G1 X121.943 Y115.570 E205.48130
G1 X115.031 Y122.482 E206.12139
G1 X115.837 Y122.312 E206.17537
G1 X121.943 Y116.207 E206.74077
G1 X121.943 Y116.843 E206.78244
G1 X116.644 Y122.142 E207.27314
G1 X117.451 Y121.972 E207.32712
G1 X121.943 Y117.479 E207.74313
G1 X121.943 Y118.116 E207.78481
G1 X118.257 Y121.801 E208.12612
G1 X118.560 Y121.738 E208.14636
G1 X119.126 Y121.569 E208.18510
G1 X121.943 Y118.752 E208.44591
G1 X121.943 Y119.389 E208.48759
G1 X120.033 Y121.298 E208.66442
G1 X120.940 Y121.028 E208.72639
G1 X121.943 Y120.025 E208.81923
G1 X121.943 Y120.661 E208.86090
G1 X121.847 Y120.757 E208.86976
M104 S200 ; set temperature
M140 S60 ; set bed temperature
G1 Z0.150 F3900.000
G1 X90.333 Y87.984 F3900.000
G1 F1800
G1 X77.672 Y87.984 E209.53122
G1 X77.931 Y87.559 E209.55718
G1 X78.560 Y86.859 E209.60637
G1 X79.467 Y86.120 E209.66747
G1 X80.258 Y85.633 E209.71600
G1 X81.206 Y85.205 E209.77034
G1 X83.180 Y84.728 E209.87647
G1 X92.857 Y84.728 E210.38200
G1 X95.782 Y81.743 E210.60034
G1 X98.687 Y79.434 E210.79421
G1 X101.850 Y77.485 E210.98834
G1 X104.827 Y76.114 E211.15957
G1 X107.741 Y77.454 E211.32712
G1 X110.861 Y79.359 E211.51812
G1 X113.725 Y81.616 E211.70860
