; generated by Slic3r 1.3.0 on 2021-08-07 at 20:31:36

; external perimeters extrusion width = 0.44mm (0.85mm^3/s)
; perimeters extrusion width = 0.48mm (3.77mm^3/s)
; infill extrusion width = 0.48mm (4.40mm^3/s)
; solid infill extrusion width = 0.48mm (1.26mm^3/s)
; top infill extrusion width = 0.48mm (0.88mm^3/s)

M190 S65 ; set bed temperature and wait for it to be reached
M104 S205 ; set temperature
; M106 P0 S255 ; turn hot-end fan on
G28 ; home all axes
G1 Z5 F5000 ; lift nozzle


; Filament gcode

M109 S205 ; set temperature and wait for it to be reached
G21 ; set units to millimeters
G90 ; use absolute coordinates
M82 ; use absolute distances for extrusion
G92 E0
G1 Z-0.150 F3900.000
G1 E-3.50000 F3000.00000
G92 E0
G1 X82.711 Y82.090 F3900.000
G1 E3.50000 F3000.00000
G1 F900
G1 X83.126 Y81.699 E3.53730
G1 X84.907 Y80.204 E3.68956
G1 X85.364 Y79.864 E3.72686
G1 X87.308 Y78.586 E3.87912
G1 X87.801 Y78.301 E3.91642
G1 X89.879 Y77.257 E4.06868
G1 X90.402 Y77.031 E4.10596
G1 X92.588 Y76.236 E4.25824
G1 X93.134 Y76.073 E4.29553
G1 X95.397 Y75.536 E4.44779
G1 X95.958 Y75.437 E4.48510
G1 X98.268 Y75.167 E4.63735
G1 X98.837 Y75.134 E4.67466
G1 X101.163 Y75.134 E4.82691
G1 X101.732 Y75.167 E4.86421
G1 X104.042 Y75.437 E5.01647
G1 X104.603 Y75.536 E5.05375
G1 X106.866 Y76.073 E5.20603
G1 X107.412 Y76.236 E5.24332
G1 X109.597 Y77.031 E5.39559
G1 X110.135 Y77.264 E5.43396
G1 X112.199 Y78.301 E5.58515
G1 X112.692 Y78.586 E5.62245
G1 X114.636 Y79.864 E5.77471
G1 X115.093 Y80.204 E5.81201
G1 X116.874 Y81.699 E5.96426
G1 X117.289 Y82.090 E6.00157
G1 X118.885 Y83.782 E6.15382
G1 X119.251 Y84.218 E6.19109
G1 X120.640 Y86.084 E6.34338
G1 X120.953 Y86.560 E6.38068
G1 X122.116 Y88.574 E6.53294
G1 X122.372 Y89.083 E6.57024
G1 X123.293 Y91.219 E6.72250
G1 X123.488 Y91.754 E6.75980
G1 X124.155 Y93.982 E6.91206
G1 X124.286 Y94.537 E6.94936
G1 X124.690 Y96.827 E7.10162
G1 X124.756 Y97.393 E7.13888
G1 X124.891 Y99.715 E7.29118
G1 X124.891 Y100.285 E7.32848
G1 X124.756 Y102.607 E7.48074
G1 X124.690 Y103.173 E7.51804
G1 X124.286 Y105.463 E7.67030
G1 X124.155 Y106.017 E7.70759
G1 X123.488 Y108.246 E7.85985
G1 X123.293 Y108.781 E7.89716
G1 X122.372 Y110.917 E8.04941
G1 X122.116 Y111.426 E8.08670
G1 X120.953 Y113.440 E8.23897
G1 X120.640 Y113.916 E8.27627
G1 X119.251 Y115.782 E8.42853
G1 X118.885 Y116.218 E8.46583
G1 X117.289 Y117.910 E8.61809
G1 X116.874 Y118.301 E8.65539
G1 X115.093 Y119.796 E8.80765
G1 X114.636 Y120.136 E8.84492
G1 X112.692 Y121.414 E8.99721
G1 X112.199 Y121.699 E9.03448
G1 X110.121 Y122.743 E9.18677
G1 X109.597 Y122.969 E9.22407
G1 X107.412 Y123.764 E9.37633
G1 X106.866 Y123.927 E9.41360
G1 X104.603 Y124.464 E9.56589
G1 X104.026 Y124.565 E9.60423
G1 X101.732 Y124.833 E9.75544
G1 X101.163 Y124.866 E9.79274
G1 X98.837 Y124.866 E9.94500
G1 X98.268 Y124.833 E9.98230
G1 X95.958 Y124.563 E10.13456
G1 X95.397 Y124.464 E10.17186
G1 X93.134 Y123.927 E10.32412
G1 X92.588 Y123.764 E10.36142
G1 X90.403 Y122.969 E10.51368
G1 X89.879 Y122.743 E10.55098
G1 X87.801 Y121.699 E10.70324
G1 X87.308 Y121.414 E10.74054
G1 X85.364 Y120.136 E10.89280
G1 X84.907 Y119.796 E10.93009
G1 X83.126 Y118.301 E11.08236
G1 X82.711 Y117.910 E11.11966
G1 X81.115 Y116.218 E11.27192
G1 X80.749 Y115.782 E11.30920
G1 X79.360 Y113.916 E11.46147
G1 X79.047 Y113.440 E11.49876
G1 X77.884 Y111.426 E11.65103
G1 X77.622 Y110.902 E11.68940
G1 X76.707 Y108.781 E11.84059
G1 X76.512 Y108.246 E11.87788
G1 X75.845 Y106.018 E12.03015
G1 X75.714 Y105.463 E12.06745
G1 X75.310 Y103.173 E12.21971
G1 X75.244 Y102.607 E12.25700
G1 X75.109 Y100.285 E12.40927
G1 X75.109 Y99.699 E12.44762
G1 X75.244 Y97.393 E12.59882
G1 X75.310 Y96.827 E12.63613
G1 X75.714 Y94.537 E12.78838
G1 X75.845 Y93.983 E12.82567
G1 X76.512 Y91.754 E12.97794
G1 X76.707 Y91.219 E13.01523
G1 X77.628 Y89.083 E13.16750
G1 X77.884 Y88.574 E13.20479
G1 X79.047 Y86.560 E13.35706
G1 X79.360 Y86.084 E13.39436
G1 X80.749 Y84.218 E13.54662
G1 X81.115 Y83.782 E13.58392
G1 X82.670 Y82.134 E13.73225
G1 X83.038 Y82.399 F3900.000
G1 F900
G1 X83.415 Y82.044 E13.76613
G1 X85.196 Y80.549 E13.91838
G1 X85.612 Y80.240 E13.95226
G1 X87.555 Y78.962 E14.10452
G1 X88.003 Y78.703 E14.13840
G1 X90.081 Y77.659 E14.29065
G1 X90.556 Y77.454 E14.32451
G1 X92.742 Y76.659 E14.47679
G1 X93.238 Y76.510 E14.51066
G1 X95.501 Y75.974 E14.66292
G1 X96.010 Y75.884 E14.69680
G1 X98.320 Y75.614 E14.84905
G1 X98.837 Y75.584 E14.88293
G1 X101.163 Y75.584 E15.03519
G1 X101.679 Y75.614 E15.06906
G1 X103.990 Y75.884 E15.22132
G1 X104.515 Y75.978 E15.25624
G1 X106.762 Y76.510 E15.40746
G1 X107.258 Y76.659 E15.44132
G1 X109.444 Y77.454 E15.59359
G1 X109.919 Y77.659 E15.62746
G1 X111.997 Y78.703 E15.77972
G1 X112.445 Y78.962 E15.81360
G1 X114.388 Y80.240 E15.96586
G1 X114.803 Y80.549 E15.99973
G1 X116.585 Y82.044 E16.15199
G1 X116.962 Y82.399 E16.18587
G1 X118.558 Y84.091 E16.33813
G1 X118.890 Y84.487 E16.37197
G1 X120.279 Y86.353 E16.52426
G1 X120.563 Y86.785 E16.55814
G1 X121.726 Y88.799 E16.71039
G1 X121.959 Y89.262 E16.74427
G1 X122.880 Y91.397 E16.89653
G1 X123.057 Y91.883 E16.93040
G1 X123.724 Y94.111 E17.08266
G1 X123.843 Y94.615 E17.11654
G1 X124.247 Y96.905 E17.26879
G1 X124.307 Y97.419 E17.30263
G1 X124.442 Y99.741 E17.45493
G1 X124.442 Y100.259 E17.48881
G1 X124.307 Y102.581 E17.64106
G1 X124.247 Y103.095 E17.67494
G1 X123.843 Y105.385 E17.82720
G1 X123.724 Y105.888 E17.86107
G1 X123.057 Y108.117 E18.01333
G1 X122.880 Y108.603 E18.04721
G1 X121.959 Y110.738 E18.19947
G1 X121.726 Y111.201 E18.23333
G1 X120.563 Y113.215 E18.38560
G1 X120.279 Y113.647 E18.41948
G1 X118.890 Y115.513 E18.57173
G1 X118.558 Y115.909 E18.60561
G1 X116.962 Y117.601 E18.75787
G1 X116.585 Y117.956 E18.79174
G1 X114.804 Y119.451 E18.94400
G1 X114.389 Y119.760 E18.97785
G1 X112.445 Y121.038 E19.13014
G1 X111.997 Y121.297 E19.16398
G1 X109.919 Y122.341 E19.31627
G1 X109.444 Y122.546 E19.35015
G1 X107.258 Y123.341 E19.50240
G1 X106.763 Y123.490 E19.53626
G1 X104.499 Y124.026 E19.68854
G1 X103.974 Y124.118 E19.72346
G1 X101.679 Y124.386 E19.87467
G1 X101.163 Y124.416 E19.90855
G1 X98.837 Y124.416 E20.06080
G1 X98.321 Y124.386 E20.09468
G1 X96.010 Y124.116 E20.24694
G1 X95.501 Y124.026 E20.28081
G1 X93.238 Y123.490 E20.43307
G1 X92.742 Y123.341 E20.46695
G1 X90.556 Y122.546 E20.61921
G1 X90.081 Y122.341 E20.65308
G1 X88.003 Y121.297 E20.80534
G1 X87.555 Y121.038 E20.83922
G1 X85.612 Y119.760 E20.99147
G1 X85.197 Y119.451 E21.02534
G1 X83.415 Y117.956 E21.17761
G1 X83.038 Y117.601 E21.21148
G1 X81.442 Y115.909 E21.36374
G1 X81.110 Y115.513 E21.39761
G1 X79.721 Y113.647 E21.54988
G1 X79.437 Y113.215 E21.58374
G1 X78.274 Y111.201 E21.73601
G1 X78.035 Y110.724 E21.77094
G1 X77.120 Y108.603 E21.92214
G1 X76.943 Y108.117 E21.95601
G1 X76.276 Y105.889 E22.10828
G1 X76.157 Y105.385 E22.14215
G1 X75.753 Y103.095 E22.29441
G1 X75.693 Y102.581 E22.32828
G1 X75.558 Y100.259 E22.48054
G1 X75.559 Y99.725 E22.51547
G1 X75.693 Y97.419 E22.66668
G1 X75.753 Y96.905 E22.70055
G1 X76.157 Y94.615 E22.85281
G1 X76.276 Y94.112 E22.88667
G1 X76.943 Y91.883 E23.03894
G1 X77.120 Y91.397 E23.07281
G1 X78.041 Y89.262 E23.22508
G1 X78.274 Y88.799 E23.25895
G1 X79.437 Y86.785 E23.41121
G1 X79.721 Y86.353 E23.44508
G1 X81.110 Y84.487 E23.59735
G1 X81.442 Y84.091 E23.63122
G1 X82.997 Y82.442 E23.77955
G1 E20.27955 F3000.00000
G92 E0
G1 X112.926 Y113.701 F3900.000
G1 E3.50000 F3000.00000
G1 F900
G1 X111.248 Y115.109 E3.64339
G1 X109.418 Y116.312 E3.78679
G1 X107.460 Y117.295 E3.93018
G1 X105.402 Y118.044 E4.07358
G1 X103.271 Y118.550 E4.21697
G1 X101.095 Y118.804 E4.36037
G1 X98.905 Y118.804 E4.50376
G1 X96.729 Y118.550 E4.64715
G1 X94.598 Y118.044 E4.79055
G1 X92.540 Y117.295 E4.93394
G1 X90.582 Y116.312 E5.07734
G1 X88.752 Y115.109 E5.22073
G1 X87.074 Y113.701 E5.36413
G1 X85.571 Y112.108 E5.50749
G1 X84.255 Y110.337 E5.65194
G1 X83.168 Y108.453 E5.79430
G1 X82.300 Y106.442 E5.93770
G1 X81.672 Y104.344 E6.08109
G1 X81.292 Y102.187 E6.22448
G1 X81.164 Y100.000 E6.36788
G1 X81.292 Y97.813 E6.51127
G1 X81.672 Y95.656 E6.65467
G1 X82.300 Y93.558 E6.79803
G1 X83.176 Y91.533 E6.94248
G1 X84.263 Y89.650 E7.08484
G1 X85.571 Y87.893 E7.22824
G1 X87.074 Y86.299 E7.37163
G1 X88.752 Y84.891 E7.51503
G1 X90.582 Y83.688 E7.65842
G1 X92.540 Y82.705 E7.80181
G1 X94.598 Y81.956 E7.94521
G1 X96.729 Y81.450 E8.08860
G1 X98.904 Y81.196 E8.23197
G1 X101.111 Y81.198 E8.37642
G1 X103.271 Y81.450 E8.51878
G1 X105.402 Y81.956 E8.66217
G1 X107.460 Y82.705 E8.80557
G1 X109.418 Y83.688 E8.94896
G1 X111.248 Y84.891 E9.09236
G1 X112.926 Y86.299 E9.23575
G1 X114.429 Y87.893 E9.37914
G1 X115.737 Y89.650 E9.52254
G1 X116.832 Y91.547 E9.66593
G1 X117.700 Y93.558 E9.80933
G1 X118.328 Y95.656 E9.95272
G1 X118.708 Y97.813 E10.09612
G1 X118.836 Y100.000 E10.23951
G1 X118.708 Y102.187 E10.38290
G1 X118.328 Y104.344 E10.52630
G1 X117.700 Y106.442 E10.66969
G1 X116.832 Y108.453 E10.81309
G1 X115.737 Y110.350 E10.95648
G1 X114.429 Y112.107 E11.09988
G1 X112.967 Y113.657 E11.23934
G1 X113.215 Y114.045 F3900.000
G1 F900
G1 X111.517 Y115.470 E11.38445
G1 X109.643 Y116.703 E11.53128
G1 X107.639 Y117.709 E11.67810
G1 X105.531 Y118.476 E11.82493
G1 X103.349 Y118.993 E11.97175
G1 X101.121 Y119.254 E12.11858
G1 X98.879 Y119.254 E12.26540
G1 X96.651 Y118.993 E12.41223
G1 X94.469 Y118.476 E12.55905
G1 X92.361 Y117.709 E12.70588
G1 X90.357 Y116.703 E12.85270
G1 X88.483 Y115.470 E12.99953
G1 X86.765 Y114.028 E13.14635
G1 X85.226 Y112.397 E13.29316
G1 X83.878 Y110.584 E13.44104
G1 X82.765 Y108.656 E13.58682
G1 X81.877 Y106.596 E13.73365
G1 X81.233 Y104.448 E13.88047
G1 X80.844 Y102.239 E14.02730
G1 X80.714 Y100.000 E14.17412
G1 X80.844 Y97.761 E14.32095
G1 X81.233 Y95.552 E14.46777
G1 X81.877 Y93.404 E14.61458
G1 X82.773 Y91.330 E14.76246
G1 X83.886 Y89.402 E14.90824
G1 X85.226 Y87.603 E15.05506
G1 X86.765 Y85.972 E15.20189
G1 X88.483 Y84.530 E15.34871
G1 X90.357 Y83.297 E15.49554
G1 X92.361 Y82.291 E15.64236
G1 X94.469 Y81.524 E15.78919
G1 X96.651 Y81.007 E15.93601
G1 X98.878 Y80.746 E16.08282
G1 X101.137 Y80.748 E16.23070
G1 X103.349 Y81.007 E16.37648
G1 X105.531 Y81.524 E16.52331
G1 X107.639 Y82.291 E16.67013
G1 X109.643 Y83.297 E16.81696
G1 X111.517 Y84.530 E16.96378
G1 X113.235 Y85.972 E17.11061
G1 X114.774 Y87.603 E17.25743
G1 X116.114 Y89.402 E17.40426
G1 X117.235 Y91.344 E17.55108
G1 X118.123 Y93.404 E17.69791
G1 X118.767 Y95.552 E17.84473
G1 X119.156 Y97.761 E17.99156
G1 X119.286 Y100.000 E18.13838
G1 X119.156 Y102.239 E18.28521
G1 X118.767 Y104.448 E18.43203
G1 X118.123 Y106.596 E18.57886
G1 X117.235 Y108.656 E18.72568
G1 X116.114 Y110.598 E18.87251
G1 X114.774 Y112.397 E19.01933
G1 X113.258 Y114.004 E19.16395
G1 X113.504 Y114.390 F3900.000
G1 F900
G1 X111.786 Y115.832 E19.31077
G1 X109.869 Y117.093 E19.46103
G1 X107.817 Y118.123 E19.61128
G1 X105.661 Y118.908 E19.76154
G1 X103.427 Y119.437 E19.91179
G1 X101.148 Y119.704 E20.06205
G1 X98.852 Y119.704 E20.21231
G1 X96.573 Y119.437 E20.36256
G1 X94.339 Y118.908 E20.51282
G1 X92.183 Y118.123 E20.66307
G1 X90.131 Y117.093 E20.81333
G1 X88.214 Y115.832 E20.96358
G1 X86.456 Y114.356 E21.11384
G1 X84.881 Y112.687 E21.26409
G1 X83.502 Y110.832 E21.41540
G1 X82.362 Y108.858 E21.56460
G1 X81.453 Y106.750 E21.71486
G1 X80.795 Y104.552 E21.86511
G1 X80.396 Y102.291 E22.01537
G1 X80.263 Y100.000 E22.16562
G1 X80.396 Y97.709 E22.31588
G1 X80.795 Y95.448 E22.46614
G1 X81.453 Y93.250 E22.61638
G1 X82.370 Y91.128 E22.76770
G1 X83.510 Y89.154 E22.91690
G1 X84.881 Y87.313 E23.06715
G1 X86.456 Y85.644 E23.21741
G1 X88.214 Y84.168 E23.36766
G1 X90.131 Y82.907 E23.51792
G1 X92.183 Y81.877 E23.66817
G1 X94.339 Y81.092 E23.81843
G1 X96.573 Y80.563 E23.96869
G1 X98.852 Y80.296 E24.11893
G1 X101.164 Y80.298 E24.27025
G1 X103.427 Y80.563 E24.41945
G1 X105.661 Y81.092 E24.56970
G1 X107.817 Y81.877 E24.71996
G1 X109.869 Y82.907 E24.87021
G1 X111.786 Y84.168 E25.02047
G1 X113.544 Y85.644 E25.17073
G1 X115.119 Y87.313 E25.32098
G1 X116.490 Y89.154 E25.47124
G1 X117.638 Y91.142 E25.62149
G1 X118.547 Y93.250 E25.77175
G1 X119.205 Y95.448 E25.92200
G1 X119.604 Y97.709 E26.07226
G1 X119.737 Y100.000 E26.22252
G1 X119.604 Y102.291 E26.37277
G1 X119.205 Y104.552 E26.52303
G1 X118.547 Y106.750 E26.67328
G1 X117.638 Y108.858 E26.82354
G1 X116.490 Y110.846 E26.97379
G1 X115.119 Y112.687 E27.12405
G1 X113.550 Y114.351 E27.27381
G1 X113.121 Y114.275 F3900.000
G1 X112.568 Y113.421 F3900.000
G1 F900
G1 X114.132 Y111.770 E27.42396
G1 X115.408 Y110.055 E27.56513
G1 X115.566 Y109.781 E27.58600
G1 X109.826 Y115.522 E28.12203
G1 X109.145 Y115.970 E28.17585
G1 X108.324 Y116.382 E28.23650
G1 X116.443 Y108.263 E28.99463
G1 X116.945 Y107.119 E29.07710
G1 X107.078 Y116.986 E29.99844
G1 X106.069 Y117.353 E30.06933
G1 X117.385 Y106.038 E31.12595
G1 X117.659 Y105.122 E31.18907
G1 X105.088 Y117.693 E32.36294
G1 X104.247 Y117.892 E32.42001
G1 X117.933 Y104.206 E33.69802
G1 X118.073 Y103.425 E33.75041
G1 X103.406 Y118.092 E35.11997
G1 X103.145 Y118.154 E35.13767
G1 X102.644 Y118.212 E35.17100
G1 X118.210 Y102.646 E36.62455
G1 X118.309 Y102.087 E36.66203
G1 X118.320 Y101.894 E36.67476
G1 X101.917 Y118.297 E38.20642
G1 X101.190 Y118.382 E38.25472
G1 X118.359 Y101.213 E39.85794
G1 X118.399 Y100.531 E39.90301
G1 X100.529 Y118.402 E41.57169
G1 X99.887 Y118.402 E41.61406
G1 X118.428 Y99.861 E43.34533
G1 X118.392 Y99.255 E43.38544
G1 X99.245 Y118.402 E45.17332
G1 X98.883 Y118.402 E45.19723
G1 X98.633 Y118.372 E45.21387
G1 X118.357 Y98.648 E47.05565
G1 X118.322 Y98.042 E47.09576
G1 X98.058 Y118.305 E48.98789
G1 X97.484 Y118.238 E49.02608
G1 X118.248 Y97.474 E50.96498
G1 X118.152 Y96.929 E51.00156
G1 X96.909 Y118.171 E52.98513
G1 X96.760 Y118.154 E52.99507
G1 X96.376 Y118.063 E53.02111
G1 X118.056 Y96.383 E55.04549
G1 X117.959 Y95.837 E55.08207
G1 X95.857 Y117.940 E57.14591
G1 X95.338 Y117.817 E57.18111
G1 X117.823 Y95.332 E59.28069
G1 X117.675 Y94.838 E59.31473
G1 X94.820 Y117.694 E61.44895
G1 X94.336 Y117.536 E61.48254
G1 X117.528 Y94.344 E63.64810
G1 X117.380 Y93.850 E63.68214
G1 X93.866 Y117.364 E65.87783
G1 X93.395 Y117.193 E65.91089
G1 X117.204 Y93.385 E68.13405
G1 X117.010 Y92.936 E68.16629
G1 X92.925 Y117.022 E70.41533
G1 X92.670 Y116.929 E70.43320
G1 X92.474 Y116.831 E70.44770
G1 X116.817 Y92.488 E72.72075
G1 X116.623 Y92.040 E72.75299
G1 X92.047 Y116.616 E75.04788
G1 X91.620 Y116.402 E75.07944
G1 X116.420 Y91.602 E77.39521
G1 X116.185 Y91.195 E77.42622
G1 X91.193 Y116.187 E79.75995
G1 X90.765 Y115.973 E79.79151
G1 X115.950 Y90.788 E82.14319
G1 X115.715 Y90.381 E82.17421
G1 X90.378 Y115.718 E84.54015
G1 X89.991 Y115.464 E84.57074
G1 X115.480 Y89.974 E86.95090
G1 X115.218 Y89.594 E86.98137
G1 X89.604 Y115.209 E89.37321
G1 X89.216 Y114.955 E89.40381
G1 X114.945 Y89.227 E91.80623
G1 X114.671 Y88.859 E91.83651
G1 X88.844 Y114.686 E94.24818
G1 X88.495 Y114.393 E94.27826
G1 X114.397 Y88.491 E96.69694
G1 X114.132 Y88.135 E96.72627
G1 X114.122 Y88.124 E96.72721
G1 X88.146 Y114.100 E99.15279
G1 X87.797 Y113.808 E99.18287
G1 X113.810 Y87.794 E101.61194
G1 X113.499 Y87.464 E101.64192
G1 X87.448 Y113.515 E104.07448
G1 X87.124 Y113.197 E104.10445
G1 X113.187 Y87.134 E106.53814
G1 X112.876 Y86.803 E106.56811
G1 X86.813 Y112.866 E109.00180
G1 X86.501 Y112.536 E109.03178
G1 X112.552 Y86.485 E111.46434
G1 X112.203 Y86.192 E111.49442
G1 X86.190 Y112.206 E113.92349
G1 X85.878 Y111.876 E113.95347
G1 X111.854 Y85.900 E116.37905
G1 X111.505 Y85.607 E116.40912
G1 X85.603 Y111.509 E118.82778
G1 X85.330 Y111.141 E118.85806
G1 X111.156 Y85.314 E121.26968
G1 X110.784 Y85.045 E121.30003
G1 X85.056 Y110.773 E123.70238
G1 X84.783 Y110.404 E123.73266
G1 X110.396 Y84.791 E126.12441
G1 X110.009 Y84.536 E126.15500
G1 X84.520 Y110.026 E128.53516
G1 X84.285 Y109.619 E128.56618
G1 X109.622 Y84.282 E130.93212
G1 X109.235 Y84.027 E130.96272
G1 X84.050 Y109.212 E133.31440
G1 X83.815 Y108.805 E133.34542
G1 X108.807 Y83.813 E135.67915
G1 X108.380 Y83.598 E135.71071
G1 X83.580 Y108.398 E138.02648
G1 X83.377 Y107.960 E138.05838
G1 X107.953 Y83.384 E140.35326
G1 X107.526 Y83.169 E140.38483
G1 X83.183 Y107.512 E142.65788
G1 X82.990 Y107.064 E142.69012
G1 X107.075 Y82.978 E144.93916
