; generated by Slic3r 1.3.0 on 2021-08-07 at 20:06:01

; external perimeters extrusion width = 0.44mm (0.85mm^3/s)
; perimeters extrusion width = 0.48mm (3.77mm^3/s)
; infill extrusion width = 0.48mm (4.40mm^3/s)
; solid infill extrusion width = 0.48mm (1.26mm^3/s)
; top infill extrusion width = 0.48mm (0.88mm^3/s)

M190 S65 ; set bed temperature and wait for it to be reached
M104 S205 ; set temperature
; M106 P0 S255 ; turn hot-end fan on
G28 ; home all axes
G1 Z5 F5000 ; lift nozzle


; Filament gcode

M109 S205 ; set temperature and wait for it to be reached
G21 ; set units to millimeters
G90 ; use absolute coordinates
M82 ; use absolute distances for extrusion
G92 E0
G1 Z-0.150 F3900.000
G1 E-3.50000 F3000.00000
G92 E0
G1 X89.557 Y88.751 F3900.000
G1 E3.50000 F3000.00000
G1 F900
G1 X90.325 Y88.085 E3.56650
G1 X91.874 Y86.982 E3.69104
G1 X92.755 Y86.474 E3.75762
G1 X94.484 Y85.684 E3.88207
G1 X95.445 Y85.351 E3.94865
G1 X97.293 Y84.903 E4.07311
G1 X98.300 Y84.758 E4.13969
G1 X100.199 Y84.668 E4.26415
G1 X101.212 Y84.716 E4.33059
G1 X103.096 Y84.987 E4.45518
G1 X104.084 Y85.226 E4.52175
G1 X105.881 Y85.848 E4.64622
G1 X106.806 Y86.270 E4.71277
G1 X108.453 Y87.221 E4.83726
G1 X109.281 Y87.811 E4.90384
G1 X110.718 Y89.056 E5.02829
G1 X111.420 Y89.792 E5.09485
G1 X112.595 Y91.287 E5.21933
G1 X113.145 Y92.142 E5.28591
G1 X114.016 Y93.832 E5.41037
G1 X114.394 Y94.776 E5.47694
G1 X114.930 Y96.600 E5.60140
G1 X115.122 Y97.599 E5.66798
G1 X115.303 Y99.491 E5.79244
G1 X115.303 Y100.509 E5.85902
G1 X115.122 Y102.401 E5.98348
G1 X114.930 Y103.400 E6.05006
G1 X114.394 Y105.225 E6.17459
G1 X114.016 Y106.168 E6.24109
G1 X113.145 Y107.858 E6.36555
G1 X112.595 Y108.713 E6.43213
G1 X111.420 Y110.208 E6.55659
G1 X110.718 Y110.944 E6.62317
G1 X109.281 Y112.189 E6.74766
G1 X108.453 Y112.779 E6.81420
G1 X106.806 Y113.729 E6.93866
G1 X105.881 Y114.152 E7.00524
G1 X104.085 Y114.774 E7.12970
G1 X103.097 Y115.013 E7.19624
G1 X101.215 Y115.284 E7.32073
G1 X100.199 Y115.332 E7.38728
G1 X98.300 Y115.242 E7.51177
G1 X97.293 Y115.097 E7.57835
G1 X95.445 Y114.649 E7.70281
G1 X94.484 Y114.316 E7.76939
G1 X92.755 Y113.526 E7.89384
G1 X91.874 Y113.018 E7.96042
G1 X90.326 Y111.915 E8.08488
G1 X89.557 Y111.249 E8.15146
G1 X88.245 Y109.873 E8.27592
G1 X87.616 Y109.074 E8.34250
G1 X86.589 Y107.475 E8.46695
G1 X86.123 Y106.571 E8.53350
G1 X85.416 Y104.806 E8.65799
G1 X85.129 Y103.830 E8.72455
G1 X84.770 Y101.963 E8.84903
G1 X84.673 Y100.951 E8.91561
G1 X84.673 Y99.049 E9.04006
G1 X84.769 Y98.041 E9.10639
G1 X85.129 Y96.170 E9.23110
G1 X85.416 Y95.194 E9.29768
G1 X86.123 Y93.429 E9.42214
G1 X86.589 Y92.525 E9.48872
G1 X87.616 Y90.926 E9.61317
G1 X88.245 Y90.127 E9.67975
G1 X89.516 Y88.794 E9.80028
G1 X89.883 Y89.061 F3900.000
G1 F900
G1 X90.586 Y88.452 E9.86119
G1 X92.135 Y87.349 E9.98572
G1 X92.942 Y86.883 E10.04670
G1 X94.671 Y86.093 E10.17116
G1 X95.552 Y85.788 E10.23214
G1 X97.399 Y85.340 E10.35659
G1 X98.321 Y85.208 E10.41758
G1 X100.220 Y85.117 E10.54203
G1 X101.149 Y85.161 E10.60289
G1 X103.032 Y85.432 E10.72747
G1 X103.937 Y85.652 E10.78844
G1 X105.734 Y86.273 E10.91291
G1 X106.581 Y86.660 E10.97386
G1 X108.228 Y87.611 E11.09834
G1 X108.987 Y88.151 E11.15933
G1 X110.423 Y89.396 E11.28378
G1 X111.066 Y90.070 E11.34474
G1 X112.241 Y91.565 E11.46922
G1 X112.745 Y92.348 E11.53020
G1 X113.616 Y94.038 E11.65466
G1 X113.962 Y94.903 E11.71563
G1 X114.498 Y96.727 E11.84009
G1 X114.674 Y97.642 E11.90108
G1 X114.855 Y99.534 E12.02553
G1 X114.855 Y100.466 E12.08651
G1 X114.674 Y102.358 E12.21097
G1 X114.498 Y103.273 E12.27195
G1 X113.962 Y105.098 E12.39648
G1 X113.616 Y105.962 E12.45739
G1 X112.745 Y107.652 E12.58185
G1 X112.241 Y108.435 E12.64283
G1 X111.066 Y109.930 E12.76728
G1 X110.423 Y110.604 E12.82826
G1 X108.986 Y111.849 E12.95276
G1 X108.228 Y112.389 E13.01370
G1 X106.581 Y113.340 E13.13816
G1 X105.734 Y113.727 E13.19914
G1 X103.938 Y114.348 E13.32359
G1 X103.033 Y114.568 E13.38454
G1 X101.150 Y114.839 E13.50903
G1 X100.220 Y114.883 E13.56998
G1 X98.321 Y114.792 E13.69447
G1 X97.399 Y114.660 E13.75545
G1 X95.552 Y114.212 E13.87991
G1 X94.671 Y113.907 E13.94089
G1 X92.942 Y113.117 E14.06534
G1 X92.135 Y112.651 E14.12632
G1 X90.587 Y111.549 E14.25078
G1 X89.883 Y110.939 E14.31176
G1 X88.571 Y109.563 E14.43622
G1 X87.995 Y108.831 E14.49720
G1 X86.967 Y107.231 E14.62166
G1 X86.540 Y106.404 E14.68261
G1 X85.834 Y104.638 E14.80709
G1 X85.571 Y103.745 E14.86806
G1 X85.211 Y101.878 E14.99253
G1 X85.123 Y100.951 E15.05351
G1 X85.123 Y99.049 E15.17797
G1 X85.211 Y98.126 E15.23872
G1 X85.571 Y96.255 E15.36341
G1 X85.834 Y95.362 E15.42439
G1 X86.540 Y93.597 E15.54884
G1 X86.967 Y92.769 E15.60983
G1 X87.995 Y91.169 E15.73428
G1 X88.571 Y90.437 E15.79526
G1 X89.841 Y89.105 E15.91579
G1 X90.208 Y89.372 F3900.000
G1 F900
G1 X90.847 Y88.818 E15.97111
G1 X92.396 Y87.715 E16.09563
G1 X93.129 Y87.292 E16.15101
G1 X94.858 Y86.502 E16.27547
G1 X95.658 Y86.226 E16.33085
G1 X97.505 Y85.777 E16.45531
G1 X98.342 Y85.657 E16.51069
G1 X100.241 Y85.566 E16.63514
G1 X101.085 Y85.606 E16.69041
G1 X102.968 Y85.877 E16.81498
G1 X103.790 Y86.077 E16.87035
G1 X105.587 Y86.699 E16.99482
G1 X106.356 Y87.050 E17.05018
G1 X108.003 Y88.001 E17.17466
G1 X108.692 Y88.491 E17.23004
G1 X110.129 Y89.736 E17.35450
G1 X110.712 Y90.348 E17.40986
G1 X111.888 Y91.843 E17.53434
G1 X112.345 Y92.554 E17.58971
G1 X113.216 Y94.244 E17.71417
G1 X113.531 Y95.030 E17.76955
G1 X114.066 Y96.854 E17.89401
G1 X114.226 Y97.684 E17.94939
G1 X114.407 Y99.577 E18.07385
G1 X114.407 Y100.423 E18.12923
G1 X114.226 Y102.316 E18.25369
G1 X114.066 Y103.146 E18.30907
G1 X113.530 Y104.971 E18.43359
G1 X113.216 Y105.756 E18.48891
G1 X112.345 Y107.445 E18.61337
G1 X111.888 Y108.157 E18.66875
G1 X110.713 Y109.652 E18.79320
G1 X110.129 Y110.264 E18.84859
G1 X108.692 Y111.509 E18.97308
G1 X108.003 Y111.999 E19.02842
G1 X106.356 Y112.950 E19.15288
G1 X105.587 Y113.301 E19.20826
G1 X103.790 Y113.923 E19.33272
G1 X102.969 Y114.123 E19.38807
G1 X101.086 Y114.393 E19.51256
G1 X100.242 Y114.434 E19.56791
G1 X98.342 Y114.343 E19.69240
G1 X97.505 Y114.223 E19.74778
G1 X95.658 Y113.774 E19.87223
G1 X94.858 Y113.498 E19.92762
G1 X93.129 Y112.708 E20.05207
G1 X92.396 Y112.285 E20.10745
G1 X90.848 Y111.182 E20.23191
G1 X90.208 Y110.628 E20.28729
G1 X88.896 Y109.252 E20.41175
G1 X88.373 Y108.587 E20.46713
G1 X87.346 Y106.988 E20.59159
G1 X86.958 Y106.237 E20.64694
G1 X86.251 Y104.471 E20.77143
G1 X86.013 Y103.660 E20.82679
G1 X85.653 Y101.793 E20.95126
G1 X85.573 Y100.951 E21.00665
G1 X85.573 Y99.049 E21.13110
G1 X85.653 Y98.210 E21.18627
G1 X86.013 Y96.341 E21.31094
G1 X86.251 Y95.529 E21.36632
G1 X86.958 Y93.764 E21.49078
G1 X87.346 Y93.012 E21.54616
G1 X88.373 Y91.413 E21.67062
G1 X88.896 Y90.748 E21.72600
G1 X90.167 Y89.415 E21.84653
G1 E18.34653 F3000.00000
G92 E0
G1 X106.370 Y106.095 F3900.000
G1 E3.50000 F3000.00000
G1 F900
G1 X105.101 Y107.195 E3.60993
G1 X103.646 Y108.034 E3.71985
G1 X102.060 Y108.583 E3.82978
G1 X100.398 Y108.822 E3.93970
G1 X98.720 Y108.743 E4.04963
G1 X97.089 Y108.347 E4.15955
G1 X95.561 Y107.649 E4.26948
G1 X94.193 Y106.675 E4.37940
G1 X93.035 Y105.460 E4.48933
G1 X92.127 Y104.047 E4.59925
G1 X91.503 Y102.488 E4.70918
G1 X91.185 Y100.840 E4.81910
G1 X91.185 Y99.160 E4.92903
G1 X91.503 Y97.512 E5.03896
G1 X92.127 Y95.953 E5.14888
G1 X93.035 Y94.540 E5.25881
G1 X94.193 Y93.325 E5.36873
G1 X95.561 Y92.351 E5.47866
G1 X97.089 Y91.653 E5.58858
G1 X98.720 Y91.258 E5.69849
G1 X100.401 Y91.178 E5.80863
G1 X102.060 Y91.417 E5.91835
G1 X103.646 Y91.966 E6.02828
G1 X105.101 Y92.805 E6.13821
G1 X106.370 Y93.905 E6.24813
G1 X107.408 Y95.225 E6.35806
G1 X108.177 Y96.717 E6.46798
G1 X108.650 Y98.328 E6.57791
G1 X108.810 Y100.000 E6.68783
G1 X108.650 Y101.672 E6.79776
G1 X108.177 Y103.283 E6.90768
G1 X107.408 Y104.775 E7.01761
G1 X106.407 Y106.048 E7.12361
G1 X106.664 Y106.435 F3900.000
G1 F900
G1 X105.363 Y107.563 E7.23634
G1 X103.834 Y108.445 E7.35189
G1 X102.166 Y109.023 E7.46744
G1 X100.419 Y109.274 E7.58299
G1 X98.656 Y109.190 E7.69854
G1 X96.941 Y108.774 E7.81409
G1 X95.335 Y108.041 E7.92964
G1 X93.897 Y107.017 E8.04519
G1 X92.679 Y105.739 E8.16074
G1 X91.725 Y104.254 E8.27629
G1 X91.069 Y102.616 E8.39184
G1 X90.735 Y100.883 E8.50739
G1 X90.735 Y99.117 E8.62294
G1 X91.069 Y97.384 E8.73849
G1 X91.725 Y95.746 E8.85404
G1 X92.679 Y94.261 E8.96959
G1 X93.897 Y92.983 E9.08514
G1 X95.335 Y91.959 E9.20069
G1 X96.941 Y91.226 E9.31624
G1 X98.656 Y90.810 E9.43179
G1 X100.422 Y90.727 E9.54755
G1 X102.166 Y90.977 E9.66289
G1 X103.834 Y91.555 E9.77844
G1 X105.363 Y92.437 E9.89399
G1 X106.697 Y93.593 E10.00954
G1 X107.788 Y94.980 E10.12509
G1 X108.597 Y96.549 E10.24064
G1 X109.094 Y98.243 E10.35619
G1 X109.262 Y100.000 E10.47174
G1 X109.094 Y101.757 E10.58729
G1 X108.597 Y103.451 E10.70284
G1 X107.788 Y105.020 E10.81839
G1 X106.707 Y106.394 E10.93282
G1 X106.959 Y106.775 F3900.000
G1 F900
G1 X105.625 Y107.931 E11.04837
G1 X104.022 Y108.856 E11.16955
G1 X102.273 Y109.462 E11.29072
G1 X100.441 Y109.725 E11.41190
G1 X98.592 Y109.637 E11.53307
G1 X96.793 Y109.201 E11.65425
G1 X95.109 Y108.432 E11.77542
G1 X93.601 Y107.358 E11.89660
G1 X92.324 Y106.019 E12.01777
G1 X91.323 Y104.461 E12.13895
G1 X90.635 Y102.743 E12.26012
G1 X90.285 Y100.925 E12.38130
G1 X90.285 Y99.075 E12.50247
G1 X90.635 Y97.257 E12.62365
G1 X91.323 Y95.539 E12.74482
G1 X92.324 Y93.981 E12.86599
G1 X93.601 Y92.642 E12.98717
G1 X95.109 Y91.568 E13.10834
G1 X96.793 Y90.799 E13.22952
G1 X98.592 Y90.363 E13.35069
G1 X100.444 Y90.275 E13.47208
G1 X102.273 Y90.538 E13.59304
G1 X104.022 Y91.144 E13.71421
G1 X105.625 Y92.069 E13.83539
G1 X107.024 Y93.281 E13.95656
G1 X108.168 Y94.736 E14.07774
G1 X109.016 Y96.381 E14.19891
G1 X109.538 Y98.157 E14.32009
G1 X109.714 Y100.000 E14.44126
G1 X109.538 Y101.843 E14.56244
G1 X109.016 Y103.619 E14.68361
G1 X108.168 Y105.264 E14.80478
G1 X107.004 Y106.736 E14.92763
G1 X106.574 Y106.667 F3900.000
G1 X105.994 Y105.832 F3900.000
G1 F900
G1 X106.091 Y105.735 E14.93666
G1 X107.075 Y104.483 E15.04147
G1 X107.471 Y103.715 E15.09840
G1 X103.657 Y107.529 E15.45346
G1 X103.411 Y107.671 E15.47217
G1 X102.592 Y107.954 E15.52923
G1 X107.941 Y102.605 E16.02716
G1 X108.207 Y101.700 E16.08929
G1 X101.682 Y108.224 E16.69663
G1 X100.935 Y108.331 E16.74631
G1 X108.310 Y100.957 E17.43277
G1 X108.377 Y100.250 E17.47954
G1 X100.214 Y108.413 E18.23946
G1 X99.603 Y108.384 E18.27970
G1 X108.373 Y99.614 E19.09610
G1 X108.318 Y99.030 E19.13471
G1 X98.993 Y108.355 E20.00276
G1 X98.737 Y108.343 E20.01960
G1 X98.438 Y108.270 E20.03988
G1 X108.262 Y98.446 E20.95439
G1 X108.254 Y98.366 E20.95968
G1 X108.129 Y97.939 E20.98896
G1 X97.923 Y108.145 E21.93902
G1 X97.408 Y108.021 E21.97389
G1 X107.984 Y97.445 E22.95837
G1 X107.838 Y96.950 E22.99229
G1 X96.937 Y107.852 E24.00713
G1 X96.497 Y107.652 E24.03891
G1 X107.637 Y96.512 E25.07590
G1 X107.420 Y96.090 E25.10716
G1 X96.058 Y107.451 E26.16479
G1 X95.739 Y107.305 E26.18786
G1 X95.637 Y107.233 E26.19613
G1 X107.202 Y95.667 E27.27270
G1 X107.075 Y95.421 E27.29093
G1 X106.958 Y95.272 E27.30343
G1 X95.263 Y106.966 E28.39205
G1 X94.890 Y106.700 E28.42224
G1 X106.676 Y94.914 E29.51942
G1 X106.395 Y94.556 E29.54941
G1 X94.516 Y106.434 E30.65516
G1 X94.442 Y106.381 E30.66118
G1 X94.192 Y106.119 E30.68502
G1 X106.113 Y94.198 E31.79476
G1 X105.775 Y93.896 E31.82458
G1 X93.879 Y105.792 E32.93194
G1 X93.567 Y105.464 E32.96172
G1 X105.432 Y93.599 E34.06624
G1 X105.090 Y93.302 E34.09609
G1 X93.272 Y105.119 E35.19616
G1 X93.022 Y104.730 E35.22663
G1 X104.721 Y93.030 E36.31571
G1 X104.316 Y92.796 E36.34654
G1 X92.772 Y104.340 E37.42116
G1 X92.521 Y103.951 E37.45164
G1 X103.910 Y92.562 E38.51181
G1 X103.504 Y92.328 E38.54264
G1 X92.327 Y103.505 E39.58307
G1 X92.145 Y103.048 E39.61546
G1 X103.029 Y92.164 E40.62867
G1 X102.554 Y91.999 E40.66177
G1 X91.962 Y102.591 E41.64777
G1 X91.889 Y102.409 E41.66072
G1 X91.827 Y102.087 E41.68230
G1 X102.079 Y91.835 E42.63664
G1 X102.001 Y91.808 E42.64205
G1 X101.533 Y91.741 E42.67317
G1 X91.723 Y101.550 E43.58634
G1 X91.620 Y101.014 E43.62230
G1 X100.974 Y91.660 E44.49303
G1 X100.412 Y91.582 E44.53037
G1 X91.587 Y100.407 E45.35185
G1 X91.587 Y99.767 E45.39396
G1 X99.740 Y91.614 E46.15293
G1 X99.069 Y91.646 E46.19718
G1 X91.617 Y99.098 E46.89091
G1 X91.769 Y98.306 E46.94403
G1 X98.285 Y91.790 E47.55059
G1 X97.441 Y91.995 E47.60780
G1 X91.982 Y97.453 E48.11594
G1 X92.409 Y96.387 E48.19157
G1 X96.325 Y92.471 E48.55609
G1 X95.835 Y92.695 E48.59155
G1 X94.538 Y93.618 E48.69637
G1 X94.442 Y93.714 E48.70526
M104 S200 ; set temperature
M140 S60 ; set bed temperature
G1 Z0.150 F3900.000
G1 X106.452 Y106.190 F3900.000
G1 F1800
G1 X105.174 Y107.298 E48.79361
G1 X103.699 Y108.150 E48.88260
G1 X102.090 Y108.707 E48.97159
G1 X100.404 Y108.949 E49.06057
G1 X98.702 Y108.868 E49.14956
G1 X97.047 Y108.466 E49.23854
G1 X95.498 Y107.759 E49.32753
G1 X94.110 Y106.771 E49.41652
G1 X92.935 Y105.538 E49.50550
G1 X92.014 Y104.105 E49.59449
G1 X91.381 Y102.524 E49.68347
G1 X91.059 Y100.852 E49.77246
G1 X91.059 Y99.148 E49.86144
G1 X91.381 Y97.476 E49.95043
G1 X92.014 Y95.895 E50.03942
G1 X92.935 Y94.462 E50.12840
G1 X94.110 Y93.229 E50.21739
G1 X95.498 Y92.241 E50.30637
G1 X97.047 Y91.534 E50.39536
G1 X98.702 Y91.132 E50.48432
G1 X100.413 Y91.052 E50.57379
G1 X102.090 Y91.293 E50.66231
G1 X103.699 Y91.850 E50.75129
G1 X105.174 Y92.702 E50.84028
G1 X106.461 Y93.817 E50.92927
G1 X107.514 Y95.156 E51.01825
G1 X108.295 Y96.670 E51.10724
G1 X108.775 Y98.304 E51.19622
G1 X108.937 Y100.000 E51.28521
G1 X108.775 Y101.696 E51.37420
G1 X108.295 Y103.330 E51.46318
G1 X107.514 Y104.844 E51.55217
G1 X106.491 Y106.145 E51.63865
G1 X106.727 Y106.507 F3900.000
G1 F1800
G1 X105.418 Y107.641 E51.72909
G1 X103.874 Y108.532 E51.82226
G1 X102.189 Y109.116 E51.91542
G1 X100.424 Y109.369 E52.00859
G1 X98.642 Y109.284 E52.10175
G1 X96.909 Y108.864 E52.19492
G1 X95.287 Y108.123 E52.28809
G1 X93.835 Y107.089 E52.38125
G1 X92.604 Y105.798 E52.47442
G1 X91.640 Y104.298 E52.56758
G1 X90.977 Y102.643 E52.66075
G1 X90.640 Y100.892 E52.75391
G1 X90.640 Y99.108 E52.84708
G1 X90.977 Y97.357 E52.94024
G1 X91.640 Y95.702 E53.03341
G1 X92.604 Y94.202 E53.12657
G1 X93.835 Y92.911 E53.21974
G1 X95.287 Y91.877 E53.31290
G1 X96.909 Y91.136 E53.40607
G1 X98.642 Y90.716 E53.49922
G1 X100.433 Y90.632 E53.59287
G1 X102.189 Y90.884 E53.68555
G1 X103.874 Y91.468 E53.77872
G1 X105.418 Y92.359 E53.87189
G1 X106.766 Y93.527 E53.96505
G1 X107.868 Y94.929 E54.05822
G1 X108.685 Y96.514 E54.15138
G1 X109.188 Y98.225 E54.24455
G1 X109.357 Y100.000 E54.33771
G1 X109.188 Y101.775 E54.43088
G1 X108.685 Y103.486 E54.52404
G1 X107.868 Y105.071 E54.61721
G1 X106.771 Y106.467 E54.70996
G1 X106.987 Y106.807 F3900.000
G1 F450
G1 X105.650 Y107.966 E54.79284
G1 X104.040 Y108.895 E54.87994
G1 X102.283 Y109.503 E54.96704
G1 X100.443 Y109.768 E55.05413
G1 X98.586 Y109.679 E55.14123
G1 X96.779 Y109.241 E55.22833
G1 X95.088 Y108.469 E55.31543
G1 X93.573 Y107.390 E55.40252
G1 X92.291 Y106.045 E55.48962
G1 X91.285 Y104.481 E55.57672
G1 X90.594 Y102.755 E55.66382
G1 X90.243 Y100.930 E55.75092
G1 X90.243 Y99.070 E55.83801
G1 X90.594 Y97.245 E55.92511
G1 X91.285 Y95.519 E56.01221
G1 X92.291 Y93.955 E56.09931
G1 X93.573 Y92.610 E56.18641
G1 X95.088 Y91.531 E56.27350
G1 X96.779 Y90.759 E56.36060
G1 X98.586 Y90.321 E56.44769
G1 X100.452 Y90.233 E56.53523
G1 X102.283 Y90.497 E56.62189
G1 X104.040 Y91.105 E56.70898
G1 X105.650 Y92.034 E56.79608
G1 X107.055 Y93.252 E56.88318
G1 X108.204 Y94.713 E56.97028
G1 X109.056 Y96.366 E57.05738
G1 X109.580 Y98.149 E57.14447
G1 X109.756 Y100.000 E57.23157
G1 X109.580 Y101.851 E57.31867
G1 X109.056 Y103.634 E57.40577
G1 X108.204 Y105.287 E57.49287
G1 X107.032 Y106.768 E57.58134
G1 X106.602 Y106.699 F3900.000
G1 X106.202 Y94.153 F3900.000
G1 F600
G1 X104.886 Y93.000 E57.67436
G1 X103.846 Y92.400 E57.73818
G1 X107.556 Y96.110 E58.01716
G1 X107.949 Y96.871 E58.06266
G1 X108.046 Y97.203 E58.08105
G1 X102.795 Y91.952 E58.47592
G1 X101.890 Y91.650 E58.52663
G1 X108.297 Y98.056 E59.00838
G1 X108.406 Y98.429 E59.02901
G1 X108.442 Y98.804 E59.04908
