; generated by Slic3r 1.3.0 on 2021-08-12 at 14:55:14

; external perimeters extrusion width = 0.44mm (0.85mm^3/s)
; perimeters extrusion width = 0.48mm (3.77mm^3/s)
; infill extrusion width = 0.48mm (4.40mm^3/s)
; solid infill extrusion width = 0.48mm (1.26mm^3/s)
; top infill extrusion width = 0.48mm (0.88mm^3/s)

M190 S65 ; set bed temperature and wait for it to be reached
M104 S205 ; set temperature
; M106 P0 S255 ; turn hot-end fan on
G28 ; home all axes
G1 Z5 F5000 ; lift nozzle


; Filament gcode

M109 S205 ; set temperature and wait for it to be reached
G21 ; set units to millimeters
G90 ; use absolute coordinates
M82 ; use absolute distances for extrusion
G92 E0
G1 Z-0.150 F3900.000
G1 E-3.50000 F3000.00000
G92 E0
G1 X93.657 Y93.272 F3900.000
G1 E3.50000 F3000.00000
G1 F900
G1 X93.968 Y92.992 E3.52741
G1 X94.655 Y92.455 E3.58448
G1 X95.002 Y92.221 E3.61188
G1 X95.757 Y91.785 E3.66896
G1 X96.133 Y91.601 E3.69636
G1 X96.941 Y91.275 E3.75341
G1 X97.339 Y91.146 E3.78084
G1 X98.192 Y90.933 E3.83834
G1 X98.598 Y90.862 E3.86532
G1 X99.464 Y90.771 E3.92237
G1 X99.883 Y90.756 E3.94979
G1 X100.754 Y90.787 E4.00683
G1 X101.171 Y90.830 E4.03427
G1 X102.029 Y90.982 E4.09135
G1 X102.435 Y91.083 E4.11875
G1 X103.264 Y91.352 E4.17578
G1 X103.653 Y91.509 E4.20322
G1 X104.436 Y91.891 E4.26029
G1 X104.799 Y92.101 E4.28770
G1 X105.521 Y92.588 E4.34478
G1 X105.851 Y92.846 E4.37218
G1 X106.499 Y93.429 E4.42925
G1 X106.790 Y93.730 E4.45665
G1 X107.355 Y94.404 E4.51420
G1 X107.596 Y94.737 E4.54113
G1 X108.058 Y95.476 E4.59818
G1 X108.255 Y95.846 E4.62561
G1 X108.610 Y96.642 E4.68268
G1 X108.753 Y97.036 E4.71008
G1 X108.993 Y97.874 E4.76715
G1 X109.080 Y98.283 E4.79456
G1 X109.201 Y99.147 E4.85164
G1 X109.231 Y99.564 E4.87904
G1 X109.231 Y100.436 E4.93611
G1 X109.201 Y100.853 E4.96351
G1 X109.080 Y101.717 E5.02059
G1 X108.993 Y102.126 E5.04799
G1 X108.753 Y102.964 E5.10507
G1 X108.610 Y103.358 E5.13247
G1 X108.251 Y104.161 E5.19002
G1 X108.058 Y104.524 E5.21694
G1 X107.596 Y105.263 E5.27401
G1 X107.350 Y105.602 E5.30142
G1 X106.790 Y106.270 E5.35849
G1 X106.499 Y106.571 E5.38590
G1 X105.851 Y107.154 E5.44297
G1 X105.521 Y107.412 E5.47037
G1 X104.799 Y107.899 E5.52745
G1 X104.436 Y108.109 E5.55485
G1 X103.653 Y108.491 E5.61193
G1 X103.264 Y108.648 E5.63933
G1 X102.435 Y108.917 E5.69641
G1 X102.029 Y109.018 E5.72380
G1 X101.171 Y109.170 E5.78088
G1 X100.754 Y109.213 E5.80828
G1 X99.883 Y109.244 E5.86536
G1 X99.465 Y109.229 E5.89276
G1 X98.598 Y109.138 E5.94984
G1 X98.185 Y109.065 E5.97723
G1 X97.339 Y108.854 E6.03431
G1 X96.941 Y108.725 E6.06171
G1 X96.133 Y108.399 E6.11879
G1 X95.757 Y108.215 E6.14619
G1 X95.002 Y107.779 E6.20327
G1 X94.655 Y107.545 E6.23067
G1 X93.968 Y107.008 E6.28774
G1 X93.657 Y106.728 E6.31514
G1 X93.051 Y106.101 E6.37219
G1 X92.782 Y105.780 E6.39962
G1 X92.270 Y105.076 E6.45665
G1 X92.048 Y104.720 E6.48410
G1 X91.638 Y103.950 E6.54117
G1 X91.468 Y103.568 E6.56857
G1 X91.170 Y102.749 E6.62561
G1 X91.055 Y102.346 E6.65305
G1 X90.873 Y101.493 E6.71013
G1 X90.815 Y101.079 E6.73753
G1 X90.754 Y100.209 E6.79461
G1 X90.754 Y99.791 E6.82200
G1 X90.815 Y98.922 E6.87900
G1 X90.873 Y98.507 E6.90648
G1 X91.055 Y97.654 E6.96356
G1 X91.170 Y97.251 E6.99096
G1 X91.468 Y96.433 E7.04798
G1 X91.638 Y96.050 E7.07544
G1 X92.047 Y95.280 E7.13248
G1 X92.269 Y94.925 E7.15991
G1 X92.782 Y94.220 E7.21695
G1 X93.051 Y93.899 E7.24439
G1 X93.615 Y93.315 E7.29753
G1 X93.958 Y93.606 F3900.000
G1 F900
G1 X94.269 Y93.326 E7.32494
G1 X94.906 Y92.828 E7.37791
G1 X95.253 Y92.594 E7.40531
G1 X95.954 Y92.189 E7.45828
G1 X96.330 Y92.006 E7.48568
G1 X97.080 Y91.703 E7.53861
G1 X97.478 Y91.573 E7.56604
G1 X98.263 Y91.378 E7.61896
G1 X98.676 Y91.305 E7.64641
G1 X99.480 Y91.220 E7.69936
G1 X99.899 Y91.206 E7.72678
G1 X100.707 Y91.234 E7.77971
G1 X101.123 Y91.278 E7.80715
G1 X101.920 Y91.418 E7.86012
G1 X102.326 Y91.520 E7.88752
G1 X103.103 Y91.772 E7.94096
G1 X103.484 Y91.926 E7.96788
G1 X104.211 Y92.281 E8.02084
G1 X104.574 Y92.490 E8.04825
G1 X105.244 Y92.943 E8.10122
G1 X105.574 Y93.200 E8.12862
G1 X106.176 Y93.742 E8.18159
G1 X106.466 Y94.043 E8.20899
G1 X106.986 Y94.663 E8.26194
G1 X107.232 Y95.001 E8.28935
G1 X107.661 Y95.687 E8.34230
G1 X107.858 Y96.057 E8.36972
G1 X108.187 Y96.796 E8.42269
G1 X108.330 Y97.190 E8.45009
G1 X108.553 Y97.967 E8.50305
G1 X108.640 Y98.377 E8.53046
G1 X108.753 Y99.178 E8.58342
G1 X108.782 Y99.595 E8.61082
G1 X108.782 Y100.405 E8.66379
G1 X108.753 Y100.822 E8.69119
G1 X108.640 Y101.623 E8.74416
G1 X108.553 Y102.033 E8.77156
G1 X108.330 Y102.810 E8.82453
G1 X108.187 Y103.204 E8.85193
G1 X107.858 Y103.943 E8.90490
G1 X107.661 Y104.312 E8.93230
G1 X107.228 Y105.005 E8.98574
G1 X106.986 Y105.337 E9.01266
G1 X106.466 Y105.957 E9.06563
G1 X106.176 Y106.258 E9.09303
G1 X105.574 Y106.800 E9.14600
G1 X105.244 Y107.057 E9.17340
G1 X104.574 Y107.510 E9.22637
G1 X104.211 Y107.719 E9.25377
G1 X103.484 Y108.074 E9.30674
G1 X103.096 Y108.230 E9.33414
G1 X102.326 Y108.480 E9.38710
G1 X101.920 Y108.582 E9.41450
G1 X101.124 Y108.722 E9.46747
G1 X100.707 Y108.766 E9.49487
G1 X99.899 Y108.794 E9.54784
G1 X99.480 Y108.780 E9.57524
G1 X98.676 Y108.695 E9.62821
G1 X98.264 Y108.622 E9.65561
G1 X97.478 Y108.427 E9.70858
G1 X97.080 Y108.297 E9.73598
G1 X96.330 Y107.994 E9.78894
G1 X95.954 Y107.811 E9.81634
G1 X95.253 Y107.406 E9.86931
G1 X94.906 Y107.172 E9.89671
G1 X94.269 Y106.674 E9.94968
G1 X93.958 Y106.394 E9.97708
G1 X93.396 Y105.812 E10.03002
G1 X93.127 Y105.491 E10.05745
G1 X92.651 Y104.837 E10.11038
G1 X92.429 Y104.482 E10.13782
G1 X92.049 Y103.767 E10.19079
G1 X91.879 Y103.385 E10.21818
G1 X91.603 Y102.625 E10.27112
G1 X91.487 Y102.222 E10.29855
G1 X91.319 Y101.431 E10.35152
G1 X91.261 Y101.016 E10.37892
G1 X91.204 Y100.209 E10.43189
G1 X91.204 Y99.791 E10.45929
G1 X91.260 Y98.985 E10.51218
G1 X91.319 Y98.569 E10.53966
G1 X91.487 Y97.778 E10.59263
G1 X91.602 Y97.375 E10.62002
G1 X91.879 Y96.616 E10.67294
G1 X92.049 Y96.233 E10.70039
G1 X92.429 Y95.519 E10.75333
G1 X92.651 Y95.163 E10.78076
G1 X93.126 Y94.509 E10.83369
G1 X93.396 Y94.188 E10.86113
G1 X93.916 Y93.649 E10.91016
G1 X94.259 Y93.941 F3900.000
G1 F900
G1 X94.570 Y93.660 E10.93757
G1 X95.158 Y93.201 E10.98643
G1 X95.505 Y92.967 E11.01383
G1 X96.151 Y92.594 E11.06269
G1 X96.527 Y92.410 E11.09009
G1 X97.219 Y92.131 E11.13892
G1 X97.617 Y92.001 E11.16635
G1 X98.348 Y91.820 E11.21564
G1 X98.754 Y91.748 E11.24260
G1 X99.496 Y91.670 E11.29144
G1 X99.914 Y91.655 E11.31886
G1 X100.660 Y91.681 E11.36768
G1 X101.076 Y91.725 E11.39512
G1 X101.812 Y91.855 E11.44398
G1 X102.218 Y91.956 E11.47138
G1 X102.934 Y92.189 E11.52072
G1 X103.315 Y92.343 E11.54764
G1 X103.986 Y92.671 E11.59649
G1 X104.349 Y92.880 E11.62390
G1 X104.968 Y93.297 E11.67276
G1 X105.297 Y93.555 E11.70016
G1 X105.852 Y94.054 E11.74902
G1 X106.143 Y94.355 E11.77642
G1 X106.627 Y94.933 E11.82574
G1 X106.868 Y95.266 E11.85267
G1 X107.264 Y95.898 E11.90152
G1 X107.460 Y96.268 E11.92893
G1 X107.764 Y96.950 E11.97779
G1 X107.907 Y97.343 E12.00519
G1 X108.113 Y98.061 E12.05404
G1 X108.200 Y98.470 E12.08145
G1 X108.304 Y99.209 E12.13031
G1 X108.333 Y99.627 E12.15771
G1 X108.333 Y100.373 E12.20657
G1 X108.304 Y100.791 E12.23397
G1 X108.200 Y101.530 E12.28283
G1 X108.113 Y101.939 E12.31023
G1 X107.907 Y102.657 E12.35909
G1 X107.764 Y103.050 E12.38649
G1 X107.460 Y103.732 E12.43535
G1 X107.264 Y104.101 E12.46275
G1 X106.869 Y104.734 E12.51160
G1 X106.622 Y105.073 E12.53901
G1 X106.143 Y105.644 E12.58786
G1 X105.852 Y105.946 E12.61526
G1 X105.297 Y106.445 E12.66412
G1 X104.968 Y106.703 E12.69152
G1 X104.349 Y107.120 E12.74038
G1 X103.986 Y107.329 E12.76778
G1 X103.315 Y107.657 E12.81664
G1 X102.927 Y107.813 E12.84404
G1 X102.218 Y108.044 E12.89290
G1 X101.811 Y108.145 E12.92030
G1 X101.076 Y108.275 E12.96916
G1 X100.660 Y108.319 E12.99656
G1 X99.914 Y108.345 E13.04542
G1 X99.496 Y108.330 E13.07282
G1 X98.754 Y108.252 E13.12168
G1 X98.342 Y108.179 E13.14908
G1 X97.617 Y107.999 E13.19794
G1 X97.219 Y107.869 E13.22534
G1 X96.527 Y107.590 E13.27420
G1 X96.151 Y107.406 E13.30160
G1 X95.505 Y107.033 E13.35046
G1 X95.158 Y106.799 E13.37786
G1 X94.570 Y106.340 E13.42672
G1 X94.259 Y106.060 E13.45411
G1 X93.741 Y105.523 E13.50294
G1 X93.471 Y105.202 E13.53037
G1 X93.033 Y104.599 E13.57920
G1 X92.811 Y104.243 E13.60663
G1 X92.460 Y103.584 E13.65549
G1 X92.290 Y103.202 E13.68289
G1 X92.035 Y102.501 E13.73172
G1 X91.919 Y102.098 E13.75915
G1 X91.764 Y101.368 E13.80801
G1 X91.706 Y100.954 E13.83541
G1 X91.654 Y100.209 E13.88427
G1 X91.654 Y99.791 E13.91167
G1 X91.706 Y99.047 E13.96046
G1 X91.764 Y98.632 E13.98793
G1 X91.919 Y97.902 E14.03679
G1 X92.035 Y97.499 E14.06419
G1 X92.290 Y96.799 E14.11300
G1 X92.460 Y96.416 E14.14045
G1 X92.810 Y95.757 E14.18928
G1 X93.033 Y95.402 E14.21671
G1 X93.471 Y94.798 E14.26553
G1 X93.740 Y94.477 E14.29296
G1 X94.217 Y93.984 E14.33789
G1 X94.560 Y94.275 F3900.000
G1 F900
G1 X94.871 Y93.995 E14.36530
G1 X95.409 Y93.574 E14.41005
G1 X95.756 Y93.340 E14.43745
G1 X96.348 Y92.998 E14.48220
G1 X96.725 Y92.815 E14.50960
G1 X97.358 Y92.559 E14.55432
G1 X97.756 Y92.429 E14.58175
G1 X98.419 Y92.264 E14.62645
G1 X98.832 Y92.191 E14.65390
G1 X99.511 Y92.120 E14.69863
G1 X99.930 Y92.105 E14.72605
G1 X100.613 Y92.129 E14.77076
G1 X101.029 Y92.173 E14.79820
G1 X101.703 Y92.291 E14.84295
G1 X102.109 Y92.393 E14.87035
G1 X102.758 Y92.604 E14.91507
G1 X103.147 Y92.761 E14.94250
G1 X103.761 Y93.060 E14.98724
G1 X104.124 Y93.270 E15.01465
G1 X104.691 Y93.652 E15.05940
G1 X105.020 Y93.909 E15.08680
G1 X105.528 Y94.367 E15.13155
G1 X105.819 Y94.668 E15.15895
G1 X106.263 Y95.197 E15.20417
G1 X106.504 Y95.530 E15.23110
G1 X106.867 Y96.110 E15.27583
G1 X107.063 Y96.479 E15.30325
G1 X107.341 Y97.104 E15.34800
G1 X107.484 Y97.497 E15.37540
G1 X107.673 Y98.154 E15.42014
G1 X107.760 Y98.564 E15.44755
G1 X107.855 Y99.241 E15.49230
G1 X107.884 Y99.658 E15.51970
G1 X107.884 Y100.342 E15.56445
G1 X107.855 Y100.759 E15.59185
G1 X107.760 Y101.436 E15.63660
G1 X107.673 Y101.846 E15.66400
G1 X107.484 Y102.503 E15.70875
G1 X107.341 Y102.896 E15.73615
G1 X107.063 Y103.520 E15.78090
G1 X106.867 Y103.890 E15.80830
G1 X106.505 Y104.470 E15.85304
G1 X106.258 Y104.808 E15.88045
G1 X105.819 Y105.332 E15.92519
G1 X105.528 Y105.633 E15.95260
G1 X105.020 Y106.091 E15.99735
G1 X104.691 Y106.348 E16.02475
G1 X104.124 Y106.730 E16.06950
G1 X103.761 Y106.940 E16.09690
G1 X103.147 Y107.239 E16.14165
G1 X102.759 Y107.396 E16.16905
G1 X102.109 Y107.607 E16.21380
G1 X101.703 Y107.709 E16.24120
G1 X101.029 Y107.827 E16.28595
G1 X100.613 Y107.871 E16.31335
G1 X99.930 Y107.895 E16.35810
G1 X99.512 Y107.880 E16.38550
G1 X98.832 Y107.809 E16.43025
G1 X98.420 Y107.736 E16.45765
G1 X97.756 Y107.571 E16.50240
G1 X97.358 Y107.442 E16.52980
G1 X96.725 Y107.185 E16.57455
G1 X96.348 Y107.002 E16.60195
G1 X95.756 Y106.660 E16.64670
G1 X95.409 Y106.426 E16.67410
G1 X94.871 Y106.005 E16.71885
G1 X94.560 Y105.725 E16.74625
G1 X94.080 Y105.228 E16.79145
G1 X93.816 Y104.913 E16.81840
G1 X93.414 Y104.360 E16.86311
G1 X93.192 Y104.005 E16.89055
G1 X92.871 Y103.401 E16.93530
G1 X92.701 Y103.019 E16.96270
G1 X92.467 Y102.377 E17.00742
G1 X92.352 Y101.974 E17.03485
G1 X92.210 Y101.306 E17.07960
G1 X92.152 Y100.891 E17.10700
G1 X92.104 Y100.209 E17.15175
G1 X92.104 Y99.791 E17.17915
G1 X92.151 Y99.110 E17.22384
G1 X92.210 Y98.694 E17.25130
G1 X92.352 Y98.026 E17.29605
G1 X92.467 Y97.623 E17.32345
G1 X92.701 Y96.982 E17.36816
G1 X92.871 Y96.599 E17.39560
G1 X93.192 Y95.995 E17.44033
G1 X93.414 Y95.640 E17.46775
G1 X93.816 Y95.088 E17.51247
G1 X94.085 Y94.767 E17.53990
G1 X94.518 Y94.318 E17.58072
G1 X94.861 Y94.609 F3900.000
G1 F900
G1 X95.172 Y94.329 E17.60812
G1 X95.661 Y93.947 E17.64876
G1 X96.008 Y93.713 E17.67616
G1 X96.546 Y93.402 E17.71681
G1 X96.922 Y93.219 E17.74421
G1 X97.497 Y92.986 E17.78482
G1 X97.895 Y92.857 E17.81225
G1 X98.505 Y92.706 E17.85333
G1 X98.910 Y92.634 E17.88029
G1 X99.527 Y92.569 E17.92091
G1 X99.946 Y92.555 E17.94833
G1 X100.566 Y92.576 E17.98894
G1 X100.982 Y92.620 E18.01637
G1 X101.594 Y92.728 E18.05701
G1 X102.000 Y92.829 E18.08441
G1 X102.597 Y93.024 E18.12553
G1 X102.978 Y93.178 E18.15245
G1 X103.536 Y93.450 E18.19309
G1 X103.899 Y93.659 E18.22049
G1 X104.414 Y94.006 E18.26113
G1 X104.743 Y94.264 E18.28853
G1 X105.205 Y94.679 E18.32917
G1 X105.495 Y94.980 E18.35657
G1 X105.894 Y95.456 E18.39721
G1 X106.141 Y95.795 E18.42461
G1 X106.469 Y96.321 E18.46524
G1 X106.666 Y96.691 E18.49266
G1 X106.919 Y97.258 E18.53330
G1 X107.062 Y97.651 E18.56070
G1 X107.233 Y98.248 E18.60133
G1 X107.320 Y98.657 E18.62874
G1 X107.406 Y99.272 E18.66938
G1 X107.435 Y99.690 E18.69678
G1 X107.435 Y100.310 E18.73742
G1 X107.406 Y100.728 E18.76482
G1 X107.320 Y101.343 E18.80546
G1 X107.233 Y101.752 E18.83286
G1 X107.062 Y102.349 E18.87350
G1 X106.919 Y102.742 E18.90090
G1 X106.666 Y103.309 E18.94154
G1 X106.470 Y103.679 E18.96895
G1 X106.141 Y104.205 E19.00958
G1 X105.895 Y104.544 E19.03699
G1 X105.496 Y105.019 E19.07762
G1 X105.205 Y105.321 E19.10503
G1 X104.743 Y105.736 E19.14567
G1 X104.414 Y105.994 E19.17307
G1 X103.899 Y106.341 E19.21371
G1 X103.536 Y106.550 E19.24111
G1 X102.978 Y106.822 E19.28175
G1 X102.590 Y106.979 E19.30915
G1 X102.000 Y107.171 E19.34979
G1 X101.594 Y107.272 E19.37719
G1 X100.982 Y107.380 E19.41783
G1 X100.566 Y107.424 E19.44523
G1 X99.946 Y107.445 E19.48588
G1 X99.527 Y107.431 E19.51327
G1 X98.910 Y107.366 E19.55392
G1 X98.498 Y107.293 E19.58132
G1 X97.895 Y107.143 E19.62196
G1 X97.497 Y107.014 E19.64936
G1 X96.922 Y106.781 E19.69000
G1 X96.546 Y106.598 E19.71740
G1 X96.008 Y106.287 E19.75804
G1 X95.661 Y106.053 E19.78544
G1 X95.172 Y105.671 E19.82608
G1 X94.861 Y105.391 E19.85348
G1 X94.425 Y104.939 E19.89460
G1 X94.160 Y104.624 E19.92152
G1 X93.796 Y104.122 E19.96213
G1 X93.574 Y103.766 E19.98956
G1 X93.282 Y103.218 E20.03020
G1 X93.112 Y102.836 E20.05760
G1 X92.900 Y102.253 E20.09822
G1 X92.784 Y101.850 E20.12564
G1 X92.655 Y101.243 E20.16629
G1 X92.597 Y100.829 E20.19369
G1 X92.554 Y100.209 E20.23433
G1 X92.554 Y99.791 E20.26173
G1 X92.597 Y99.172 E20.30231
G1 X92.655 Y98.757 E20.32977
G1 X92.784 Y98.150 E20.37041
G1 X92.900 Y97.747 E20.39781
G1 X93.112 Y97.165 E20.43841
G1 X93.282 Y96.782 E20.46585
G1 X93.574 Y96.234 E20.50647
G1 X93.796 Y95.879 E20.53389
G1 X94.160 Y95.377 E20.57450
G1 X94.430 Y95.056 E20.60193
G1 X94.819 Y94.652 E20.63864
G1 E17.13864 F3000.00000
G92 E0
G1 X101.224 Y101.364 F3900.000
G1 E3.50000 F3000.00000
G1 F900
G1 X101.022 Y101.521 E3.51676
G1 X100.801 Y101.649 E3.53352
G1 X100.563 Y101.745 E3.55027
G1 X100.315 Y101.807 E3.56703
G1 X100.060 Y101.834 E3.58379
G1 X99.805 Y101.825 E3.60055
G1 X99.552 Y101.780 E3.61731
G1 X99.309 Y101.701 E3.63407
G1 X99.079 Y101.589 E3.65082
G1 X98.868 Y101.447 E3.66749
G1 X98.673 Y101.270 E3.68472
G1 X98.512 Y101.079 E3.70110
G1 X98.376 Y100.861 E3.71785
G1 X98.272 Y100.628 E3.73461
G1 X98.202 Y100.381 E3.75137
G1 X98.166 Y100.128 E3.76813
G1 X98.166 Y99.872 E3.78489
G1 X98.202 Y99.618 E3.80165
G1 X98.272 Y99.372 E3.81840
G1 X98.376 Y99.140 E3.83507
G1 X98.516 Y98.917 E3.85230
G1 X98.676 Y98.725 E3.86867
G1 X98.867 Y98.554 E3.88543
G1 X99.079 Y98.411 E3.90219
G1 X99.309 Y98.299 E3.91895
G1 X99.552 Y98.220 E3.93571
G1 X99.803 Y98.175 E3.95237
G1 X100.066 Y98.167 E3.96961
G1 X100.315 Y98.193 E3.98598
G1 X100.563 Y98.255 E4.00274
G1 X100.801 Y98.351 E4.01949
G1 X101.022 Y98.479 E4.03625
G1 X101.224 Y98.636 E4.05301
G1 X101.401 Y98.820 E4.06968
G1 X101.555 Y99.033 E4.08691
G1 X101.673 Y99.254 E4.10328
G1 X101.760 Y99.494 E4.12004
G1 X101.813 Y99.745 E4.13680
G1 X101.831 Y100.000 E4.15356
G1 X101.813 Y100.255 E4.17031
G1 X101.760 Y100.506 E4.18707
G1 X101.673 Y100.746 E4.20383
G1 X101.552 Y100.972 E4.22059
G1 X101.402 Y101.179 E4.23735
G1 X101.266 Y101.320 E4.25018
G1 X101.548 Y101.676 F3900.000
G1 F900
G1 X101.275 Y101.895 E4.27310
G1 X100.998 Y102.055 E4.29397
G1 X100.703 Y102.174 E4.31485
G1 X100.393 Y102.251 E4.33573
G1 X100.076 Y102.284 E4.35661
G1 X99.757 Y102.273 E4.37748
G1 X99.443 Y102.218 E4.39836
G1 X99.140 Y102.119 E4.41924
G1 X98.853 Y101.980 E4.44012
