; generated by Slic3r 1.3.0 on 2021-08-12 at 14:58:48

; external perimeters extrusion width = 0.44mm (0.85mm^3/s)
; perimeters extrusion width = 0.48mm (3.77mm^3/s)
; infill extrusion width = 0.48mm (4.40mm^3/s)
; solid infill extrusion width = 0.48mm (1.26mm^3/s)
; top infill extrusion width = 0.48mm (0.88mm^3/s)

M190 S65 ; set bed temperature and wait for it to be reached
M104 S205 ; set temperature
; M106 P0 S255 ; turn hot-end fan on
G28 ; home all axes
G1 Z5 F5000 ; lift nozzle


; Filament gcode

M109 S205 ; set temperature and wait for it to be reached
G21 ; set units to millimeters
G90 ; use absolute coordinates
M82 ; use absolute distances for extrusion
G92 E0
G1 Z-0.150 F3900.000
G1 E-3.50000 F3000.00000
G92 E0
G1 X88.017 Y94.010 F3900.000
G1 E3.50000 F3000.00000
G1 F900
G1 X88.643 Y93.468 E3.55417
G1 X88.928 Y93.254 E3.57752
G1 X89.624 Y92.807 E3.63169
G1 X89.938 Y92.636 E3.65504
G1 X90.690 Y92.292 E3.70921
G1 X91.024 Y92.167 E3.73256
G1 X91.818 Y91.934 E3.78674
G1 X92.167 Y91.858 E3.81009
G1 X92.985 Y91.741 E3.86422
G1 X93.515 Y91.705 E3.89900
G1 X105.647 Y91.206 E4.69385
G1 X106.455 Y91.234 E4.74677
G1 X106.872 Y91.278 E4.77421
G1 X107.669 Y91.418 E4.82718
G1 X108.075 Y91.520 E4.85458
G1 X108.844 Y91.769 E4.90751
G1 X109.232 Y91.926 E4.93495
G1 X109.959 Y92.281 E4.98791
G1 X110.322 Y92.490 E5.01532
G1 X110.993 Y92.943 E5.06829
G1 X111.322 Y93.200 E5.09569
G1 X111.924 Y93.742 E5.14865
G1 X112.215 Y94.043 E5.17605
G1 X112.735 Y94.663 E5.22901
G1 X112.981 Y95.001 E5.25642
G1 X113.409 Y95.687 E5.30937
G1 X113.606 Y96.057 E5.33679
G1 X113.935 Y96.796 E5.38976
G1 X114.078 Y97.190 E5.41716
G1 X114.301 Y97.967 E5.47011
G1 X114.388 Y98.377 E5.49753
G1 X114.501 Y99.178 E5.55049
G1 X114.530 Y99.595 E5.57789
G1 X114.530 Y100.405 E5.63086
G1 X114.501 Y100.822 E5.65826
G1 X114.388 Y101.623 E5.71123
G1 X114.301 Y102.033 E5.73863
G1 X114.078 Y102.810 E5.79160
G1 X113.935 Y103.204 E5.81900
G1 X113.606 Y103.943 E5.87196
G1 X113.409 Y104.312 E5.89937
G1 X112.981 Y104.999 E5.95233
G1 X112.735 Y105.337 E5.97973
G1 X112.215 Y105.957 E6.03270
G1 X111.924 Y106.258 E6.06010
G1 X111.322 Y106.800 E6.11307
G1 X110.993 Y107.057 E6.14047
G1 X110.322 Y107.510 E6.19344
G1 X109.959 Y107.719 E6.22084
G1 X109.232 Y108.074 E6.27381
G1 X108.844 Y108.230 E6.30121
G1 X108.075 Y108.480 E6.35417
G1 X107.669 Y108.582 E6.38157
G1 X106.872 Y108.722 E6.43454
G1 X106.455 Y108.766 E6.46194
G1 X105.647 Y108.794 E6.51491
G1 X93.515 Y108.295 E7.30976
G1 X92.986 Y108.259 E7.34450
G1 X92.167 Y108.142 E7.39867
G1 X91.818 Y108.066 E7.42202
G1 X91.024 Y107.833 E7.47619
G1 X90.690 Y107.708 E7.49954
G1 X89.938 Y107.365 E7.55367
G1 X89.624 Y107.193 E7.57706
G1 X88.928 Y106.746 E7.63124
G1 X88.643 Y106.532 E7.65459
G1 X88.017 Y105.990 E7.70876
G1 X87.765 Y105.738 E7.73211
G1 X87.223 Y105.113 E7.78628
G1 X87.010 Y104.827 E7.80963
G1 X86.562 Y104.131 E7.86380
G1 X86.391 Y103.818 E7.88715
G1 X86.048 Y103.065 E7.94132
G1 X85.923 Y102.731 E7.96467
G1 X85.690 Y101.937 E8.01884
G1 X85.614 Y101.589 E8.04219
G1 X85.496 Y100.770 E8.09636
G1 X85.471 Y100.414 E8.11971
G1 X85.471 Y99.587 E8.17381
G1 X85.496 Y99.230 E8.19724
G1 X85.614 Y98.411 E8.25140
G1 X85.690 Y98.063 E8.27475
G1 X85.923 Y97.269 E8.32893
G1 X86.048 Y96.935 E8.35228
G1 X86.391 Y96.182 E8.40645
G1 X86.562 Y95.869 E8.42980
G1 X87.010 Y95.173 E8.48397
G1 X87.223 Y94.887 E8.50732
G1 X87.765 Y94.262 E8.56149
G1 X87.975 Y94.052 E8.58091
G1 X88.336 Y94.328 F3900.000
G1 F900
G1 X88.912 Y93.828 E8.63088
G1 X89.198 Y93.614 E8.65423
G1 X89.840 Y93.202 E8.70420
G1 X90.153 Y93.031 E8.72755
G1 X90.847 Y92.714 E8.77752
G1 X91.182 Y92.589 E8.80087
G1 X91.914 Y92.374 E8.85084
G1 X92.263 Y92.298 E8.87419
G1 X93.018 Y92.189 E8.92412
G1 X93.534 Y92.155 E8.95802
G1 X105.663 Y91.655 E9.75267
G1 X106.408 Y91.681 E9.80150
G1 X106.825 Y91.725 E9.82893
G1 X107.560 Y91.855 E9.87779
G1 X107.966 Y91.956 E9.90519
G1 X108.675 Y92.187 E9.95402
G1 X109.064 Y92.343 E9.98145
G1 X109.741 Y92.674 E10.03079
G1 X110.097 Y92.880 E10.05771
G1 X110.716 Y93.297 E10.10657
G1 X111.045 Y93.555 E10.13397
G1 X111.600 Y94.054 E10.18283
G1 X111.891 Y94.355 E10.21023
G1 X112.371 Y94.927 E10.25908
G1 X112.617 Y95.266 E10.28649
G1 X113.012 Y95.898 E10.33533
G1 X113.209 Y96.268 E10.36275
G1 X113.512 Y96.950 E10.41160
G1 X113.655 Y97.343 E10.43900
G1 X113.861 Y98.061 E10.48785
G1 X113.948 Y98.470 E10.51526
G1 X114.052 Y99.209 E10.56412
G1 X114.081 Y99.627 E10.59152
G1 X114.081 Y100.373 E10.64038
G1 X114.052 Y100.791 E10.66778
G1 X113.948 Y101.530 E10.71664
G1 X113.861 Y101.939 E10.74404
G1 X113.655 Y102.657 E10.79290
G1 X113.512 Y103.050 E10.82030
G1 X113.209 Y103.732 E10.86916
G1 X113.012 Y104.101 E10.89656
G1 X112.617 Y104.734 E10.94541
G1 X112.371 Y105.073 E10.97282
G1 X111.891 Y105.644 E11.02167
G1 X111.600 Y105.946 E11.04908
G1 X111.045 Y106.445 E11.09794
G1 X110.716 Y106.703 E11.12534
G1 X110.097 Y107.120 E11.17420
G1 X109.734 Y107.329 E11.20159
G1 X109.064 Y107.657 E11.25045
G1 X108.676 Y107.813 E11.27785
G1 X107.966 Y108.044 E11.32671
G1 X107.560 Y108.145 E11.35411
G1 X106.825 Y108.275 E11.40297
G1 X106.408 Y108.319 E11.43037
G1 X105.663 Y108.345 E11.47923
G1 X93.534 Y107.845 E12.27389
G1 X93.018 Y107.811 E12.30775
G1 X92.263 Y107.702 E12.35771
G1 X91.914 Y107.626 E12.38107
G1 X91.182 Y107.411 E12.43103
G1 X90.847 Y107.286 E12.45438
G1 X90.154 Y106.970 E12.50432
G1 X89.840 Y106.798 E12.52770
G1 X89.198 Y106.386 E12.57767
G1 X88.912 Y106.172 E12.60102
G1 X88.336 Y105.672 E12.65099
G1 X88.083 Y105.420 E12.67434
G1 X87.583 Y104.843 E12.72431
G1 X87.370 Y104.558 E12.74766
G1 X86.957 Y103.915 E12.79763
G1 X86.786 Y103.602 E12.82098
G1 X86.469 Y102.908 E12.87095
G1 X86.344 Y102.574 E12.89430
G1 X86.129 Y101.841 E12.94427
G1 X86.054 Y101.493 E12.96762
G1 X85.945 Y100.737 E13.01759
G1 X85.919 Y100.382 E13.04094
G1 X85.919 Y99.619 E13.09083
G1 X85.945 Y99.263 E13.11426
G1 X86.054 Y98.507 E13.16422
G1 X86.129 Y98.159 E13.18758
G1 X86.344 Y97.426 E13.23755
G1 X86.469 Y97.092 E13.26090
G1 X86.786 Y96.398 E13.31086
G1 X86.957 Y96.085 E13.33421
G1 X87.370 Y95.442 E13.38418
G1 X87.583 Y95.157 E13.40754
G1 X88.083 Y94.580 E13.45750
G1 X88.293 Y94.370 E13.47692
G1 X88.654 Y94.646 F3900.000
G1 F900
G1 X89.182 Y94.188 E13.52269
G1 X89.468 Y93.974 E13.54604
G1 X90.056 Y93.596 E13.59181
G1 X90.369 Y93.425 E13.61516
G1 X91.005 Y93.135 E13.66092
G1 X91.339 Y93.010 E13.68428
G1 X92.010 Y92.813 E13.73004
G1 X92.358 Y92.738 E13.75339
G1 X93.050 Y92.638 E13.79913
G1 X93.553 Y92.604 E13.83213
G1 X105.678 Y92.105 E14.62660
G1 X106.361 Y92.129 E14.67132
G1 X106.778 Y92.173 E14.69875
G1 X107.451 Y92.291 E14.74350
G1 X107.857 Y92.393 E14.77090
G1 X108.507 Y92.604 E14.81562
G1 X108.895 Y92.761 E14.84305
G1 X109.509 Y93.060 E14.88780
G1 X109.872 Y93.270 E14.91520
G1 X110.439 Y93.652 E14.95995
G1 X110.769 Y93.909 E14.98735
G1 X111.277 Y94.367 E15.03210
G1 X111.567 Y94.668 E15.05950
G1 X112.007 Y95.192 E15.10424
G1 X112.253 Y95.530 E15.13165
G1 X112.618 Y96.116 E15.17686
G1 X112.811 Y96.479 E15.20380
G1 X113.089 Y97.104 E15.24855
G1 X113.233 Y97.497 E15.27595
G1 X113.421 Y98.154 E15.32069
G1 X113.508 Y98.564 E15.34810
G1 X113.603 Y99.241 E15.39285
G1 X113.632 Y99.658 E15.42025
G1 X113.632 Y100.342 E15.46500
G1 X113.603 Y100.759 E15.49240
G1 X113.508 Y101.436 E15.53715
G1 X113.421 Y101.846 E15.56455
G1 X113.233 Y102.503 E15.60930
G1 X113.089 Y102.896 E15.63670
G1 X112.811 Y103.520 E15.68145
G1 X112.615 Y103.890 E15.70885
G1 X112.253 Y104.470 E15.75359
G1 X112.007 Y104.808 E15.78100
G1 X111.567 Y105.332 E15.82575
G1 X111.277 Y105.633 E15.85315
G1 X110.769 Y106.091 E15.89790
G1 X110.439 Y106.348 E15.92530
G1 X109.872 Y106.730 E15.97005
G1 X109.510 Y106.940 E15.99745
G1 X108.895 Y107.239 E16.04220
G1 X108.507 Y107.396 E16.06960
G1 X107.857 Y107.607 E16.11435
G1 X107.451 Y107.709 E16.14175
G1 X106.778 Y107.827 E16.18650
G1 X106.361 Y107.871 E16.21390
G1 X105.678 Y107.895 E16.25865
G1 X93.553 Y107.396 E17.05312
G1 X93.050 Y107.362 E17.08609
G1 X92.358 Y107.262 E17.13186
G1 X92.010 Y107.187 E17.15521
G1 X91.339 Y106.990 E17.20098
G1 X91.005 Y106.865 E17.22433
G1 X90.369 Y106.575 E17.27006
G1 X90.056 Y106.404 E17.29344
G1 X89.468 Y106.026 E17.33921
G1 X89.182 Y105.812 E17.36256
G1 X88.654 Y105.354 E17.40833
G1 X88.401 Y105.102 E17.43168
G1 X87.944 Y104.573 E17.47744
G1 X87.730 Y104.288 E17.50080
G1 X87.352 Y103.700 E17.54656
G1 X87.181 Y103.387 E17.56991
G1 X86.891 Y102.751 E17.61568
G1 X86.766 Y102.417 E17.63903
G1 X86.569 Y101.746 E17.68479
G1 X86.493 Y101.397 E17.70815
G1 X86.394 Y100.705 E17.75391
G1 X86.368 Y100.350 E17.77726
G1 X86.368 Y99.651 E17.82296
G1 X86.394 Y99.295 E17.84638
G1 X86.493 Y98.603 E17.89214
G1 X86.569 Y98.254 E17.91550
G1 X86.766 Y97.583 E17.96126
G1 X86.891 Y97.249 E17.98461
G1 X87.181 Y96.613 E18.03038
G1 X87.352 Y96.300 E18.05373
G1 X87.730 Y95.712 E18.09950
G1 X87.944 Y95.426 E18.12285
G1 X88.401 Y94.898 E18.16861
G1 X88.611 Y94.688 E18.18804
G1 X88.972 Y94.964 F3900.000
G1 F900
G1 X89.452 Y94.548 E18.22960
G1 X89.737 Y94.335 E18.25295
G1 X90.271 Y93.991 E18.29452
G1 X90.584 Y93.820 E18.31787
G1 X91.162 Y93.557 E18.35943
G1 X91.496 Y93.432 E18.38278
G1 X92.105 Y93.253 E18.42435
G1 X92.454 Y93.177 E18.44770
G1 X93.082 Y93.087 E18.48923
G1 X105.694 Y92.555 E19.31562
G1 X106.314 Y92.576 E19.35623
G1 X106.731 Y92.620 E19.38366
G1 X107.342 Y92.728 E19.42430
G1 X107.748 Y92.829 E19.45170
G1 X108.345 Y93.024 E19.49282
G1 X108.727 Y93.178 E19.51974
G1 X109.285 Y93.450 E19.56038
G1 X109.647 Y93.659 E19.58778
G1 X110.162 Y94.006 E19.62842
G1 X110.492 Y94.264 E19.65582
G1 X110.953 Y94.679 E19.69646
G1 X111.244 Y94.980 E19.72386
G1 X111.643 Y95.456 E19.76450
G1 X111.889 Y95.795 E19.79190
G1 X112.221 Y96.327 E19.83301
G1 X112.414 Y96.691 E19.85994
G1 X112.667 Y97.258 E19.90058
G1 X112.810 Y97.651 E19.92798
G1 X112.982 Y98.255 E19.96911
G1 X113.068 Y98.657 E19.99603
G1 X113.154 Y99.272 E20.03667
G1 X113.184 Y99.690 E20.06407
G1 X113.184 Y100.310 E20.10471
G1 X113.154 Y100.728 E20.13211
G1 X113.068 Y101.343 E20.17275
G1 X112.981 Y101.752 E20.20015
G1 X112.810 Y102.349 E20.24079
G1 X112.667 Y102.742 E20.26819
G1 X112.414 Y103.309 E20.30883
G1 X112.218 Y103.679 E20.33623
G1 X111.889 Y104.205 E20.37687
G1 X111.643 Y104.544 E20.40427
G1 X111.244 Y105.019 E20.44491
G1 X110.953 Y105.321 E20.47231
G1 X110.492 Y105.736 E20.51295
G1 X110.162 Y105.994 E20.54035
G1 X109.647 Y106.341 E20.58100
G1 X109.285 Y106.550 E20.60840
G1 X108.727 Y106.822 E20.64904
G1 X108.339 Y106.979 E20.67644
G1 X107.748 Y107.171 E20.71708
G1 X107.342 Y107.272 E20.74448
G1 X106.731 Y107.380 E20.78512
G1 X106.314 Y107.424 E20.81252
G1 X105.694 Y107.445 E20.85316
G1 X93.571 Y106.946 E21.64744
G1 X93.082 Y106.913 E21.67953
G1 X92.454 Y106.823 E21.72109
G1 X92.105 Y106.747 E21.74444
G1 X91.496 Y106.568 E21.78601
G1 X91.162 Y106.443 E21.80936
G1 X90.585 Y106.180 E21.85089
G1 X90.271 Y106.009 E21.87427
G1 X89.737 Y105.665 E21.91584
G1 X89.452 Y105.452 E21.93919
G1 X88.972 Y105.036 E21.98075
G1 X88.720 Y104.784 E22.00410
G1 X88.304 Y104.304 E22.04566
G1 X88.090 Y104.018 E22.06902
G1 X87.747 Y103.484 E22.11058
G1 X87.576 Y103.171 E22.13393
G1 X87.312 Y102.594 E22.17550
G1 X87.187 Y102.259 E22.19885
G1 X87.009 Y101.650 E22.24041
G1 X86.933 Y101.302 E22.26376
G1 X86.842 Y100.673 E22.30532
G1 X86.817 Y100.317 E22.32868
G1 X86.817 Y99.683 E22.37018
G1 X86.842 Y99.327 E22.39359
G1 X86.933 Y98.698 E22.43515
G1 X87.009 Y98.350 E22.45850
G1 X87.187 Y97.741 E22.50007
G1 X87.312 Y97.406 E22.52342
G1 X87.576 Y96.829 E22.56498
G1 X87.747 Y96.516 E22.58833
G1 X88.090 Y95.982 E22.62990
G1 X88.304 Y95.696 E22.65325
G1 X88.720 Y95.216 E22.69481
G1 X88.929 Y95.007 E22.71424
G1 E19.21424 F3000.00000
G92 E0
G1 X106.972 Y101.364 F3900.000
G1 E3.50000 F3000.00000
G1 F900
G1 X106.771 Y101.521 E3.51676
G1 X106.549 Y101.649 E3.53352
G1 X106.312 Y101.745 E3.55027
G1 X106.063 Y101.807 E3.56703
G1 X105.809 Y101.834 E3.58379
G1 X105.553 Y101.825 E3.60055
G1 X105.301 Y101.780 E3.61731
G1 X105.057 Y101.701 E3.63407
G1 X104.827 Y101.589 E3.65082
G1 X104.616 Y101.447 E3.66749
G1 X104.421 Y101.270 E3.68472
G1 X104.260 Y101.079 E3.70110
G1 X104.124 Y100.861 E3.71785
G1 X104.020 Y100.628 E3.73461
G1 X103.950 Y100.381 E3.75137
G1 X103.914 Y100.128 E3.76813
G1 X103.914 Y99.872 E3.78489
G1 X103.950 Y99.618 E3.80165
G1 X104.020 Y99.372 E3.81840
G1 X104.124 Y99.140 E3.83507
G1 X104.264 Y98.917 E3.85230
G1 X104.425 Y98.725 E3.86867
G1 X104.615 Y98.554 E3.88543
G1 X104.827 Y98.411 E3.90219
G1 X105.057 Y98.299 E3.91895
G1 X105.301 Y98.220 E3.93571
G1 X105.551 Y98.175 E3.95237
G1 X105.814 Y98.167 E3.96961
G1 X106.063 Y98.193 E3.98598
G1 X106.312 Y98.255 E4.00274
G1 X106.549 Y98.351 E4.01949
G1 X106.771 Y98.479 E4.03625
G1 X106.972 Y98.636 E4.05301
G1 X107.149 Y98.820 E4.06968
G1 X107.303 Y99.033 E4.08691
G1 X107.421 Y99.254 E4.10328
G1 X107.508 Y99.494 E4.12004
G1 X107.562 Y99.745 E4.13680
G1 X107.579 Y100.000 E4.15356
G1 X107.562 Y100.255 E4.17031
G1 X107.508 Y100.506 E4.18707
G1 X107.421 Y100.746 E4.20383
G1 X107.301 Y100.972 E4.22059
G1 X107.150 Y101.179 E4.23735
G1 X107.014 Y101.320 E4.25018
G1 X107.296 Y101.676 F3900.000
G1 F900
G1 X107.023 Y101.895 E4.27310
G1 X106.747 Y102.055 E4.29397
G1 X106.451 Y102.174 E4.31485
G1 X106.141 Y102.251 E4.33573
G1 X105.824 Y102.284 E4.35661
G1 X105.506 Y102.273 E4.37748
G1 X105.192 Y102.218 E4.39836
G1 X104.888 Y102.119 E4.41924
G1 X104.602 Y101.980 E4.44012
G1 X104.338 Y101.802 E4.46094
G1 X104.096 Y101.583 E4.48229
G1 X103.895 Y101.344 E4.50274
G1 X103.726 Y101.073 E4.52362
G1 X103.596 Y100.782 E4.54450
G1 X103.509 Y100.475 E4.56537
G1 X103.464 Y100.159 E4.58625
G1 X103.464 Y99.841 E4.60713
G1 X103.509 Y99.525 E4.62801
G1 X103.596 Y99.218 E4.64888
G1 X103.726 Y98.928 E4.66971
G1 X103.899 Y98.651 E4.69106
G1 X104.100 Y98.412 E4.71151
G1 X104.337 Y98.199 E4.73239
G1 X104.602 Y98.020 E4.75327
G1 X104.888 Y97.881 E4.77414
G1 X105.192 Y97.782 E4.79502
G1 X105.505 Y97.727 E4.81584
G1 X105.831 Y97.716 E4.83719
G1 X106.141 Y97.749 E4.85765
G1 X106.451 Y97.826 E4.87853
G1 X106.747 Y97.945 E4.89940
G1 X107.023 Y98.105 E4.92028
G1 X107.274 Y98.301 E4.94116
G1 X107.495 Y98.530 E4.96198
G1 X107.686 Y98.794 E4.98333
G1 X107.833 Y99.070 E5.00378
G1 X107.942 Y99.370 E5.02466
G1 X108.008 Y99.682 E5.04554
G1 X108.030 Y100.000 E5.06642
G1 X108.008 Y100.318 E5.08729
G1 X107.942 Y100.630 E5.10817
G1 X107.833 Y100.930 E5.12905
G1 X107.683 Y101.211 E5.14993
G1 X107.496 Y101.469 E5.17080
G1 X107.338 Y101.633 E5.18569
G1 X107.620 Y101.989 F3900.000
G1 F900
G1 X107.275 Y102.269 E5.21477
G1 X106.944 Y102.460 E5.23977
G1 X106.590 Y102.603 E5.26477
G1 X106.220 Y102.695 E5.28976
G1 X105.840 Y102.735 E5.31476
G1 X105.458 Y102.722 E5.33975
G1 X105.082 Y102.656 E5.36475
G1 X104.719 Y102.538 E5.38975
G1 X104.376 Y102.370 E5.41474
G1 X104.060 Y102.157 E5.43972
G1 X103.771 Y101.896 E5.46519
G1 X103.530 Y101.609 E5.48973
G1 X103.328 Y101.285 E5.51472
G1 X103.173 Y100.936 E5.53972
G1 X103.067 Y100.569 E5.56472
G1 X103.014 Y100.191 E5.58971
G1 X103.014 Y99.809 E5.61471
G1 X103.067 Y99.431 E5.63971
G1 X103.173 Y99.064 E5.66470
G1 X103.328 Y98.715 E5.68968
G1 X103.535 Y98.386 E5.71515
G1 X103.776 Y98.099 E5.73969
G1 X104.060 Y97.843 E5.76468
G1 X104.376 Y97.630 E5.78968
G1 X104.719 Y97.462 E5.81467
G1 X105.082 Y97.344 E5.83967
G1 X105.458 Y97.278 E5.86465
G1 X105.847 Y97.266 E5.89012
G1 X106.220 Y97.305 E5.91465
G1 X106.590 Y97.397 E5.93965
G1 X106.944 Y97.540 E5.96465
G1 X107.275 Y97.731 E5.98964
G1 X107.576 Y97.966 E6.01464
G1 X107.841 Y98.241 E6.03962
G1 X108.069 Y98.556 E6.06509
G1 X108.245 Y98.887 E6.08962
G1 X108.375 Y99.246 E6.11462
G1 X108.455 Y99.619 E6.13962
G1 X108.481 Y100.000 E6.16461
G1 X108.455 Y100.381 E6.18961
G1 X108.375 Y100.754 E6.21461
G1 X108.245 Y101.113 E6.23960
G1 X108.066 Y101.450 E6.26460
G1 X107.841 Y101.759 E6.28959
G1 X107.661 Y101.945 E6.30654
G1 X107.558 Y101.975 F3900.000
G1 X106.622 Y101.077 F3900.000
G1 F900
G1 X106.852 Y100.842 E6.32860
G1 X106.966 Y100.686 E6.34155
G1 X107.057 Y100.515 E6.35450
G1 X107.123 Y100.334 E6.36745
G1 X107.163 Y100.145 E6.38040
G1 X107.171 Y99.876 E6.39843
