; generated by Slic3r 1.3.0 on 2021-07-31 at 19:25:59

; external perimeters extrusion width = 0.44mm (0.85mm^3/s)
; perimeters extrusion width = 0.48mm (3.77mm^3/s)
; infill extrusion width = 0.48mm (4.40mm^3/s)
; solid infill extrusion width = 0.48mm (1.26mm^3/s)
; top infill extrusion width = 0.48mm (0.88mm^3/s)

M190 S65 ; set bed temperature and wait for it to be reached
M104 S205 ; set temperature
; M106 P0 S255 ; turn hot-end fan on
G28 ; home all axes
G1 Z5 F5000 ; lift nozzle


; Filament gcode

M109 S205 ; set temperature and wait for it to be reached
G21 ; set units to millimeters
G90 ; use absolute coordinates
M82 ; use absolute distances for extrusion
G92 E0
G1 Z-0.150 F3900.000
G1 E-3.50000 F3000.00000
G92 E0
G1 X92.436 Y92.053 F3900.000
G1 E3.50000 F3000.00000
G1 F900
G1 X92.887 Y91.647 E3.53973
G1 X93.308 Y91.306 E3.57520
G1 X93.800 Y90.949 E3.61494
G1 X94.162 Y90.714 E3.64321
G1 X94.780 Y90.351 E3.69013
G1 X95.262 Y90.105 E3.72560
G1 X95.817 Y89.858 E3.76534
G1 X96.322 Y89.664 E3.80080
G1 X96.900 Y89.476 E3.84053
G1 X97.423 Y89.336 E3.87600
G1 X98.017 Y89.210 E3.91574
G1 X98.552 Y89.125 E3.95120
G1 X99.156 Y89.062 E3.99094
G1 X99.697 Y89.033 E4.02641
G1 X100.304 Y89.033 E4.06614
G1 X100.844 Y89.062 E4.10160
G1 X101.448 Y89.125 E4.14134
G1 X101.983 Y89.210 E4.17680
G1 X102.577 Y89.336 E4.21653
G1 X103.100 Y89.476 E4.25200
G1 X103.678 Y89.664 E4.29174
G1 X104.183 Y89.858 E4.32721
G1 X104.738 Y90.105 E4.36694
G1 X105.220 Y90.351 E4.40241
G1 X105.746 Y90.654 E4.44215
G1 X106.200 Y90.949 E4.47761
G1 X106.692 Y91.306 E4.51735
G1 X107.113 Y91.647 E4.55282
G1 X107.564 Y92.053 E4.59255
G1 X107.947 Y92.436 E4.62801
G1 X108.353 Y92.887 E4.66775
G1 X108.694 Y93.308 E4.70321
G1 X109.051 Y93.800 E4.74295
G1 X109.346 Y94.254 E4.77841
G1 X109.649 Y94.780 E4.81815
G1 X109.895 Y95.262 E4.85361
G1 X110.142 Y95.817 E4.89335
G1 X110.336 Y96.322 E4.92881
G1 X110.524 Y96.900 E4.96855
G1 X110.664 Y97.423 E5.00402
G1 X110.790 Y98.017 E5.04376
G1 X110.875 Y98.552 E5.07922
G1 X110.938 Y99.156 E5.11896
G1 X110.967 Y99.697 E5.15443
G1 X110.967 Y100.304 E5.19416
G1 X110.938 Y100.844 E5.22962
G1 X110.875 Y101.448 E5.26936
G1 X110.790 Y101.983 E5.30482
G1 X110.664 Y102.577 E5.34456
G1 X110.524 Y103.100 E5.38002
G1 X110.336 Y103.678 E5.41976
G1 X110.142 Y104.183 E5.45523
G1 X109.895 Y104.738 E5.49496
G1 X109.649 Y105.220 E5.53042
G1 X109.346 Y105.746 E5.57017
G1 X109.051 Y106.200 E5.60563
G1 X108.694 Y106.692 E5.64537
G1 X108.353 Y107.113 E5.68083
G1 X107.947 Y107.564 E5.72057
G1 X107.564 Y107.947 E5.75603
G1 X107.113 Y108.353 E5.79577
G1 X106.692 Y108.694 E5.83123
G1 X106.200 Y109.051 E5.87097
G1 X105.746 Y109.346 E5.90643
G1 X105.220 Y109.649 E5.94617
G1 X104.738 Y109.895 E5.98163
G1 X104.183 Y110.142 E6.02137
G1 X103.678 Y110.336 E6.05683
G1 X103.100 Y110.524 E6.09657
G1 X102.577 Y110.664 E6.13203
G1 X101.983 Y110.790 E6.17178
G1 X101.448 Y110.875 E6.20724
G1 X100.844 Y110.938 E6.24698
G1 X100.304 Y110.967 E6.28244
G1 X99.697 Y110.967 E6.32217
G1 X99.156 Y110.938 E6.35764
G1 X98.552 Y110.875 E6.39738
G1 X98.017 Y110.790 E6.43284
G1 X97.423 Y110.664 E6.47257
G1 X96.900 Y110.524 E6.50804
G1 X96.322 Y110.336 E6.54778
G1 X95.817 Y110.142 E6.58324
G1 X95.262 Y109.895 E6.62298
G1 X94.780 Y109.649 E6.65845
G1 X94.254 Y109.346 E6.69818
G1 X93.800 Y109.051 E6.73365
G1 X93.308 Y108.694 E6.77338
G1 X92.887 Y108.353 E6.80885
G1 X92.436 Y107.947 E6.84859
G1 X92.053 Y107.564 E6.88405
G1 X91.630 Y107.092 E6.92553
G1 X91.306 Y106.692 E6.95925
G1 X90.949 Y106.200 E6.99899
G1 X90.654 Y105.746 E7.03445
G1 X90.351 Y105.220 E7.07419
G1 X90.105 Y104.738 E7.10966
G1 X89.858 Y104.183 E7.14939
G1 X89.664 Y103.678 E7.18485
G1 X89.476 Y103.100 E7.22459
G1 X89.336 Y102.577 E7.26006
G1 X89.210 Y101.983 E7.29979
G1 X89.125 Y101.448 E7.33526
G1 X89.062 Y100.845 E7.37499
G1 X89.033 Y100.304 E7.41045
G1 X89.033 Y99.697 E7.45019
G1 X89.062 Y99.156 E7.48566
G1 X89.125 Y98.552 E7.52539
G1 X89.210 Y98.017 E7.56086
G1 X89.336 Y97.423 E7.60059
G1 X89.476 Y96.900 E7.63606
G1 X89.664 Y96.322 E7.67580
G1 X89.858 Y95.817 E7.71126
G1 X90.105 Y95.262 E7.75099
G1 X90.351 Y94.780 E7.78646
G1 X90.654 Y94.254 E7.82620
G1 X90.949 Y93.800 E7.86166
G1 X91.306 Y93.308 E7.90140
G1 X91.647 Y92.887 E7.93687
G1 X92.053 Y92.436 E7.97660
G1 X92.394 Y92.096 E8.00814
G1 X92.754 Y92.371 F3900.000
G1 F900
G1 X93.191 Y91.980 E8.04654
G1 X93.592 Y91.656 E8.08025
G1 X94.045 Y91.327 E8.11691
G1 X94.499 Y91.032 E8.15237
G1 X94.984 Y90.752 E8.18903
G1 X95.467 Y90.506 E8.22450
G1 X95.978 Y90.278 E8.26115
G1 X96.484 Y90.084 E8.29661
G1 X97.016 Y89.911 E8.33326
G1 X97.540 Y89.771 E8.36873
G1 X98.087 Y89.654 E8.40538
G1 X98.622 Y89.570 E8.44085
G1 X99.179 Y89.511 E8.47750
G1 X99.720 Y89.483 E8.51297
G1 X100.280 Y89.483 E8.54962
G1 X100.821 Y89.511 E8.58508
G1 X101.378 Y89.570 E8.62174
G1 X101.913 Y89.654 E8.65720
G1 X102.460 Y89.771 E8.69384
G1 X102.984 Y89.911 E8.72932
G1 X103.516 Y90.084 E8.76598
G1 X104.022 Y90.278 E8.80144
G1 X104.533 Y90.506 E8.83809
G1 X105.016 Y90.752 E8.87355
G1 X105.501 Y91.032 E8.91021
G1 X105.955 Y91.327 E8.94567
G1 X106.408 Y91.656 E8.98233
G1 X106.829 Y91.997 E9.01780
G1 X107.246 Y92.371 E9.05445
G1 X107.629 Y92.754 E9.08991
G1 X108.003 Y93.171 E9.12657
G1 X108.344 Y93.592 E9.16203
G1 X108.673 Y94.045 E9.19869
G1 X108.968 Y94.499 E9.23415
G1 X109.248 Y94.984 E9.27080
G1 X109.494 Y95.466 E9.30627
G1 X109.722 Y95.978 E9.34292
G1 X109.916 Y96.484 E9.37838
G1 X110.118 Y97.122 E9.42223
G1 X110.229 Y97.540 E9.45050
G1 X110.346 Y98.087 E9.48715
G1 X110.430 Y98.622 E9.52261
G1 X110.489 Y99.179 E9.55927
G1 X110.517 Y99.720 E9.59474
G1 X110.517 Y100.280 E9.63139
G1 X110.489 Y100.821 E9.66685
G1 X110.430 Y101.378 E9.70350
G1 X110.346 Y101.913 E9.73897
G1 X110.229 Y102.461 E9.77563
G1 X110.089 Y102.984 E9.81109
G1 X109.916 Y103.516 E9.84774
G1 X109.722 Y104.022 E9.88321
G1 X109.494 Y104.534 E9.91986
G1 X109.248 Y105.016 E9.95532
G1 X108.968 Y105.501 E9.99198
G1 X108.673 Y105.955 E10.02744
G1 X108.344 Y106.408 E10.06410
G1 X108.003 Y106.829 E10.09956
G1 X107.629 Y107.246 E10.13622
G1 X107.246 Y107.629 E10.17168
G1 X106.829 Y108.003 E10.20834
G1 X106.408 Y108.344 E10.24380
G1 X105.955 Y108.673 E10.28045
G1 X105.501 Y108.968 E10.31591
G1 X105.016 Y109.248 E10.35257
G1 X104.534 Y109.494 E10.38803
G1 X104.022 Y109.722 E10.42469
G1 X103.516 Y109.916 E10.46015
G1 X102.984 Y110.089 E10.49681
G1 X102.461 Y110.229 E10.53227
G1 X101.913 Y110.346 E10.56893
G1 X101.378 Y110.430 E10.60439
G1 X100.821 Y110.489 E10.64105
G1 X100.280 Y110.517 E10.67651
G1 X99.720 Y110.517 E10.71316
G1 X99.179 Y110.489 E10.74863
G1 X98.622 Y110.430 E10.78528
G1 X98.087 Y110.346 E10.82074
G1 X97.540 Y110.229 E10.85740
G1 X97.016 Y110.089 E10.89286
G1 X96.484 Y109.916 E10.92952
G1 X95.978 Y109.722 E10.96498
G1 X95.466 Y109.494 E11.00164
G1 X94.984 Y109.248 E11.03710
G1 X94.499 Y108.968 E11.07376
G1 X94.045 Y108.673 E11.10922
G1 X93.592 Y108.344 E11.14588
G1 X93.171 Y108.003 E11.18134
G1 X92.754 Y107.629 E11.21799
G1 X92.371 Y107.246 E11.25345
G1 X91.980 Y106.809 E11.29187
G1 X91.656 Y106.408 E11.32557
G1 X91.327 Y105.955 E11.36223
G1 X91.032 Y105.501 E11.39769
G1 X90.752 Y105.016 E11.43435
G1 X90.506 Y104.533 E11.46982
G1 X90.278 Y104.022 E11.50646
G1 X90.084 Y103.516 E11.54193
G1 X89.911 Y102.984 E11.57858
G1 X89.771 Y102.460 E11.61406
G1 X89.654 Y101.913 E11.65070
G1 X89.570 Y101.378 E11.68617
G1 X89.511 Y100.821 E11.72282
G1 X89.483 Y100.280 E11.75828
G1 X89.483 Y99.720 E11.79493
G1 X89.511 Y99.179 E11.83040
G1 X89.570 Y98.622 E11.86705
G1 X89.654 Y98.087 E11.90252
G1 X89.771 Y97.540 E11.93917
G1 X89.911 Y97.016 E11.97464
G1 X90.084 Y96.484 E12.01129
G1 X90.278 Y95.978 E12.04676
G1 X90.506 Y95.467 E12.08341
G1 X90.752 Y94.984 E12.11888
G1 X91.032 Y94.499 E12.15553
G1 X91.327 Y94.045 E12.19099
G1 X91.656 Y93.592 E12.22765
G1 X91.997 Y93.171 E12.26312
G1 X92.371 Y92.754 E12.29977
G1 X92.712 Y92.414 E12.33130
G1 X93.073 Y92.690 F3900.000
G1 F900
G1 X93.474 Y92.330 E12.36662
G1 X93.875 Y92.005 E12.40034
G1 X94.290 Y91.704 E12.43391
G1 X94.744 Y91.409 E12.46937
G1 X95.188 Y91.153 E12.50294
G1 X95.671 Y90.907 E12.53841
G1 X96.139 Y90.698 E12.57198
G1 X96.645 Y90.504 E12.60744
G1 X97.133 Y90.345 E12.64101
G1 X97.656 Y90.205 E12.67648
G1 X98.158 Y90.099 E12.71005
G1 X98.693 Y90.014 E12.74552
G1 X99.203 Y89.960 E12.77909
G1 X99.744 Y89.932 E12.81455
G1 X100.256 Y89.932 E12.84812
G1 X100.797 Y89.960 E12.88358
G1 X101.307 Y90.014 E12.91716
G1 X101.842 Y90.099 E12.95262
G1 X102.344 Y90.205 E12.98618
G1 X102.867 Y90.345 E13.02166
G1 X103.355 Y90.504 E13.05523
G1 X103.861 Y90.698 E13.09069
G1 X104.329 Y90.907 E13.12426
G1 X104.812 Y91.153 E13.15973
G1 X105.256 Y91.409 E13.19330
G1 X105.710 Y91.704 E13.22876
G1 X106.125 Y92.005 E13.26234
G1 X106.546 Y92.346 E13.29780
G1 X106.927 Y92.690 E13.33137
G1 X107.310 Y93.073 E13.36683
G1 X107.654 Y93.454 E13.40041
G1 X107.995 Y93.875 E13.43587
G1 X108.296 Y94.290 E13.46944
G1 X108.591 Y94.744 E13.50491
G1 X108.847 Y95.188 E13.53848
G1 X109.093 Y95.671 E13.57394
G1 X109.302 Y96.139 E13.60752
G1 X109.496 Y96.645 E13.64298
G1 X109.655 Y97.133 E13.67655
G1 X109.795 Y97.656 E13.71202
G1 X109.901 Y98.158 E13.74559
G1 X109.986 Y98.693 E13.78105
G1 X110.040 Y99.203 E13.81462
G1 X110.068 Y99.744 E13.85009
G1 X110.068 Y100.256 E13.88366
G1 X110.040 Y100.797 E13.91912
G1 X109.986 Y101.307 E13.95269
G1 X109.901 Y101.842 E13.98815
G1 X109.795 Y102.344 E14.02173
G1 X109.655 Y102.867 E14.05719
G1 X109.496 Y103.355 E14.09077
G1 X109.302 Y103.861 E14.12623
G1 X109.093 Y104.329 E14.15980
G1 X108.847 Y104.812 E14.19526
G1 X108.591 Y105.256 E14.22884
G1 X108.296 Y105.710 E14.26430
G1 X107.995 Y106.125 E14.29787
G1 X107.654 Y106.546 E14.33333
G1 X107.310 Y106.927 E14.36691
G1 X106.927 Y107.310 E14.40237
G1 X106.546 Y107.654 E14.43594
G1 X106.125 Y107.995 E14.47140
G1 X105.710 Y108.296 E14.50498
G1 X105.256 Y108.591 E14.54044
G1 X104.812 Y108.847 E14.57402
G1 X104.329 Y109.093 E14.60948
G1 X103.861 Y109.302 E14.64305
G1 X103.355 Y109.496 E14.67851
G1 X102.867 Y109.655 E14.71209
G1 X102.344 Y109.795 E14.74755
G1 X101.842 Y109.901 E14.78112
G1 X101.307 Y109.986 E14.81658
G1 X100.797 Y110.040 E14.85016
G1 X100.256 Y110.068 E14.88562
G1 X99.744 Y110.068 E14.91919
G1 X99.203 Y110.040 E14.95465
G1 X98.693 Y109.986 E14.98823
G1 X98.158 Y109.901 E15.02369
G1 X97.656 Y109.795 E15.05726
G1 X97.133 Y109.655 E15.09273
G1 X96.645 Y109.496 E15.12630
G1 X96.139 Y109.302 E15.16176
G1 X95.671 Y109.093 E15.19534
G1 X95.188 Y108.847 E15.23080
G1 X94.744 Y108.591 E15.26437
G1 X94.290 Y108.296 E15.29983
G1 X93.875 Y107.995 E15.33341
G1 X93.454 Y107.654 E15.36887
G1 X93.073 Y107.310 E15.40244
G1 X92.690 Y106.927 E15.43790
G1 X92.330 Y106.526 E15.47323
G1 X92.005 Y106.125 E15.50694
G1 X91.704 Y105.710 E15.54051
G1 X91.409 Y105.256 E15.57597
G1 X91.153 Y104.812 E15.60955
G1 X90.907 Y104.329 E15.64501
G1 X90.698 Y103.861 E15.67858
G1 X90.504 Y103.355 E15.71404
G1 X90.345 Y102.867 E15.74762
G1 X90.205 Y102.344 E15.78309
G1 X90.099 Y101.842 E15.81665
G1 X90.014 Y101.307 E15.85212
G1 X89.960 Y100.797 E15.88569
G1 X89.932 Y100.256 E15.92115
G1 X89.932 Y99.744 E15.95472
G1 X89.960 Y99.203 E15.99019
G1 X90.014 Y98.693 E16.02376
G1 X90.099 Y98.158 E16.05922
G1 X90.205 Y97.656 E16.09279
G1 X90.345 Y97.133 E16.12826
G1 X90.504 Y96.645 E16.16183
G1 X90.698 Y96.139 E16.19730
G1 X90.907 Y95.671 E16.23086
G1 X91.153 Y95.188 E16.26633
G1 X91.409 Y94.744 E16.29990
G1 X91.704 Y94.290 E16.33536
G1 X92.005 Y93.875 E16.36894
G1 X92.346 Y93.454 E16.40441
G1 X92.690 Y93.073 E16.43798
G1 X93.030 Y92.732 E16.46951
G1 X93.391 Y93.008 F3900.000
G1 F900
G1 X93.737 Y92.696 E16.49999
G1 X94.158 Y92.355 E16.53546
G1 X94.535 Y92.081 E16.56595
G1 X94.989 Y91.786 E16.60141
G1 X95.392 Y91.553 E16.63191
G1 X95.875 Y91.307 E16.66737
G1 X96.704 Y90.963 E16.72611
G1 X97.249 Y90.780 E16.76378
G1 X97.772 Y90.640 E16.79925
G1 X98.228 Y90.543 E16.82974
G1 X98.763 Y90.458 E16.86520
G1 X99.226 Y90.410 E16.89569
G1 X99.767 Y90.381 E16.93116
G1 X100.233 Y90.381 E16.96164
G1 X100.774 Y90.410 E16.99710
G1 X101.237 Y90.458 E17.02759
G1 X101.772 Y90.543 E17.06306
G1 X102.228 Y90.640 E17.09354
G1 X102.751 Y90.780 E17.12901
G1 X103.194 Y90.924 E17.15950
G1 X103.700 Y91.118 E17.19496
G1 X104.125 Y91.307 E17.22545
G1 X104.608 Y91.553 E17.26091
G1 X105.011 Y91.786 E17.29141
G1 X105.465 Y92.081 E17.32687
G1 X105.842 Y92.355 E17.35736
G1 X106.263 Y92.696 E17.39283
G1 X106.609 Y93.008 E17.42331
G1 X106.992 Y93.391 E17.45877
G1 X107.304 Y93.737 E17.48927
G1 X107.645 Y94.158 E17.52473
G1 X107.919 Y94.535 E17.55522
G1 X108.214 Y94.989 E17.59068
G1 X108.447 Y95.392 E17.62117
G1 X108.692 Y95.875 E17.65663
G1 X108.882 Y96.300 E17.68712
G1 X109.076 Y96.806 E17.72258
G1 X109.220 Y97.249 E17.75308
G1 X109.360 Y97.772 E17.78854
G1 X109.457 Y98.228 E17.81903
G1 X109.542 Y98.763 E17.85449
G1 X109.590 Y99.226 E17.88498
G1 X109.619 Y99.767 E17.92045
G1 X109.619 Y100.233 E17.95094
G1 X109.590 Y100.774 E17.98640
G1 X109.542 Y101.237 E18.01689
G1 X109.457 Y101.772 E18.05235
G1 X109.360 Y102.228 E18.08284
G1 X109.220 Y102.751 E18.11830
G1 X109.076 Y103.194 E18.14879
G1 X108.882 Y103.700 E18.18426
G1 X108.692 Y104.125 E18.21475
G1 X108.447 Y104.608 E18.25021
G1 X108.214 Y105.011 E18.28070
G1 X107.919 Y105.465 E18.31616
G1 X107.645 Y105.842 E18.34665
G1 X107.304 Y106.263 E18.38211
G1 X106.992 Y106.609 E18.41261
G1 X106.609 Y106.992 E18.44807
G1 X106.263 Y107.304 E18.47856
G1 X105.842 Y107.645 E18.51402
G1 X105.465 Y107.919 E18.54451
G1 X105.011 Y108.214 E18.57997
G1 X104.608 Y108.447 E18.61046
G1 X104.125 Y108.692 E18.64593
G1 X103.700 Y108.882 E18.67642
G1 X103.194 Y109.076 E18.71188
G1 X102.751 Y109.220 E18.74237
G1 X102.228 Y109.360 E18.77783
G1 X101.772 Y109.457 E18.80832
G1 X101.237 Y109.542 E18.84378
G1 X100.774 Y109.590 E18.87427
G1 X100.233 Y109.619 E18.90974
G1 X99.767 Y109.619 E18.94022
G1 X99.226 Y109.590 E18.97569
G1 X98.763 Y109.542 E19.00618
G1 X98.228 Y109.457 E19.04164
G1 X97.772 Y109.360 E19.07213
G1 X97.249 Y109.220 E19.10760
G1 X96.806 Y109.076 E19.13809
G1 X96.300 Y108.882 E19.17355
G1 X95.875 Y108.692 E19.20404
G1 X95.392 Y108.447 E19.23950
G1 X94.989 Y108.214 E19.26999
G1 X94.535 Y107.919 E19.30546
G1 X94.158 Y107.645 E19.33595
G1 X93.737 Y107.304 E19.37141
G1 X93.391 Y106.992 E19.40190
G1 X93.008 Y106.609 E19.43736
G1 X92.679 Y106.242 E19.46960
G1 X92.355 Y105.842 E19.50331
G1 X92.081 Y105.465 E19.53380
G1 X91.786 Y105.011 E19.56926
G1 X91.553 Y104.608 E19.59975
G1 X91.307 Y104.125 E19.63522
G1 X91.118 Y103.700 E19.66571
G1 X90.924 Y103.194 E19.70117
G1 X90.780 Y102.751 E19.73166
G1 X90.640 Y102.228 E19.76713
G1 X90.543 Y101.772 E19.79761
G1 X90.458 Y101.237 E19.83308
G1 X90.410 Y100.774 E19.86356
G1 X90.381 Y100.233 E19.89903
G1 X90.381 Y99.767 E19.92951
G1 X90.410 Y99.226 E19.96498
G1 X90.458 Y98.763 E19.99547
G1 X90.543 Y98.228 E20.03093
G1 X90.640 Y97.772 E20.06142
G1 X90.780 Y97.249 E20.09689
G1 X90.924 Y96.806 E20.12738
G1 X91.118 Y96.300 E20.16284
G1 X91.307 Y95.875 E20.19332
G1 X91.553 Y95.392 E20.22879
G1 X91.786 Y94.989 E20.25928
G1 X92.081 Y94.535 E20.29474
G1 X92.355 Y94.158 E20.32524
G1 X92.696 Y93.737 E20.36070
G1 X93.348 Y93.050 E20.42270
G1 E16.92270 F3000.00000
G92 E0
G1 X102.981 Y102.684 F3900.000
G1 E3.50000 F3000.00000
G1 F900
G1 X102.684 Y102.981 E3.52749
G1 X102.358 Y103.245 E3.55497
G1 X102.006 Y103.474 E3.58246
G1 X101.631 Y103.664 E3.60994
G1 X101.240 Y103.815 E3.63743
G1 X100.834 Y103.923 E3.66491
G1 X100.419 Y103.989 E3.69240
G1 X100.000 Y104.011 E3.71988
G1 X99.581 Y103.989 E3.74737
G1 X99.166 Y103.923 E3.77486
G1 X98.760 Y103.815 E3.80234
G1 X98.369 Y103.664 E3.82983
G1 X97.994 Y103.474 E3.85731
G1 X97.642 Y103.245 E3.88480
G1 X97.316 Y102.981 E3.91228
G1 X97.019 Y102.684 E3.93977
G1 X96.755 Y102.358 E3.96725
G1 X96.526 Y102.006 E3.99474
G1 X96.336 Y101.631 E4.02223
G1 X96.185 Y101.240 E4.04971
G1 X96.077 Y100.834 E4.07720
G1 X96.011 Y100.419 E4.10468
G1 X95.989 Y100.000 E4.13217
G1 X96.011 Y99.581 E4.15965
G1 X96.077 Y99.166 E4.18714
G1 X96.185 Y98.760 E4.21462
G1 X96.336 Y98.369 E4.24211
G1 X96.526 Y97.994 E4.26960
