; generated by Slic3r 1.3.0 on 2021-07-31 at 18:20:44

; external perimeters extrusion width = 0.44mm (0.85mm^3/s)
; perimeters extrusion width = 0.48mm (3.77mm^3/s)
; infill extrusion width = 0.48mm (4.40mm^3/s)
; solid infill extrusion width = 0.48mm (1.26mm^3/s)
; top infill extrusion width = 0.48mm (0.88mm^3/s)

M190 S65 ; set bed temperature and wait for it to be reached
M104 S205 ; set temperature
; M106 P0 S255 ; turn hot-end fan on
G28 ; home all axes
G1 Z5 F5000 ; lift nozzle


; Filament gcode

M109 S205 ; set temperature and wait for it to be reached
G21 ; set units to millimeters
G90 ; use absolute coordinates
M82 ; use absolute distances for extrusion
G92 E0
G1 Z-0.150 F3900.000
G1 E-3.50000 F3000.00000
G92 E0
G1 X92.436 Y92.053 F3900.000
G1 E3.50000 F3000.00000
G1 F900
G1 X92.887 Y91.647 E3.53973
G1 X93.308 Y91.306 E3.57520
G1 X93.822 Y90.935 E3.61669
G1 X94.254 Y90.654 E3.65040
G1 X94.780 Y90.351 E3.69014
G1 X95.262 Y90.105 E3.72561
G1 X95.817 Y89.858 E3.76534
G1 X96.322 Y89.664 E3.80080
G1 X96.900 Y89.476 E3.84054
G1 X97.423 Y89.336 E3.87601
G1 X98.017 Y89.210 E3.91574
G1 X98.552 Y89.125 E3.95121
G1 X99.156 Y89.062 E3.99094
G1 X99.697 Y89.033 E4.02641
G1 X100.304 Y89.033 E4.06615
G1 X100.844 Y89.062 E4.10161
G1 X101.448 Y89.125 E4.14134
G1 X101.983 Y89.210 E4.17681
G1 X102.577 Y89.336 E4.21654
G1 X103.100 Y89.476 E4.25201
G1 X103.678 Y89.664 E4.29175
G1 X104.183 Y89.858 E4.32721
G1 X104.738 Y90.105 E4.36694
G1 X105.220 Y90.351 E4.40241
G1 X105.746 Y90.654 E4.44215
G1 X106.200 Y90.949 E4.47762
G1 X106.692 Y91.306 E4.51735
G1 X107.113 Y91.647 E4.55282
G1 X107.564 Y92.053 E4.59256
G1 X107.947 Y92.436 E4.62802
G1 X108.353 Y92.887 E4.66776
G1 X108.694 Y93.308 E4.70322
G1 X109.051 Y93.800 E4.74296
G1 X109.346 Y94.254 E4.77842
G1 X109.649 Y94.780 E4.81816
G1 X109.895 Y95.262 E4.85362
G1 X110.142 Y95.817 E4.89336
G1 X110.336 Y96.322 E4.92882
G1 X110.552 Y97.006 E4.97575
G1 X110.664 Y97.423 E5.00402
G1 X110.790 Y98.017 E5.04375
G1 X110.875 Y98.552 E5.07922
G1 X110.938 Y99.156 E5.11896
G1 X110.967 Y99.697 E5.15442
G1 X110.967 Y100.304 E5.19416
G1 X110.938 Y100.844 E5.22962
G1 X110.875 Y101.448 E5.26936
G1 X110.790 Y101.983 E5.30482
G1 X110.664 Y102.577 E5.34456
G1 X110.524 Y103.100 E5.38002
G1 X110.336 Y103.678 E5.41976
G1 X110.142 Y104.183 E5.45522
G1 X109.895 Y104.738 E5.49496
G1 X109.649 Y105.220 E5.53042
G1 X109.346 Y105.746 E5.57016
G1 X109.051 Y106.200 E5.60563
G1 X108.694 Y106.692 E5.64536
G1 X108.353 Y107.113 E5.68082
G1 X107.947 Y107.564 E5.72057
G1 X107.564 Y107.947 E5.75603
G1 X107.113 Y108.353 E5.79577
G1 X106.692 Y108.694 E5.83123
G1 X106.200 Y109.051 E5.87097
G1 X105.746 Y109.346 E5.90643
G1 X105.220 Y109.649 E5.94617
G1 X104.738 Y109.895 E5.98163
G1 X104.183 Y110.142 E6.02137
G1 X103.678 Y110.336 E6.05683
G1 X103.100 Y110.524 E6.09657
G1 X102.577 Y110.664 E6.13203
G1 X101.983 Y110.790 E6.17177
G1 X101.448 Y110.875 E6.20723
G1 X100.844 Y110.938 E6.24697
G1 X100.304 Y110.967 E6.28244
G1 X99.697 Y110.967 E6.32217
G1 X99.156 Y110.938 E6.35764
G1 X98.552 Y110.875 E6.39738
G1 X98.017 Y110.790 E6.43284
G1 X97.423 Y110.664 E6.47257
G1 X96.900 Y110.524 E6.50804
G1 X96.322 Y110.336 E6.54778
G1 X95.817 Y110.142 E6.58324
G1 X95.262 Y109.895 E6.62298
G1 X94.780 Y109.649 E6.65844
G1 X94.254 Y109.346 E6.69818
G1 X93.800 Y109.051 E6.73365
G1 X93.308 Y108.694 E6.77338
G1 X92.887 Y108.353 E6.80884
G1 X92.436 Y107.947 E6.84858
G1 X92.053 Y107.564 E6.88404
G1 X91.647 Y107.113 E6.92378
G1 X91.306 Y106.692 E6.95925
G1 X90.949 Y106.200 E6.99898
G1 X90.714 Y105.838 E7.02725
G1 X90.351 Y105.220 E7.07418
G1 X90.105 Y104.738 E7.10964
G1 X89.858 Y104.183 E7.14938
G1 X89.664 Y103.678 E7.18484
G1 X89.476 Y103.100 E7.22458
G1 X89.336 Y102.577 E7.26006
G1 X89.210 Y101.983 E7.29978
G1 X89.125 Y101.448 E7.33525
G1 X89.062 Y100.845 E7.37498
G1 X89.033 Y100.304 E7.41045
G1 X89.033 Y99.697 E7.45018
G1 X89.062 Y99.156 E7.48565
G1 X89.125 Y98.552 E7.52538
G1 X89.210 Y98.017 E7.56085
G1 X89.336 Y97.423 E7.60058
G1 X89.476 Y96.900 E7.63605
G1 X89.664 Y96.322 E7.67579
G1 X89.858 Y95.817 E7.71125
G1 X90.105 Y95.262 E7.75098
G1 X90.351 Y94.780 E7.78645
G1 X90.654 Y94.254 E7.82619
G1 X90.949 Y93.800 E7.86165
G1 X91.306 Y93.308 E7.90139
G1 X91.647 Y92.887 E7.93686
G1 X92.053 Y92.436 E7.97659
G1 X92.394 Y92.096 E8.00813
G1 X92.754 Y92.371 F3900.000
G1 F900
G1 X93.171 Y91.997 E8.04478
G1 X93.592 Y91.656 E8.08025
G1 X94.045 Y91.327 E8.11690
G1 X94.499 Y91.032 E8.15236
G1 X94.984 Y90.752 E8.18902
G1 X95.467 Y90.506 E8.22449
G1 X95.978 Y90.278 E8.26114
G1 X96.484 Y90.084 E8.29660
G1 X97.016 Y89.911 E8.33325
G1 X97.540 Y89.771 E8.36873
G1 X98.087 Y89.654 E8.40538
G1 X98.622 Y89.570 E8.44084
G1 X99.179 Y89.511 E8.47749
G1 X99.720 Y89.483 E8.51296
G1 X100.280 Y89.483 E8.54961
G1 X100.821 Y89.511 E8.58508
G1 X101.378 Y89.570 E8.62173
G1 X101.913 Y89.654 E8.65719
G1 X102.460 Y89.771 E8.69384
G1 X102.984 Y89.911 E8.72931
G1 X103.516 Y90.084 E8.76597
G1 X104.022 Y90.278 E8.80143
G1 X104.533 Y90.506 E8.83808
G1 X105.016 Y90.752 E8.87355
G1 X105.501 Y91.032 E8.91020
G1 X105.955 Y91.327 E8.94567
G1 X106.408 Y91.656 E8.98232
G1 X106.829 Y91.997 E9.01779
G1 X107.246 Y92.371 E9.05444
G1 X107.629 Y92.754 E9.08990
G1 X108.003 Y93.171 E9.12656
G1 X108.344 Y93.592 E9.16202
G1 X108.673 Y94.045 E9.19868
G1 X108.968 Y94.499 E9.23414
G1 X109.248 Y94.984 E9.27080
G1 X109.494 Y95.466 E9.30626
G1 X109.722 Y95.978 E9.34292
G1 X109.916 Y96.484 E9.37838
G1 X110.089 Y97.016 E9.41503
G1 X110.229 Y97.540 E9.45050
G1 X110.346 Y98.087 E9.48715
G1 X110.430 Y98.622 E9.52261
G1 X110.489 Y99.179 E9.55927
G1 X110.517 Y99.720 E9.59474
G1 X110.517 Y100.280 E9.63139
G1 X110.489 Y100.821 E9.66685
G1 X110.430 Y101.378 E9.70351
G1 X110.346 Y101.913 E9.73897
G1 X110.229 Y102.461 E9.77563
G1 X110.089 Y102.984 E9.81109
G1 X109.916 Y103.516 E9.84775
G1 X109.722 Y104.022 E9.88321
G1 X109.494 Y104.534 E9.91986
G1 X109.248 Y105.016 E9.95532
G1 X108.968 Y105.501 E9.99198
G1 X108.673 Y105.955 E10.02745
G1 X108.344 Y106.408 E10.06410
G1 X108.003 Y106.829 E10.09956
G1 X107.629 Y107.246 E10.13622
G1 X107.246 Y107.629 E10.17168
G1 X106.829 Y108.003 E10.20834
G1 X106.408 Y108.344 E10.24380
G1 X105.955 Y108.673 E10.28045
G1 X105.593 Y108.908 E10.30872
G1 X105.016 Y109.248 E10.35257
G1 X104.534 Y109.494 E10.38803
G1 X104.022 Y109.722 E10.42468
G1 X103.516 Y109.916 E10.46015
G1 X102.984 Y110.089 E10.49680
G1 X102.461 Y110.229 E10.53226
G1 X101.913 Y110.346 E10.56892
G1 X101.378 Y110.430 E10.60438
G1 X100.821 Y110.489 E10.64104
G1 X100.280 Y110.517 E10.67650
G1 X99.720 Y110.517 E10.71315
G1 X99.179 Y110.489 E10.74862
G1 X98.622 Y110.430 E10.78528
G1 X98.087 Y110.346 E10.82074
G1 X97.540 Y110.229 E10.85739
G1 X97.016 Y110.089 E10.89286
G1 X96.484 Y109.916 E10.92951
G1 X95.978 Y109.722 E10.96498
G1 X95.466 Y109.494 E11.00163
G1 X94.984 Y109.248 E11.03709
G1 X94.499 Y108.968 E11.07375
G1 X94.045 Y108.673 E11.10921
G1 X93.592 Y108.344 E11.14587
G1 X93.171 Y108.003 E11.18133
G1 X92.754 Y107.629 E11.21799
G1 X92.371 Y107.246 E11.25345
G1 X91.980 Y106.809 E11.29185
G1 X91.656 Y106.408 E11.32557
G1 X91.327 Y105.955 E11.36222
G1 X91.032 Y105.501 E11.39768
G1 X90.752 Y105.016 E11.43434
G1 X90.506 Y104.534 E11.46980
G1 X90.278 Y104.022 E11.50646
G1 X90.084 Y103.516 E11.54192
G1 X89.911 Y102.984 E11.57858
G1 X89.771 Y102.460 E11.61405
G1 X89.654 Y101.913 E11.65070
G1 X89.570 Y101.378 E11.68616
G1 X89.511 Y100.821 E11.72281
G1 X89.483 Y100.280 E11.75828
G1 X89.483 Y99.720 E11.79493
G1 X89.511 Y99.179 E11.83039
G1 X89.570 Y98.622 E11.86705
G1 X89.654 Y98.087 E11.90251
G1 X89.771 Y97.540 E11.93916
G1 X89.911 Y97.016 E11.97463
G1 X90.084 Y96.484 E12.01129
G1 X90.278 Y95.978 E12.04675
G1 X90.506 Y95.467 E12.08340
G1 X90.752 Y94.984 E12.11887
G1 X91.032 Y94.499 E12.15553
G1 X91.327 Y94.045 E12.19099
G1 X91.656 Y93.592 E12.22764
G1 X91.997 Y93.171 E12.26311
G1 X92.371 Y92.754 E12.29976
G1 X92.712 Y92.414 E12.33130
G1 X93.073 Y92.690 F3900.000
G1 F900
G1 X93.454 Y92.346 E12.36486
G1 X93.875 Y92.005 E12.40033
G1 X94.290 Y91.704 E12.43390
G1 X94.744 Y91.409 E12.46937
G1 X95.188 Y91.153 E12.50294
G1 X95.671 Y90.907 E12.53841
G1 X96.139 Y90.698 E12.57198
G1 X96.645 Y90.504 E12.60744
G1 X97.133 Y90.345 E12.64101
G1 X97.656 Y90.205 E12.67648
G1 X98.158 Y90.099 E12.71005
G1 X98.693 Y90.014 E12.74551
G1 X99.203 Y89.960 E12.77908
G1 X99.744 Y89.932 E12.81455
G1 X100.256 Y89.932 E12.84812
G1 X100.797 Y89.960 E12.88358
G1 X101.307 Y90.014 E12.91715
G1 X101.842 Y90.099 E12.95262
G1 X102.344 Y90.205 E12.98618
G1 X102.867 Y90.345 E13.02165
G1 X103.355 Y90.504 E13.05523
G1 X103.861 Y90.698 E13.09069
G1 X104.329 Y90.907 E13.12426
G1 X104.812 Y91.153 E13.15972
G1 X105.256 Y91.409 E13.19330
G1 X105.710 Y91.704 E13.22876
G1 X106.125 Y92.005 E13.26233
G1 X106.546 Y92.346 E13.29780
G1 X106.927 Y92.690 E13.33137
G1 X107.310 Y93.073 E13.36683
G1 X107.654 Y93.454 E13.40041
G1 X107.995 Y93.875 E13.43587
G1 X108.296 Y94.290 E13.46944
G1 X108.591 Y94.744 E13.50490
G1 X108.847 Y95.188 E13.53848
G1 X109.093 Y95.671 E13.57394
G1 X109.302 Y96.139 E13.60751
G1 X109.496 Y96.645 E13.64297
G1 X109.655 Y97.133 E13.67655
G1 X109.795 Y97.656 E13.71201
G1 X109.901 Y98.158 E13.74558
G1 X109.986 Y98.693 E13.78104
G1 X110.040 Y99.203 E13.81462
G1 X110.068 Y99.744 E13.85009
G1 X110.068 Y100.256 E13.88365
G1 X110.040 Y100.797 E13.91912
G1 X109.986 Y101.307 E13.95269
G1 X109.901 Y101.842 E13.98815
G1 X109.795 Y102.344 E14.02173
G1 X109.655 Y102.867 E14.05719
G1 X109.496 Y103.355 E14.09076
G1 X109.302 Y103.861 E14.12622
G1 X109.093 Y104.329 E14.15980
G1 X108.847 Y104.812 E14.19526
G1 X108.591 Y105.256 E14.22883
G1 X108.296 Y105.710 E14.26430
G1 X107.995 Y106.125 E14.29787
G1 X107.654 Y106.546 E14.33333
G1 X107.310 Y106.927 E14.36690
G1 X106.927 Y107.310 E14.40236
G1 X106.546 Y107.654 E14.43594
G1 X106.125 Y107.995 E14.47140
G1 X105.348 Y108.531 E14.53322
G1 X104.812 Y108.847 E14.57398
G1 X104.329 Y109.093 E14.60944
G1 X103.861 Y109.302 E14.64302
G1 X103.355 Y109.496 E14.67848
G1 X102.867 Y109.655 E14.71205
G1 X102.344 Y109.795 E14.74751
G1 X101.842 Y109.901 E14.78109
G1 X101.307 Y109.986 E14.81655
G1 X100.797 Y110.040 E14.85012
G1 X100.256 Y110.068 E14.88559
G1 X99.744 Y110.068 E14.91915
G1 X99.203 Y110.040 E14.95462
G1 X98.693 Y109.986 E14.98820
G1 X98.158 Y109.901 E15.02366
G1 X97.656 Y109.795 E15.05723
G1 X97.133 Y109.655 E15.09269
G1 X96.645 Y109.496 E15.12627
G1 X96.139 Y109.302 E15.16173
G1 X95.671 Y109.093 E15.19530
G1 X95.188 Y108.847 E15.23076
G1 X94.744 Y108.591 E15.26434
G1 X94.290 Y108.296 E15.29980
G1 X93.875 Y107.995 E15.33337
G1 X93.454 Y107.654 E15.36883
G1 X93.073 Y107.310 E15.40241
G1 X92.690 Y106.927 E15.43787
G1 X92.346 Y106.546 E15.47144
G1 X92.005 Y106.125 E15.50691
G1 X91.689 Y105.688 E15.54223
G1 X91.409 Y105.256 E15.57594
G1 X91.153 Y104.812 E15.60951
G1 X90.907 Y104.329 E15.64498
G1 X90.698 Y103.861 E15.67855
G1 X90.504 Y103.355 E15.71401
G1 X90.345 Y102.867 E15.74759
G1 X90.205 Y102.344 E15.78306
G1 X90.099 Y101.842 E15.81662
G1 X90.014 Y101.307 E15.85208
G1 X89.960 Y100.797 E15.88565
G1 X89.932 Y100.256 E15.92112
G1 X89.932 Y99.744 E15.95469
G1 X89.960 Y99.203 E15.99015
G1 X90.014 Y98.693 E16.02373
G1 X90.099 Y98.158 E16.05919
G1 X90.205 Y97.656 E16.09276
G1 X90.345 Y97.133 E16.12823
G1 X90.504 Y96.645 E16.16180
G1 X90.698 Y96.139 E16.19726
G1 X90.907 Y95.671 E16.23083
G1 X91.153 Y95.188 E16.26630
G1 X91.409 Y94.744 E16.29987
G1 X91.704 Y94.290 E16.33533
G1 X92.005 Y93.875 E16.36891
G1 X92.346 Y93.454 E16.40437
G1 X92.690 Y93.073 E16.43794
G1 X93.030 Y92.732 E16.46948
G1 X93.391 Y93.008 F3900.000
G1 F900
G1 X93.737 Y92.696 E16.49996
G1 X94.158 Y92.355 E16.53543
G1 X94.535 Y92.081 E16.56592
G1 X94.989 Y91.786 E16.60138
G1 X95.392 Y91.553 E16.63187
G1 X95.875 Y91.307 E16.66734
G1 X96.704 Y90.963 E16.72607
G1 X97.249 Y90.780 E16.76375
G1 X97.772 Y90.640 E16.79922
G1 X98.228 Y90.543 E16.82970
G1 X98.763 Y90.458 E16.86517
G1 X99.226 Y90.410 E16.89566
G1 X99.767 Y90.381 E16.93112
G1 X100.233 Y90.381 E16.96161
G1 X100.774 Y90.410 E16.99707
G1 X101.237 Y90.458 E17.02756
G1 X101.772 Y90.543 E17.06302
G1 X102.228 Y90.640 E17.09351
G1 X102.751 Y90.780 E17.12898
G1 X103.194 Y90.924 E17.15947
G1 X103.700 Y91.118 E17.19493
G1 X104.125 Y91.307 E17.22541
G1 X104.608 Y91.553 E17.26088
G1 X105.011 Y91.786 E17.29137
G1 X105.465 Y92.081 E17.32684
G1 X105.842 Y92.355 E17.35733
G1 X106.263 Y92.696 E17.39279
G1 X106.609 Y93.008 E17.42328
G1 X106.992 Y93.391 E17.45874
G1 X107.304 Y93.737 E17.48923
G1 X107.645 Y94.158 E17.52469
G1 X107.919 Y94.535 E17.55518
G1 X108.214 Y94.989 E17.59065
G1 X108.447 Y95.392 E17.62114
G1 X108.692 Y95.875 E17.65660
G1 X108.882 Y96.300 E17.68709
G1 X109.076 Y96.806 E17.72255
G1 X109.220 Y97.249 E17.75304
G1 X109.360 Y97.772 E17.78851
G1 X109.457 Y98.228 E17.81900
G1 X109.542 Y98.763 E17.85446
G1 X109.590 Y99.226 E17.88495
G1 X109.619 Y99.767 E17.92042
G1 X109.619 Y100.233 E17.95090
G1 X109.590 Y100.774 E17.98636
G1 X109.542 Y101.237 E18.01685
G1 X109.457 Y101.772 E18.05232
G1 X109.360 Y102.228 E18.08281
G1 X109.220 Y102.751 E18.11827
G1 X109.076 Y103.194 E18.14876
G1 X108.882 Y103.700 E18.18422
G1 X108.692 Y104.125 E18.21471
G1 X108.447 Y104.608 E18.25017
G1 X108.214 Y105.011 E18.28067
G1 X107.919 Y105.465 E18.31613
G1 X107.645 Y105.842 E18.34662
G1 X107.304 Y106.263 E18.38208
G1 X106.992 Y106.609 E18.41257
G1 X106.609 Y106.992 E18.44803
G1 X106.263 Y107.304 E18.47853
G1 X105.842 Y107.645 E18.51399
G1 X105.103 Y108.154 E18.57272
G1 X104.608 Y108.447 E18.61040
G1 X104.125 Y108.692 E18.64586
G1 X103.700 Y108.882 E18.67636
G1 X103.194 Y109.076 E18.71182
G1 X102.751 Y109.220 E18.74231
G1 X102.228 Y109.360 E18.77777
G1 X101.772 Y109.457 E18.80826
G1 X101.237 Y109.542 E18.84372
G1 X100.774 Y109.590 E18.87421
G1 X100.233 Y109.619 E18.90968
G1 X99.767 Y109.619 E18.94016
G1 X99.226 Y109.590 E18.97563
G1 X98.763 Y109.542 E19.00612
G1 X98.228 Y109.457 E19.04158
G1 X97.772 Y109.360 E19.07207
G1 X97.249 Y109.220 E19.10753
G1 X96.806 Y109.076 E19.13803
G1 X96.300 Y108.882 E19.17349
G1 X95.875 Y108.692 E19.20398
G1 X95.392 Y108.447 E19.23944
G1 X94.989 Y108.214 E19.26993
G1 X94.535 Y107.919 E19.30539
G1 X94.158 Y107.645 E19.33588
G1 X93.737 Y107.304 E19.37134
G1 X93.391 Y106.992 E19.40184
G1 X93.008 Y106.609 E19.43730
G1 X92.696 Y106.263 E19.46778
G1 X92.355 Y105.842 E19.50325
G1 X91.846 Y105.103 E19.56199
G1 X91.553 Y104.608 E19.59967
G1 X91.308 Y104.125 E19.63513
G1 X91.118 Y103.700 E19.66562
G1 X90.924 Y103.194 E19.70108
G1 X90.780 Y102.751 E19.73157
G1 X90.640 Y102.228 E19.76704
G1 X90.543 Y101.772 E19.79753
G1 X90.458 Y101.237 E19.83299
G1 X90.410 Y100.774 E19.86348
G1 X90.381 Y100.233 E19.89894
G1 X90.381 Y99.767 E19.92943
G1 X90.410 Y99.226 E19.96489
G1 X90.458 Y98.763 E19.99538
G1 X90.543 Y98.228 E20.03085
G1 X90.640 Y97.772 E20.06133
G1 X90.780 Y97.249 E20.09680
G1 X90.924 Y96.806 E20.12729
G1 X91.118 Y96.300 E20.16275
G1 X91.307 Y95.875 E20.19324
G1 X91.553 Y95.392 E20.22870
G1 X91.786 Y94.989 E20.25920
G1 X92.081 Y94.535 E20.29466
G1 X92.355 Y94.158 E20.32515
G1 X92.696 Y93.737 E20.36062
G1 X93.348 Y93.050 E20.42261
G1 E16.92261 F3000.00000
G92 E0
G1 X102.981 Y102.684 F3900.000
G1 E3.50000 F3000.00000
G1 F900
G1 X102.684 Y102.981 E3.52749
G1 X102.358 Y103.245 E3.55497
G1 X102.006 Y103.474 E3.58246
G1 X101.631 Y103.664 E3.60994
G1 X101.240 Y103.815 E3.63743
G1 X100.834 Y103.923 E3.66491
G1 X100.419 Y103.989 E3.69240
G1 X100.000 Y104.011 E3.71988
G1 X99.581 Y103.989 E3.74737
G1 X99.166 Y103.923 E3.77486
G1 X98.760 Y103.815 E3.80234
G1 X98.369 Y103.664 E3.82983
G1 X97.994 Y103.474 E3.85731
G1 X97.642 Y103.245 E3.88480
G1 X97.316 Y102.981 E3.91228
G1 X97.019 Y102.684 E3.93977
G1 X96.755 Y102.358 E3.96725
G1 X96.526 Y102.006 E3.99474
G1 X96.336 Y101.631 E4.02223
G1 X96.185 Y101.240 E4.04971
G1 X96.077 Y100.834 E4.07720
G1 X96.011 Y100.419 E4.10468
G1 X95.989 Y100.000 E4.13217
G1 X96.011 Y99.581 E4.15965
G1 X96.077 Y99.166 E4.18714
G1 X96.185 Y98.760 E4.21462
G1 X96.336 Y98.369 E4.24211
G1 X96.526 Y97.994 E4.26960
G1 X96.755 Y97.642 E4.29708
G1 X97.019 Y97.316 E4.32457
G1 X97.316 Y97.019 E4.35205
