; generated by Slic3r 1.3.0 on 2022-05-22 at 19:56:49

; external perimeters extrusion width = 0.44mm (0.85mm^3/s)
; perimeters extrusion width = 0.48mm (3.77mm^3/s)
; infill extrusion width = 0.48mm (4.40mm^3/s)
; solid infill extrusion width = 0.48mm (1.26mm^3/s)
; top infill extrusion width = 0.48mm (0.88mm^3/s)
; support material extrusion width = 0.44mm (3.38mm^3/s)

M190 S65 ; set bed temperature and wait for it to be reached
M104 S205 ; set temperature
; M106 P0 S255 ; turn hot-end fan on
G28 ; home all axes
G1 Z5 F5000 ; lift nozzle


; Filament gcode

M109 S205 ; set temperature and wait for it to be reached
G21 ; set units to millimeters
G90 ; use absolute coordinates
M82 ; use absolute distances for extrusion
G92 E0
G1 Z-0.150 F3900.000
G1 E-3.50000 F3000.00000
G92 E0
G1 X22.641 Y68.176 F3900.000
G1 E3.50000 F3000.00000
G1 F900
G1 X95.641 Y55.176 E8.35412
G1 X96.500 Y55.100 E8.41057
G1 X176.500 Y55.100 E13.64776
G1 X178.430 Y55.496 E13.77670
G1 X180.047 Y56.620 E13.90565
G1 X181.092 Y58.290 E14.03460
G1 X181.400 Y60.000 E14.14835
G1 X181.400 Y140.000 E19.38553
G1 X181.004 Y141.930 E19.51448
G1 X179.880 Y143.547 E19.64343
G1 X178.210 Y144.592 E19.77238
G1 X176.500 Y144.900 E19.88613
G1 X96.500 Y144.900 E25.12331
G1 X95.641 Y144.824 E25.17977
G1 X22.641 Y131.824 E30.03388
G1 X20.811 Y131.096 E30.16283
G1 X19.415 Y129.706 E30.29178
G1 X18.600 Y127.000 E30.47677
G1 X18.600 Y73.000 E34.01187
G1 X18.996 Y71.070 E34.14082
G1 X20.120 Y69.453 E34.26977
G1 X22.587 Y68.203 E34.45083
G1 X22.720 Y68.619 F3900.000
G1 F900
G1 X95.720 Y55.619 E39.30495
G1 X96.500 Y55.550 E39.35622
G1 X176.500 Y55.550 E44.59341
G1 X178.334 Y55.946 E44.71623
G1 X179.842 Y57.062 E44.83905
G1 X180.756 Y58.700 E44.96187
G1 X180.950 Y60.000 E45.04789
G1 X180.950 Y140.000 E50.28508
G1 X180.554 Y141.834 E50.40790
G1 X179.438 Y143.342 E50.53072
G1 X177.800 Y144.256 E50.65354
G1 X176.500 Y144.450 E50.73957
G1 X96.500 Y144.450 E55.97675
G1 X95.720 Y144.381 E56.02802
G1 X22.720 Y131.381 E60.88214
G1 X20.984 Y130.670 E61.00496
G1 X19.695 Y129.307 E61.12778
G1 X19.050 Y127.000 E61.28458
G1 X19.050 Y73.000 E64.81967
G1 X19.446 Y71.166 E64.94250
G1 X20.562 Y69.658 E65.06532
G1 X22.666 Y68.645 E65.21818
G1 E61.71818 F3000.00000
G92 E0
G1 X107.534 Y131.523 F3900.000
G1 E3.50000 F3000.00000
G1 F900
G1 X107.647 Y132.141 E3.54115
G1 X107.665 Y132.527 E3.56642
G1 X107.606 Y133.164 E3.60834
G1 X107.427 Y133.806 E3.65200
G1 X107.133 Y134.405 E3.69566
G1 X106.736 Y134.941 E3.73932
G1 X106.268 Y135.378 E3.78124
G1 X105.953 Y135.601 E3.80655
G1 X105.384 Y135.896 E3.84847
G1 X104.746 Y136.090 E3.89213
G1 X104.083 Y136.166 E3.93579
G1 X103.418 Y136.121 E3.97945
G1 X102.772 Y135.955 E4.02311
G1 X102.165 Y135.675 E4.06688
G1 X101.613 Y135.283 E4.11123
G1 X101.174 Y134.833 E4.15238
G1 X100.944 Y134.523 E4.17765
G1 X100.636 Y133.961 E4.21957
G1 X100.428 Y133.328 E4.26323
G1 X100.336 Y132.665 E4.30700
G1 X100.369 Y131.989 E4.35135
G1 X100.512 Y131.376 E4.39250
G1 X100.649 Y131.016 E4.41777
G1 X100.957 Y130.454 E4.45969
G1 X101.378 Y129.937 E4.50335
G1 X101.885 Y129.504 E4.54701
G1 X102.463 Y129.171 E4.59067
G1 X103.066 Y128.956 E4.63259
G1 X103.444 Y128.878 E4.65786
G1 X104.071 Y128.834 E4.69901
G1 X104.744 Y128.909 E4.74336
G1 X105.384 Y129.104 E4.78713
G1 X105.976 Y129.411 E4.83079
G1 X106.503 Y129.820 E4.87445
G1 X106.947 Y130.318 E4.91811
G1 X107.294 Y130.889 E4.96189
G1 X107.513 Y131.466 E5.00230
G1 X107.099 Y131.644 F3900.000
G1 F900
G1 X107.199 Y132.192 E5.03880
G1 X107.214 Y132.516 E5.06005
G1 X107.162 Y133.082 E5.09727
G1 X107.004 Y133.645 E5.13555
G1 X106.747 Y134.171 E5.17383
G1 X106.399 Y134.641 E5.21211
G1 X105.984 Y135.029 E5.24933
G1 X105.718 Y135.216 E5.27060
G1 X105.214 Y135.478 E5.30782
G1 X104.654 Y135.648 E5.34610
G1 X104.073 Y135.715 E5.38438
G1 X103.490 Y135.675 E5.42266
G1 X102.923 Y135.530 E5.46095
G1 X102.391 Y135.284 E5.49930
G1 X101.906 Y134.940 E5.53825
G1 X101.517 Y134.541 E5.57474
G1 X101.324 Y134.280 E5.59600
G1 X101.051 Y133.781 E5.63321
G1 X100.868 Y133.226 E5.67149
G1 X100.788 Y132.645 E5.70984
G1 X100.817 Y132.051 E5.74880
G1 X100.943 Y131.508 E5.78529
G1 X101.059 Y131.205 E5.80654
G1 X101.332 Y130.706 E5.84376
G1 X101.701 Y130.252 E5.88204
G1 X102.146 Y129.873 E5.92032
G1 X102.652 Y129.581 E5.95860
G1 X103.188 Y129.390 E5.99582
G1 X103.506 Y129.324 E6.01707
G1 X104.062 Y129.286 E6.05357
G1 X104.653 Y129.352 E6.09252
G1 X105.214 Y129.522 E6.13087
G1 X105.733 Y129.791 E6.16915
G1 X106.195 Y130.150 E6.20743
G1 X106.584 Y130.586 E6.24572
G1 X106.888 Y131.087 E6.28407
G1 X107.077 Y131.587 E6.31909
G1 X106.663 Y131.765 F3900.000
G1 F900
G1 X106.751 Y132.243 E6.35092
G1 X106.763 Y132.506 E6.36816
G1 X106.718 Y133.001 E6.40067
G1 X106.582 Y133.485 E6.43358
G1 X106.361 Y133.936 E6.46648
G1 X106.062 Y134.340 E6.49938
G1 X105.699 Y134.679 E6.53189
G1 X105.484 Y134.831 E6.54914
G1 X105.043 Y135.059 E6.58165
G1 X104.562 Y135.206 E6.61456
G1 X104.063 Y135.263 E6.64746
G1 X103.561 Y135.229 E6.68036
G1 X103.075 Y135.104 E6.71327
G1 X102.618 Y134.893 E6.74620
G1 X102.200 Y134.596 E6.77975
G1 X101.860 Y134.248 E6.81159
G1 X101.704 Y134.037 E6.82883
G1 X101.465 Y133.601 E6.86134
G1 X101.308 Y133.124 E6.89424
G1 X101.239 Y132.625 E6.92717
G1 X101.264 Y132.113 E6.96073
G1 X101.374 Y131.640 E6.99256
G1 X101.468 Y131.394 E7.00980
G1 X101.707 Y130.958 E7.04231
G1 X102.024 Y130.568 E7.07521
G1 X102.406 Y130.242 E7.10812
G1 X102.842 Y129.991 E7.14102
G1 X103.309 Y129.825 E7.17353
G1 X103.567 Y129.771 E7.19077
G1 X104.052 Y129.737 E7.22260
G1 X104.562 Y129.794 E7.25616
G1 X105.043 Y129.941 E7.28909
G1 X105.489 Y130.172 E7.32200
G1 X105.886 Y130.480 E7.35490
G1 X106.221 Y130.855 E7.38780
G1 X106.482 Y131.285 E7.42073
G1 X106.642 Y131.708 E7.45036
G1 X106.663 Y131.765 F3900.000
G1 E3.95036 F3000.00000
G92 E0
G1 X110.338 Y126.162 F3900.000
G1 E3.50000 F3000.00000
G1 F900
G1 X110.338 Y73.838 E6.92542
G1 X162.662 Y73.838 E10.35083
G1 X162.662 Y126.162 E13.77625
G1 X110.398 Y126.162 E17.19774
G1 X110.788 Y125.712 F3900.000
G1 F900
G1 X110.788 Y74.288 E20.56425
G1 X162.212 Y74.288 E23.93076
G1 X162.212 Y125.712 E27.29727
G1 X110.848 Y125.712 E30.65986
G1 X111.238 Y125.262 F3900.000
G1 F900
G1 X111.238 Y74.738 E33.96746
G1 X161.762 Y74.738 E37.27507
G1 X161.762 Y125.262 E40.58268
G1 X111.298 Y125.262 E43.88636
G1 X110.851 Y125.366 F3900.000
G1 E40.38636 F3000.00000
G92 E0
G1 X104.720 Y71.093 F3900.000
G1 E3.50000 F3000.00000
G1 F900
G1 X104.083 Y71.166 E3.54192
G1 X103.418 Y71.121 E3.58558
G1 X102.772 Y70.955 E3.62924
G1 X102.165 Y70.675 E3.67301
G1 X101.613 Y70.283 E3.71736
G1 X101.174 Y69.833 E3.75851
G1 X100.944 Y69.523 E3.78378
G1 X100.636 Y68.961 E3.82570
G1 X100.428 Y68.328 E3.86936
G1 X100.337 Y67.667 E3.91302
G1 X100.367 Y67.001 E3.95668
G1 X100.512 Y66.377 E3.99860
G1 X100.649 Y66.016 E4.02391
G1 X100.957 Y65.454 E4.06582
G1 X101.378 Y64.937 E4.10949
G1 X101.885 Y64.504 E4.15315
G1 X102.463 Y64.171 E4.19681
G1 X103.066 Y63.956 E4.23872
G1 X103.444 Y63.878 E4.26399
G1 X104.071 Y63.834 E4.30515
G1 X104.744 Y63.909 E4.34949
G1 X105.384 Y64.104 E4.39327
G1 X105.976 Y64.411 E4.43693
G1 X106.503 Y64.820 E4.48059
G1 X106.929 Y65.298 E4.52250
G1 X107.145 Y65.619 E4.54781
G1 X107.427 Y66.194 E4.58973
G1 X107.606 Y66.836 E4.63339
G1 X107.667 Y67.500 E4.67705
G1 X107.606 Y68.164 E4.72071
G1 X107.427 Y68.806 E4.76437
G1 X107.133 Y69.405 E4.80803
G1 X106.736 Y69.941 E4.85169
G1 X106.249 Y70.397 E4.89536
G1 X105.687 Y70.756 E4.93902
G1 X105.094 Y70.998 E4.98093
G1 X104.778 Y71.079 E5.00231
G1 X104.638 Y70.650 F3900.000
G1 F900
G1 X104.073 Y70.715 E5.03953
G1 X103.490 Y70.675 E5.07781
G1 X102.923 Y70.530 E5.11609
G1 X102.391 Y70.284 E5.15444
G1 X101.906 Y69.940 E5.19339
G1 X101.517 Y69.541 E5.22989
G1 X101.324 Y69.280 E5.25114
G1 X101.051 Y68.781 E5.28836
G1 X100.868 Y68.226 E5.32664
G1 X100.788 Y67.646 E5.36492
G1 X100.815 Y67.062 E5.40320
G1 X100.943 Y66.508 E5.44042
G1 X101.059 Y66.205 E5.46169
G1 X101.332 Y65.706 E5.49891
G1 X101.701 Y65.252 E5.53719
G1 X102.146 Y64.873 E5.57547
G1 X102.652 Y64.581 E5.61375
G1 X103.188 Y64.390 E5.65097
G1 X103.506 Y64.324 E5.67222
G1 X104.062 Y64.286 E5.70872
G1 X104.653 Y64.352 E5.74767
G1 X105.214 Y64.522 E5.78602
G1 X105.733 Y64.791 E5.82430
G1 X106.195 Y65.150 E5.86258
G1 X106.573 Y65.574 E5.89980
G1 X106.754 Y65.844 E5.92108
G1 X107.004 Y66.355 E5.95829
G1 X107.162 Y66.918 E5.99657
G1 X107.215 Y67.500 E6.03485
G1 X107.162 Y68.082 E6.07314
G1 X107.004 Y68.645 E6.11142
G1 X106.747 Y69.171 E6.14970
G1 X106.399 Y69.641 E6.18798
G1 X105.972 Y70.040 E6.22626
G1 X105.479 Y70.355 E6.26455
G1 X104.953 Y70.569 E6.30176
G1 X104.696 Y70.635 E6.31911
G1 X104.556 Y70.206 F3900.000
G1 F900
G1 X104.063 Y70.263 E6.35162
G1 X103.561 Y70.229 E6.38452
G1 X103.075 Y70.104 E6.41743
G1 X102.618 Y69.893 E6.45036
G1 X102.200 Y69.596 E6.48391
G1 X101.860 Y69.248 E6.51575
G1 X101.704 Y69.037 E6.53299
G1 X101.465 Y68.601 E6.56550
G1 X101.308 Y68.124 E6.59840
G1 X101.239 Y67.626 E6.63130
G1 X101.262 Y67.124 E6.66421
G1 X101.374 Y66.640 E6.69672
G1 X101.468 Y66.394 E6.71397
G1 X101.707 Y65.958 E6.74648
G1 X102.024 Y65.568 E6.77938
G1 X102.406 Y65.242 E6.81228
G1 X102.842 Y64.991 E6.84519
G1 X103.309 Y64.825 E6.87770
G1 X103.567 Y64.771 E6.89494
G1 X104.052 Y64.737 E6.92677
G1 X104.562 Y64.794 E6.96033
G1 X105.043 Y64.941 E6.99326
G1 X105.489 Y65.172 E7.02616
G1 X105.886 Y65.480 E7.05906
G1 X106.217 Y65.851 E7.09157
G1 X106.364 Y66.069 E7.10882
G1 X106.582 Y66.515 E7.14133
G1 X106.718 Y66.999 E7.17424
G1 X106.764 Y67.500 E7.20714
G1 X106.718 Y68.001 E7.24004
G1 X106.582 Y68.485 E7.27295
G1 X106.361 Y68.936 E7.30585
G1 X106.062 Y69.340 E7.33875
G1 X105.695 Y69.683 E7.37166
G1 X105.271 Y69.954 E7.40456
G1 X104.812 Y70.141 E7.43707
G1 X104.614 Y70.192 E7.45039
G1 X104.556 Y70.206 F3900.000
G1 E3.95039 F3000.00000
G92 E0
G1 X165.340 Y67.691 F3900.000
G1 E3.50000 F3000.00000
G1 F900
G1 X165.342 Y67.294 E3.52599
G1 X165.428 Y66.672 E3.56712
G1 X165.636 Y66.039 E3.61074
G1 X165.957 Y65.454 E3.65440
G1 X166.378 Y64.937 E3.69806
G1 X166.885 Y64.504 E3.74172
G1 X167.463 Y64.171 E3.78538
G1 X168.066 Y63.956 E3.82730
G1 X168.444 Y63.878 E3.85257
G1 X169.071 Y63.834 E3.89372
G1 X169.744 Y63.909 E3.93807
G1 X170.384 Y64.104 E3.98184
G1 X170.976 Y64.411 E4.02550
G1 X171.503 Y64.820 E4.06916
G1 X171.931 Y65.299 E4.11123
G1 X172.151 Y65.630 E4.13722
G1 X172.427 Y66.194 E4.17834
G1 X172.606 Y66.836 E4.22196
G1 X172.667 Y67.500 E4.26562
G1 X172.606 Y68.164 E4.30928
G1 X172.427 Y68.806 E4.35295
G1 X172.133 Y69.405 E4.39661
G1 X171.736 Y69.941 E4.44027
G1 X171.249 Y70.397 E4.48393
G1 X170.687 Y70.756 E4.52759
G1 X170.094 Y70.998 E4.56951
G1 X169.720 Y71.093 E4.59481
G1 X169.083 Y71.166 E4.63673
G1 X168.418 Y71.121 E4.68039
G1 X167.772 Y70.955 E4.72405
G1 X167.165 Y70.675 E4.76783
G1 X166.613 Y70.283 E4.81217
G1 X166.174 Y69.833 E4.85333
G1 X165.944 Y69.523 E4.87860
G1 X165.636 Y68.961 E4.92051
G1 X165.427 Y68.328 E4.96417
G1 X165.348 Y67.751 E5.00231
G1 X165.790 Y67.661 F3900.000
G1 F900
G1 X165.791 Y67.326 E5.02426
G1 X165.868 Y66.774 E5.06073
G1 X166.051 Y66.219 E5.09899
G1 X166.332 Y65.706 E5.13727
G1 X166.701 Y65.252 E5.17556
G1 X167.146 Y64.873 E5.21384
G1 X167.652 Y64.581 E5.25212
G1 X168.188 Y64.390 E5.28933
G1 X168.506 Y64.324 E5.31059
G1 X169.062 Y64.286 E5.34708
G1 X169.653 Y64.352 E5.38603
G1 X170.214 Y64.522 E5.42438
G1 X170.733 Y64.791 E5.46267
G1 X171.195 Y65.150 E5.50095
G1 X171.574 Y65.575 E5.53825
G1 X171.760 Y65.854 E5.56020
G1 X172.005 Y66.355 E5.59668
G1 X172.162 Y66.918 E5.63493
G1 X172.215 Y67.500 E5.67322
G1 X172.162 Y68.082 E5.71150
G1 X172.004 Y68.645 E5.74978
G1 X171.747 Y69.171 E5.78806
G1 X171.399 Y69.641 E5.82635
G1 X170.972 Y70.040 E5.86463
G1 X170.479 Y70.355 E5.90291
G1 X169.953 Y70.569 E5.94012
G1 X169.638 Y70.650 E5.96140
G1 X169.073 Y70.715 E5.99862
G1 X168.490 Y70.675 E6.03690
G1 X167.923 Y70.530 E6.07518
G1 X167.391 Y70.284 E6.11353
G1 X166.906 Y69.940 E6.15248
G1 X166.517 Y69.541 E6.18898
G1 X166.324 Y69.280 E6.21023
G1 X166.051 Y68.781 E6.24744
G1 X165.868 Y68.226 E6.28573
G1 X165.798 Y67.721 E6.31910
G1 X166.240 Y67.631 F3900.000
G1 F900
G1 X166.241 Y67.358 E6.33701
G1 X166.308 Y66.876 E6.36883
G1 X166.465 Y66.399 E6.40173
G1 X166.707 Y65.958 E6.43463
G1 X167.024 Y65.568 E6.46754
G1 X167.406 Y65.242 E6.50044
G1 X167.842 Y64.991 E6.53334
G1 X168.309 Y64.825 E6.56585
G1 X168.567 Y64.771 E6.58309
G1 X169.052 Y64.737 E6.61493
G1 X169.562 Y64.794 E6.64848
G1 X170.043 Y64.941 E6.68141
G1 X170.489 Y65.172 E6.71432
G1 X170.886 Y65.480 E6.74722
G1 X171.217 Y65.851 E6.77976
G1 X171.369 Y66.079 E6.79767
G1 X171.582 Y66.516 E6.82950
G1 X171.718 Y66.999 E6.86239
G1 X171.764 Y67.500 E6.89529
G1 X171.718 Y68.001 E6.92820
G1 X171.582 Y68.485 E6.96110
G1 X171.361 Y68.936 E6.99400
G1 X171.062 Y69.340 E7.02691
G1 X170.695 Y69.683 E7.05981
G1 X170.271 Y69.954 E7.09272
G1 X169.812 Y70.141 E7.12522
G1 X169.556 Y70.206 E7.14247
G1 X169.063 Y70.263 E7.17498
G1 X168.561 Y70.229 E7.20789
G1 X168.075 Y70.104 E7.24079
G1 X167.618 Y69.893 E7.27372
G1 X167.200 Y69.596 E7.30728
G1 X166.860 Y69.248 E7.33911
G1 X166.704 Y69.037 E7.35635
G1 X166.465 Y68.601 E7.38886
G1 X166.308 Y68.124 E7.42176
G1 X166.248 Y67.691 E7.45038
G1 X166.240 Y67.631 F3900.000
G1 E3.95038 F3000.00000
G92 E0
G1 X169.071 Y128.834 F3900.000
G1 E3.50000 F3000.00000
G1 F900
G1 X169.744 Y128.909 E3.54435
G1 X170.384 Y129.104 E3.58812
G1 X170.976 Y129.411 E3.63178
G1 X171.503 Y129.820 E3.67544
G1 X171.931 Y130.299 E3.71750
G1 X172.151 Y130.630 E3.74350
G1 X172.427 Y131.194 E3.78462
G1 X172.606 Y131.836 E3.82824
G1 X172.667 Y132.500 E3.87190
G1 X172.606 Y133.164 E3.91556
G1 X172.427 Y133.806 E3.95922
G1 X172.133 Y134.405 E4.00289
G1 X171.736 Y134.941 E4.04655
G1 X171.268 Y135.378 E4.08846
G1 X170.953 Y135.601 E4.11377
G1 X170.384 Y135.896 E4.15569
G1 X169.746 Y136.090 E4.19935
G1 X169.083 Y136.166 E4.24301
G1 X168.418 Y136.121 E4.28667
G1 X167.772 Y135.955 E4.33033
G1 X167.165 Y135.675 E4.37410
G1 X166.613 Y135.283 E4.41845
G1 X166.174 Y134.833 E4.45961
G1 X165.944 Y134.523 E4.48487
G1 X165.636 Y133.961 E4.52679
G1 X165.427 Y133.328 E4.57045
G1 X165.340 Y132.691 E4.61252
G1 X165.342 Y132.294 E4.63851
G1 X165.428 Y131.672 E4.67963
G1 X165.636 Y131.039 E4.72325
G1 X165.957 Y130.454 E4.76692
G1 X166.378 Y129.937 E4.81058
G1 X166.885 Y129.504 E4.85424
G1 X167.463 Y129.171 E4.89790
G1 X168.066 Y128.956 E4.93982
G1 X168.444 Y128.878 E4.96508
G1 X169.011 Y128.838 E5.00231
G1 X169.062 Y129.286 F3900.000
G1 F900
G1 X169.653 Y129.352 E5.04126
G1 X170.214 Y129.522 E5.07961
G1 X170.733 Y129.791 E5.11790
G1 X171.195 Y130.150 E5.15618
G1 X171.574 Y130.575 E5.19348
G1 X171.760 Y130.854 E5.21543
G1 X172.005 Y131.355 E5.25191
G1 X172.162 Y131.918 E5.29016
G1 X172.215 Y132.500 E5.32844
G1 X172.162 Y133.082 E5.36673
G1 X172.004 Y133.645 E5.40501
G1 X171.747 Y134.171 E5.44329
G1 X171.399 Y134.641 E5.48157
G1 X170.984 Y135.029 E5.51879
G1 X170.718 Y135.216 E5.54006
G1 X170.214 Y135.478 E5.57728
G1 X169.654 Y135.648 E5.61556
G1 X169.073 Y135.715 E5.65384
G1 X168.490 Y135.675 E5.69213
G1 X167.923 Y135.530 E5.73041
G1 X167.391 Y135.284 E5.76876
G1 X166.906 Y134.940 E5.80771
G1 X166.517 Y134.541 E5.84420
G1 X166.324 Y134.280 E5.86546
G1 X166.051 Y133.781 E5.90267
G1 X165.868 Y133.226 E5.94096
G1 X165.790 Y132.661 E5.97826
G1 X165.791 Y132.326 E6.00021
G1 X165.868 Y131.774 E6.03668
G1 X166.051 Y131.219 E6.07494
G1 X166.332 Y130.706 E6.11322
G1 X166.701 Y130.252 E6.15150
G1 X167.146 Y129.873 E6.18979
G1 X167.652 Y129.581 E6.22807
G1 X168.188 Y129.390 E6.26528
G1 X168.506 Y129.324 E6.28654
G1 X169.002 Y129.290 E6.31910
G1 X169.052 Y129.737 F3900.000
G1 F900
G1 X169.562 Y129.794 E6.35266
G1 X170.043 Y129.941 E6.38559
G1 X170.489 Y130.172 E6.41849
G1 X170.886 Y130.480 E6.45140
G1 X171.217 Y130.851 E6.48394
G1 X171.369 Y131.079 E6.50185
G1 X171.582 Y131.516 E6.53367
G1 X171.718 Y131.999 E6.56657
G1 X171.764 Y132.500 E6.59947
G1 X171.718 Y133.001 E6.63237
G1 X171.582 Y133.485 E6.66528
G1 X171.361 Y133.936 E6.69818
G1 X171.062 Y134.340 E6.73108
G1 X170.699 Y134.679 E6.76359
G1 X170.484 Y134.831 E6.78084
