; generated by Slic3r 1.3.0 on 2022-03-30 at 19:33:41

; external perimeters extrusion width = 0.44mm (0.85mm^3/s)
; perimeters extrusion width = 0.48mm (3.77mm^3/s)
; infill extrusion width = 0.48mm (4.40mm^3/s)
; solid infill extrusion width = 0.48mm (1.26mm^3/s)
; top infill extrusion width = 0.48mm (0.88mm^3/s)
; support material extrusion width = 0.44mm (3.38mm^3/s)

M190 S65 ; set bed temperature and wait for it to be reached
M104 S205 ; set temperature
; M106 P0 S255 ; turn hot-end fan on
G28 ; home all axes
G1 Z5 F5000 ; lift nozzle


; Filament gcode

M109 S205 ; set temperature and wait for it to be reached
G21 ; set units to millimeters
G90 ; use absolute coordinates
M82 ; use absolute distances for extrusion
G92 E0
G1 Z-0.150 F3900.000
G1 E-3.50000 F3000.00000
G92 E0
G1 X35.194 Y89.530 F3900.000
G1 E3.50000 F3000.00000
G1 F900
G1 X35.713 Y89.349 E3.53597
G1 X36.685 Y89.083 E3.60197
G1 X132.416 Y67.814 E10.02174
G1 X134.916 Y67.425 E10.18744
G1 X135.903 Y67.283 E10.25265
G1 X136.396 Y67.238 E10.28507
G1 X139.654 Y67.121 E10.49849
G1 X140.080 Y67.137 E10.52641
G1 X142.955 Y67.341 E10.71513
G1 X143.752 Y67.449 E10.76775
G1 X146.511 Y67.954 E10.95139
G1 X147.365 Y68.172 E11.00910
G1 X149.436 Y68.779 E11.15032
G1 X150.261 Y69.054 E11.20729
G1 X152.867 Y70.123 E11.39167
G1 X153.585 Y70.458 E11.44356
G1 X154.235 Y70.805 E11.49179
G1 X156.483 Y72.056 E11.66019
G1 X159.251 Y73.984 E11.88100
G1 X159.670 Y74.313 E11.91588
G1 X161.965 Y76.328 E12.11584
G1 X162.344 Y76.699 E12.15054
G1 X164.494 Y79.058 E12.35952
G1 X164.806 Y79.441 E12.39185
G1 X166.719 Y82.078 E12.60516
G1 X166.945 Y82.442 E12.63319
G1 X168.378 Y84.942 E12.82181
G1 X168.683 Y85.554 E12.86658
G1 X172.816 Y94.330 E13.50159
G1 X173.283 Y96.417 E13.64163
G1 X173.283 Y103.580 E14.11057
G1 X172.818 Y105.664 E14.25034
G1 X168.791 Y114.234 E14.87025
G1 X168.347 Y115.080 E14.93274
G1 X167.189 Y117.174 E15.08942
G1 X165.411 Y119.779 E15.29588
G1 X165.107 Y120.175 E15.32857
G1 X163.218 Y122.396 E15.51945
G1 X162.885 Y122.748 E15.55117
G1 X160.640 Y124.887 E15.75416
G1 X158.767 Y126.362 E15.91023
G1 X158.197 Y126.798 E15.95721
G1 X157.601 Y127.208 E16.00457
G1 X155.342 Y128.615 E16.17881
G1 X154.636 Y128.995 E16.23127
G1 X152.823 Y129.891 E16.36364
G1 X152.054 Y130.241 E16.41896
G1 X149.465 Y131.216 E16.60011
G1 X148.877 Y131.406 E16.64056
G1 X148.292 Y131.567 E16.68029
G1 X145.875 Y132.186 E16.84361
G1 X142.745 Y132.678 E17.05104
G1 X142.248 Y132.729 E17.08373
G1 X139.379 Y132.872 E17.27179
G1 X138.884 Y132.870 E17.30420
G1 X135.717 Y132.694 E17.51185
G1 X135.206 Y132.638 E17.54551
G1 X132.047 Y132.104 E17.75522
G1 X36.685 Y110.914 E24.15032
G1 X35.713 Y110.649 E24.21631
G1 X35.194 Y110.467 E24.25228
G1 X34.486 Y110.169 E24.30256
G1 X34.091 Y109.978 E24.33127
G1 X33.428 Y109.617 E24.38073
G1 X32.963 Y109.324 E24.41670
G1 X32.348 Y108.883 E24.46623
G1 X31.984 Y108.592 E24.49672
G1 X31.430 Y108.102 E24.54515
G1 X31.042 Y107.714 E24.58112
G1 X30.550 Y107.158 E24.62972
G1 X30.241 Y106.770 E24.66219
G1 X29.819 Y106.181 E24.70959
G1 X29.527 Y105.716 E24.74554
G1 X29.177 Y105.077 E24.79323
G1 X28.950 Y104.606 E24.82748
G1 X28.753 Y104.130 E24.86120
G1 X28.495 Y103.424 E24.91038
G1 X28.293 Y102.723 E24.95812
G1 X28.176 Y102.201 E24.99319
G1 X28.055 Y101.481 E25.04099
G1 X27.983 Y100.681 E25.09355
G1 X27.964 Y99.728 E25.15593
G1 X27.997 Y99.048 E25.20051
G1 X28.055 Y98.517 E25.23550
G1 X28.176 Y97.797 E25.28329
G1 X28.293 Y97.274 E25.31837
G1 X28.495 Y96.573 E25.36610
G1 X28.753 Y95.868 E25.41529
G1 X28.950 Y95.392 E25.44900
G1 X29.177 Y94.920 E25.48326
G1 X29.527 Y94.282 E25.53094
G1 X29.820 Y93.817 E25.56691
G1 X30.241 Y93.228 E25.61429
G1 X30.550 Y92.840 E25.64677
G1 X31.042 Y92.284 E25.69537
G1 X31.430 Y91.895 E25.73134
G1 X31.984 Y91.405 E25.77976
G1 X32.724 Y90.843 E25.84058
G1 X33.428 Y90.381 E25.89572
G1 X34.091 Y90.020 E25.94518
G1 X34.486 Y89.829 E25.97388
G1 X35.139 Y89.553 E26.02024
G1 X35.366 Y89.946 F3900.000
G1 F900
G1 X35.837 Y89.781 E26.05291
G1 X36.783 Y89.523 E26.11709
G1 X132.513 Y68.253 E32.53686
G1 X134.980 Y67.870 E32.70031
G1 X135.966 Y67.729 E32.76552
G1 X136.414 Y67.688 E32.79496
G1 X139.641 Y67.571 E33.00637
G1 X142.919 Y67.789 E33.22139
G1 X143.673 Y67.892 E33.27123
G1 X146.423 Y68.395 E33.45425
G1 X147.239 Y68.604 E33.50937
G1 X149.309 Y69.210 E33.65059
G1 X150.097 Y69.472 E33.70494
G1 X152.694 Y70.539 E33.88874
G1 X153.373 Y70.855 E33.93781
G1 X154.018 Y71.200 E33.98566
G1 X156.250 Y72.441 E34.15284
G1 X158.992 Y74.352 E34.37166
G1 X159.373 Y74.651 E34.40333
G1 X161.668 Y76.666 E34.60328
G1 X162.012 Y77.003 E34.63479
G1 X164.160 Y79.359 E34.84355
G1 X164.443 Y79.707 E34.87291
G1 X166.339 Y82.319 E35.08419
G1 X167.986 Y85.161 E35.29923
G1 X168.276 Y85.746 E35.34194
G1 X172.409 Y94.521 E35.97696
G1 X172.833 Y96.417 E36.10414
G1 X172.833 Y103.580 E36.57308
G1 X172.411 Y105.473 E36.70002
G1 X168.383 Y114.043 E37.31993
G1 X167.952 Y114.864 E37.38062
G1 X166.804 Y116.943 E37.53611
G1 X165.040 Y119.524 E37.74076
G1 X164.764 Y119.884 E37.77045
G1 X162.876 Y122.104 E37.96124
G1 X162.574 Y122.424 E37.99005
G1 X160.349 Y124.544 E38.19124
G1 X158.490 Y126.007 E38.34610
G1 X157.924 Y126.441 E38.39279
G1 X157.362 Y126.827 E38.43744
G1 X155.109 Y128.230 E38.61119
G1 X154.437 Y128.592 E38.66114
G1 X152.624 Y129.487 E38.79351
G1 X151.889 Y129.823 E38.84643
G1 X149.320 Y130.790 E39.02608
G1 X148.757 Y130.973 E39.06483
G1 X148.172 Y131.134 E39.10456
G1 X145.777 Y131.746 E39.26638
G1 X142.676 Y132.234 E39.47190
G1 X142.225 Y132.280 E39.50159
G1 X139.358 Y132.423 E39.68952
G1 X138.908 Y132.421 E39.71896
G1 X135.743 Y132.245 E39.92650
G1 X135.279 Y132.194 E39.95706
G1 X132.144 Y131.665 E40.16514
G1 X36.783 Y110.475 E46.56024
G1 X35.837 Y110.216 E46.62441
G1 X35.056 Y109.923 E46.67903
G1 X34.305 Y109.582 E46.73304
G1 X33.646 Y109.223 E46.78219
G1 X32.984 Y108.788 E46.83403
G1 X32.282 Y108.255 E46.89176
G1 X31.730 Y107.767 E46.93997
G1 X31.377 Y107.414 E46.97264
G1 X30.887 Y106.860 E47.02104
G1 X30.607 Y106.508 E47.05053
G1 X30.186 Y105.921 E47.09780
G1 X29.921 Y105.498 E47.13045
G1 X29.572 Y104.861 E47.17804
G1 X29.366 Y104.433 E47.20914
G1 X29.169 Y103.960 E47.24269
G1 X28.927 Y103.300 E47.28868
G1 X28.726 Y102.601 E47.33629
G1 X28.620 Y102.126 E47.36814
G1 X28.499 Y101.407 E47.41586
G1 X28.446 Y100.925 E47.44763
G1 X28.411 Y99.893 E47.51525
G1 X28.446 Y99.073 E47.56897
G1 X28.499 Y98.590 E47.60074
G1 X28.620 Y97.871 E47.64846
G1 X28.726 Y97.397 E47.68031
G1 X28.927 Y96.698 E47.72793
G1 X29.169 Y96.038 E47.77392
G1 X29.366 Y95.565 E47.80746
G1 X29.572 Y95.137 E47.83857
G1 X29.921 Y94.499 E47.88615
G1 X30.186 Y94.077 E47.91881
G1 X30.607 Y93.490 E47.96607
G1 X30.887 Y93.137 E47.99556
G1 X31.377 Y92.584 E48.04397
G1 X31.730 Y92.231 E48.07663
G1 X32.282 Y91.743 E48.12484
G1 X32.984 Y91.210 E48.18257
G1 X33.646 Y90.775 E48.23441
G1 X34.305 Y90.416 E48.28356
G1 X34.664 Y90.242 E48.30963
G1 X35.311 Y89.969 E48.35563
G1 E44.85563 F3000.00000
G92 E0
G1 X116.508 Y102.265 F3900.000
G1 E3.50000 F3000.00000
G1 F900
G1 X120.003 Y102.265 E3.72880
G1 X120.355 Y104.314 E3.86489
G1 X120.963 Y106.412 E4.00789
G1 X121.803 Y108.419 E4.15031
G1 X122.865 Y110.327 E4.29328
G1 X124.135 Y112.094 E4.43573
G1 X125.597 Y113.716 E4.57867
G1 X127.232 Y115.153 E4.72117
G1 X129.020 Y116.405 E4.86405
G1 X130.939 Y117.441 E5.00685
G1 X131.248 Y117.570 E5.02876
G1 X132.958 Y118.259 E5.14943
G1 X134.734 Y118.751 E5.27010
G1 X135.055 Y118.836 E5.29181
G1 X137.212 Y119.183 E5.43481
G1 X139.389 Y119.274 E5.57750
G1 X141.564 Y119.129 E5.72019
G1 X143.708 Y118.729 E5.86295
G1 X145.793 Y118.100 E6.00556
G1 X147.794 Y117.230 E6.14839
G1 X149.685 Y116.149 E6.29094
G1 X151.440 Y114.852 E6.43383
G1 X153.039 Y113.375 E6.57632
G1 X154.460 Y111.718 E6.71926
G1 X155.686 Y109.920 E6.86171
G1 X156.701 Y107.986 E7.00469
G1 X157.491 Y105.959 E7.14712
G1 X157.671 Y105.277 E7.19327
G1 X161.271 Y105.277 E7.42896
G1 X160.814 Y106.897 E7.53913
G1 X160.084 Y108.858 E7.67616
G1 X159.898 Y109.301 E7.70761
G1 X158.772 Y111.492 E7.86888
G1 X157.295 Y113.706 E8.04308
G1 X155.615 Y115.684 E8.21296
G1 X153.761 Y117.424 E8.37943
G1 X151.581 Y119.041 E8.55711
G1 X149.301 Y120.348 E8.72918
G1 X147.150 Y121.278 E8.88257
G1 X146.699 Y121.446 E8.91410
G1 X144.362 Y122.134 E9.07354
G1 X141.715 Y122.594 E9.24942
G1 X139.622 Y122.715 E9.38669
G1 X139.143 Y122.733 E9.41809
G1 X136.375 Y122.569 E9.59962
G1 X133.764 Y122.090 E9.77333
G1 X133.270 Y121.953 E9.80692
G1 X130.985 Y121.223 E9.96398
G1 X128.685 Y120.181 E10.12927
G1 X128.232 Y119.940 E10.16289
G1 X126.084 Y118.611 E10.32826
G1 X124.204 Y117.121 E10.48523
G1 X123.814 Y116.787 E10.51885
G1 X121.924 Y114.844 E10.69636
G1 X120.579 Y113.085 E10.84127
G1 X120.271 Y112.676 E10.87481
G1 X118.865 Y110.278 E11.05674
G1 X117.809 Y107.847 E11.23033
G1 X117.647 Y107.359 E11.26392
G1 X116.979 Y105.054 E11.42104
G1 X116.518 Y102.324 E11.60228
G1 X117.040 Y102.715 F3900.000
G1 F900
G1 X119.624 Y102.715 E11.77142
G1 X119.916 Y104.415 E11.88433
G1 X120.538 Y106.562 E12.03067
G1 X121.398 Y108.616 E12.17642
G1 X122.485 Y110.569 E12.32274
G1 X123.785 Y112.377 E12.46852
G1 X125.281 Y114.036 E12.61479
G1 X126.954 Y115.507 E12.76062
G1 X128.783 Y116.789 E12.90684
G1 X130.746 Y117.847 E13.05282
G1 X131.077 Y117.986 E13.07637
G1 X132.813 Y118.686 E13.19889
G1 X134.617 Y119.186 E13.32141
G1 X134.962 Y119.277 E13.34475
G1 X137.166 Y119.631 E13.49093
G1 X139.395 Y119.725 E13.63696
G1 X141.620 Y119.576 E13.78298
G1 X143.814 Y119.167 E13.92907
G1 X145.949 Y118.523 E14.07502
G1 X147.996 Y117.633 E14.22118
G1 X149.931 Y116.527 E14.36706
G1 X151.727 Y115.200 E14.51329
G1 X153.364 Y113.688 E14.65911
G1 X154.818 Y111.992 E14.80539
G1 X156.072 Y110.152 E14.95117
G1 X157.111 Y108.172 E15.09749
G1 X157.919 Y106.098 E15.24324
G1 X158.017 Y105.727 E15.26838
G1 X160.677 Y105.727 E15.44247
G1 X160.386 Y106.757 E15.51254
G1 X159.666 Y108.693 E15.64775
G1 X159.490 Y109.111 E15.67746
G1 X158.384 Y111.264 E15.83592
G1 X156.935 Y113.434 E16.00674
G1 X155.289 Y115.373 E16.17325
G1 X153.472 Y117.078 E16.33635
G1 X151.334 Y118.664 E16.51059
G1 X149.099 Y119.945 E16.67927
G1 X146.982 Y120.860 E16.83024
G1 X146.556 Y121.019 E16.85998
G1 X144.260 Y121.695 E17.01670
G1 X141.664 Y122.146 E17.18921
G1 X139.600 Y122.266 E17.32451
G1 X139.147 Y122.283 E17.35419
G1 X136.429 Y122.122 E17.53247
G1 X133.866 Y121.652 E17.70306
G1 X133.399 Y121.522 E17.73476
G1 X131.147 Y120.802 E17.88956
G1 X128.884 Y119.777 E18.05219
G1 X128.456 Y119.550 E18.08391
G1 X126.342 Y118.242 E18.24662
G1 X124.490 Y116.774 E18.40134
G1 X124.122 Y116.459 E18.43306
G1 X122.265 Y114.549 E18.60745
G1 X120.938 Y112.813 E18.75051
G1 X120.646 Y112.426 E18.78225
G1 X119.267 Y110.074 E18.96070
G1 X118.229 Y107.686 E19.13118
G1 X118.077 Y107.226 E19.16289
G1 X117.418 Y104.954 E19.31776
G1 X117.050 Y102.774 E19.46247
G1 X117.010 Y102.316 F3900.000
G1 E15.96247 F3000.00000
G92 E0
G1 X116.524 Y97.732 F3900.000
G1 E3.50000 F3000.00000
G1 F900
G1 X116.663 Y96.626 E3.57297
G1 X117.222 Y93.976 E3.75030
G1 X118.099 Y91.396 E3.92868
G1 X119.307 Y88.891 E4.11074
G1 X120.736 Y86.659 E4.28423
G1 X121.050 Y86.253 E4.31782
G1 X122.592 Y84.412 E4.47505
G1 X124.424 Y82.679 E4.64017
G1 X124.818 Y82.351 E4.67371
G1 X126.599 Y81.047 E4.81822
G1 X127.026 Y80.764 E4.85176
G1 X129.293 Y79.506 E5.02147
G1 X131.928 Y78.436 E5.20767
G1 X134.554 Y77.727 E5.38575
G1 X137.303 Y77.334 E5.56753
G1 X140.090 Y77.278 E5.74998
G1 X142.661 Y77.535 E5.91918
G1 X143.167 Y77.625 E5.95280
G1 X145.571 Y78.183 E6.11434
G1 X148.184 Y79.130 E6.29633
G1 X150.323 Y80.208 E6.45312
G1 X150.773 Y80.455 E6.48673
G1 X153.018 Y81.977 E6.66429
G1 X155.076 Y83.766 E6.84283
G1 X156.938 Y85.832 E7.02488
G1 X158.463 Y87.997 E7.19821
G1 X158.720 Y88.441 E7.23180
G1 X159.842 Y90.567 E7.38920
G1 X160.753 Y92.916 E7.55415
G1 X160.907 Y93.405 E7.58769
G1 X161.235 Y94.721 E7.67646
G1 X157.671 Y94.721 E7.90980
G1 X157.491 Y94.039 E7.95596
G1 X156.701 Y92.012 E8.09839
G1 X155.686 Y90.078 E8.24136
G1 X154.460 Y88.280 E8.38381
G1 X153.039 Y86.622 E8.52675
G1 X151.440 Y85.145 E8.66925
G1 X149.685 Y83.849 E8.81213
G1 X147.794 Y82.768 E8.95468
G1 X145.793 Y81.898 E9.09751
G1 X143.708 Y81.268 E9.24013
G1 X141.564 Y80.869 E9.38289
G1 X139.389 Y80.724 E9.52557
G1 X137.212 Y80.815 E9.66826
G1 X135.055 Y81.162 E9.81127
G1 X134.734 Y81.246 E9.83298
G1 X132.958 Y81.738 E9.95364
G1 X131.248 Y82.428 E10.07432
G1 X130.939 Y82.557 E10.09623
G1 X129.020 Y83.592 E10.23902
G1 X127.232 Y84.845 E10.38191
G1 X125.597 Y86.282 E10.52440
G1 X124.135 Y87.904 E10.66734
G1 X122.865 Y89.670 E10.80979
G1 X121.803 Y91.579 E10.95277
G1 X120.963 Y93.585 E11.09519
G1 X120.355 Y95.684 E11.23819
G1 X120.003 Y97.732 E11.37428
G1 X116.584 Y97.732 E11.59809
G1 X117.034 Y97.283 F3900.000
G1 F900
G1 X117.107 Y96.701 E11.63646
G1 X117.656 Y94.095 E11.81079
G1 X118.516 Y91.567 E11.98561
G1 X119.700 Y89.111 E12.16411
G1 X121.104 Y86.919 E12.33451
G1 X121.400 Y86.536 E12.36622
G1 X122.920 Y84.721 E12.52118
G1 X124.723 Y83.015 E12.68365
G1 X125.095 Y82.706 E12.71534
G1 X126.856 Y81.416 E12.85825
G1 X127.260 Y81.149 E12.88993
G1 X129.488 Y79.912 E13.05677
G1 X132.068 Y78.864 E13.23906
G1 X134.645 Y78.169 E13.41382
G1 X137.343 Y77.782 E13.59222
G1 X140.071 Y77.728 E13.77086
G1 X142.599 Y77.981 E13.93720
G1 X143.076 Y78.066 E13.96892
G1 X145.443 Y78.616 E14.12794
G1 X148.006 Y79.544 E14.30641
G1 X150.113 Y80.606 E14.46091
G1 X150.538 Y80.839 E14.49263
G1 X152.743 Y82.334 E14.66704
G1 X154.760 Y84.088 E14.84203
G1 X156.586 Y86.113 E15.02052
G1 X158.083 Y88.239 E15.19076
G1 X158.326 Y88.658 E15.22247
G1 X159.432 Y90.754 E15.37759
G1 X160.328 Y93.066 E15.53989
G1 X160.474 Y93.527 E15.57158
G1 X160.659 Y94.271 E15.62175
G1 X158.017 Y94.271 E15.79471
G1 X157.919 Y93.899 E15.81986
G1 X157.111 Y91.825 E15.96561
G1 X156.072 Y89.846 E16.11193
G1 X154.818 Y88.006 E16.25770
G1 X153.364 Y86.310 E16.40398
G1 X151.727 Y84.798 E16.54980
G1 X149.931 Y83.471 E16.69603
G1 X147.996 Y82.365 E16.84191
G1 X145.949 Y81.475 E16.98808
G1 X143.814 Y80.831 E17.13402
G1 X141.620 Y80.422 E17.28012
G1 X139.395 Y80.273 E17.42614
G1 X137.166 Y80.367 E17.57216
G1 X134.962 Y80.721 E17.71834
G1 X134.617 Y80.812 E17.74169
G1 X132.813 Y81.312 E17.86421
G1 X131.077 Y82.012 E17.98673
G1 X130.746 Y82.150 E18.01028
G1 X128.783 Y83.209 E18.15626
G1 X126.954 Y84.491 E18.30248
G1 X125.281 Y85.961 E18.44831
G1 X123.785 Y87.621 E18.59458
G1 X122.485 Y89.429 E18.74036
G1 X121.398 Y91.382 E18.88668
G1 X120.538 Y93.435 E19.03242
G1 X119.916 Y95.583 E19.17877
G1 X119.624 Y97.283 E19.29168
G1 X117.094 Y97.283 E19.45729
G1 X116.636 Y97.320 F3900.000
G1 X116.015 Y98.182 F3900.000
G1 F900
G1 X120.383 Y98.182 E19.74323
G1 X120.794 Y95.784 E19.90249
G1 X121.388 Y93.735 E20.04215
G1 X122.209 Y91.776 E20.18124
G1 X123.246 Y89.912 E20.32088
G1 X124.486 Y88.186 E20.46000
G1 X125.914 Y86.602 E20.59960
G1 X127.511 Y85.199 E20.73877
G1 X129.256 Y83.976 E20.87831
G1 X131.133 Y82.963 E21.01792
G1 X133.103 Y82.165 E21.15703
G1 X135.148 Y81.602 E21.29591
G1 X137.257 Y81.263 E21.43573
G1 X139.384 Y81.174 E21.57509
G1 X141.508 Y81.316 E21.71444
G1 X143.601 Y81.706 E21.85387
G1 X145.638 Y82.321 E21.99315
G1 X147.592 Y83.170 E22.13264
G1 X149.438 Y84.226 E22.27186
G1 X151.153 Y85.492 E22.41141
G1 X152.715 Y86.935 E22.55057
G1 X154.103 Y88.554 E22.69018
G1 X155.300 Y90.310 E22.82929
G1 X156.290 Y92.199 E22.96893
G1 X157.062 Y94.178 E23.10804
G1 X157.241 Y94.855 E23.15384
G1 X154.435 Y94.857 E23.33754
G1 X154.036 Y93.703 E23.41745
G1 X153.090 Y91.827 E23.55503
G1 X151.904 Y90.073 E23.69361
G1 X150.504 Y88.504 E23.83127
G1 X148.910 Y87.118 E23.96957
G1 X147.155 Y85.967 E24.10696
G1 X145.253 Y85.036 E24.24558
G1 X143.246 Y84.374 E24.38393
G1 X141.183 Y83.968 E24.52159
G1 X139.078 Y83.846 E24.65960
G1 X136.975 Y83.987 E24.79761
G1 X134.909 Y84.412 E24.93572
G1 X132.914 Y85.091 E25.07362
G1 X131.026 Y86.035 E25.21183
G1 X129.276 Y87.205 E25.34964
G1 X127.694 Y88.606 E25.48794
G1 X126.307 Y90.188 E25.62567
G1 X125.139 Y91.949 E25.76403
G1 X124.209 Y93.835 E25.90170
G1 X123.532 Y95.842 E26.04036
G1 X123.116 Y98.001 E26.18433
