; generated by Slic3r 1.3.0 on 2022-03-30 at 19:28:56

; external perimeters extrusion width = 0.44mm (0.85mm^3/s)
; perimeters extrusion width = 0.48mm (3.77mm^3/s)
; infill extrusion width = 0.48mm (4.40mm^3/s)
; solid infill extrusion width = 0.48mm (1.26mm^3/s)
; top infill extrusion width = 0.48mm (0.88mm^3/s)
; support material extrusion width = 0.44mm (3.38mm^3/s)

M190 S65 ; set bed temperature and wait for it to be reached
M104 S205 ; set temperature
; M106 P0 S255 ; turn hot-end fan on
G28 ; home all axes
G1 Z5 F5000 ; lift nozzle


; Filament gcode

M109 S205 ; set temperature and wait for it to be reached
G21 ; set units to millimeters
G90 ; use absolute coordinates
M82 ; use absolute distances for extrusion
G92 E0
G1 Z-0.150 F3900.000
G1 E-3.50000 F3000.00000
G92 E0
G1 X33.428 Y59.382 F3900.000
G1 E3.50000 F3000.00000
G1 F900
G1 X34.091 Y59.021 E3.54946
G1 X34.486 Y58.830 E3.57816
G1 X35.194 Y58.532 E3.62845
G1 X35.713 Y58.350 E3.66442
G1 X36.685 Y58.085 E3.73042
G1 X132.416 Y36.815 E10.15019
G1 X134.916 Y36.426 E10.31588
G1 X135.903 Y36.285 E10.38110
G1 X136.396 Y36.239 E10.41352
G1 X139.354 Y36.123 E10.60732
G1 X139.882 Y36.128 E10.64193
G1 X142.232 Y36.284 E10.79609
G1 X143.253 Y36.376 E10.86321
G1 X143.752 Y36.450 E10.89621
G1 X146.511 Y36.955 E11.07985
G1 X147.365 Y37.173 E11.13756
G1 X149.979 Y37.954 E11.31612
G1 X150.875 Y38.297 E11.37890
G1 X152.867 Y39.125 E11.52013
G1 X153.585 Y39.460 E11.57201
G1 X154.235 Y39.807 E11.62025
G1 X156.125 Y40.846 E11.76147
G1 X156.759 Y41.238 E11.81028
G1 X159.251 Y42.985 E12.00946
G1 X159.670 Y43.314 E12.04434
G1 X161.965 Y45.329 E12.24431
G1 X162.344 Y45.700 E12.27900
G1 X164.494 Y48.059 E12.48799
G1 X164.806 Y48.442 E12.52032
G1 X166.551 Y50.831 E12.71401
G1 X166.945 Y51.444 E12.76166
G1 X168.059 Y53.372 E12.90744
G1 X168.517 Y54.209 E12.96991
G1 X172.816 Y63.331 E13.63006
G1 X173.283 Y65.418 E13.77011
G1 X173.283 Y134.579 E18.29770
G1 X172.818 Y136.663 E18.43747
G1 X168.791 Y145.233 E19.05738
G1 X167.377 Y147.853 E19.25223
G1 X167.026 Y148.427 E19.29631
G1 X165.411 Y150.778 E19.48301
G1 X165.107 Y151.174 E19.51570
G1 X163.218 Y153.395 E19.70658
G1 X162.885 Y153.747 E19.73830
G1 X160.640 Y155.886 E19.94129
G1 X158.197 Y157.797 E20.14434
G1 X157.601 Y158.207 E20.19169
G1 X155.889 Y159.282 E20.32406
G1 X155.095 Y159.754 E20.38448
G1 X152.823 Y160.890 E20.55077
G1 X152.315 Y161.128 E20.58754
G1 X151.594 Y161.422 E20.63851
G1 X149.148 Y162.322 E20.80914
G1 X148.292 Y162.566 E20.86741
G1 X146.270 Y163.093 E21.00418
G1 X145.563 Y163.243 E21.05148
G1 X142.745 Y163.677 E21.23817
G1 X142.248 Y163.728 E21.27086
G1 X139.379 Y163.871 E21.45892
G1 X138.884 Y163.869 E21.49133
G1 X135.717 Y163.693 E21.69898
G1 X135.206 Y163.636 E21.73264
G1 X132.047 Y163.103 E21.94235
G1 X36.685 Y141.913 E28.33745
G1 X35.713 Y141.647 E28.40344
G1 X35.194 Y141.466 E28.43941
G1 X34.829 Y141.314 E28.46529
G1 X34.091 Y140.977 E28.51839
G1 X33.428 Y140.615 E28.56785
G1 X32.963 Y140.323 E28.60382
G1 X32.348 Y139.882 E28.65335
G1 X31.984 Y139.591 E28.68384
G1 X31.430 Y139.101 E28.73227
G1 X31.042 Y138.712 E28.76824
G1 X30.550 Y138.157 E28.81683
G1 X30.241 Y137.768 E28.84931
G1 X29.819 Y137.180 E28.89671
G1 X29.527 Y136.715 E28.93266
G1 X29.177 Y136.076 E28.98035
G1 X28.950 Y135.604 E29.01460
G1 X28.669 Y134.925 E29.06270
G1 X28.495 Y134.423 E29.09751
G1 X28.293 Y133.722 E29.14525
G1 X28.176 Y133.200 E29.18032
G1 X28.055 Y132.479 E29.22812
G1 X27.997 Y131.948 E29.26310
G1 X27.960 Y131.007 E29.32474
G1 X27.960 Y68.959 E33.38672
G1 X27.997 Y68.049 E33.44633
G1 X28.055 Y67.518 E33.48131
G1 X28.176 Y66.798 E33.52911
G1 X28.293 Y66.275 E33.56418
G1 X28.495 Y65.574 E33.61192
G1 X28.753 Y64.869 E33.66110
G1 X28.950 Y64.393 E33.69482
G1 X29.177 Y63.922 E33.72907
G1 X29.527 Y63.283 E33.77676
G1 X29.820 Y62.818 E33.81272
G1 X30.241 Y62.229 E33.86011
G1 X30.550 Y61.841 E33.89258
G1 X31.042 Y61.285 E33.94118
G1 X31.430 Y60.897 E33.97715
G1 X31.984 Y60.407 E34.02558
G1 X32.724 Y59.844 E34.08639
G1 X33.377 Y59.414 E34.13761
G1 X33.646 Y59.776 F3900.000
G1 F900
G1 X34.305 Y59.417 E34.18676
G1 X34.664 Y59.244 E34.21283
G1 X35.366 Y58.947 E34.26275
G1 X35.837 Y58.782 E34.29542
G1 X36.783 Y58.524 E34.35960
G1 X132.513 Y37.255 E40.77937
G1 X134.947 Y36.876 E40.94059
G1 X135.966 Y36.730 E41.00803
G1 X136.414 Y36.689 E41.03748
G1 X139.369 Y36.573 E41.23106
G1 X139.870 Y36.578 E41.26387
G1 X142.202 Y36.732 E41.41684
G1 X143.189 Y36.821 E41.48175
G1 X143.673 Y36.893 E41.51376
G1 X146.423 Y37.396 E41.69679
G1 X147.239 Y37.605 E41.75191
G1 X149.840 Y38.382 E41.92965
G1 X150.702 Y38.712 E41.99005
G1 X152.694 Y39.540 E42.13127
G1 X153.373 Y39.857 E42.18034
G1 X154.018 Y40.201 E42.22819
G1 X155.908 Y41.240 E42.36942
G1 X156.501 Y41.606 E42.41502
G1 X158.992 Y43.353 E42.61420
G1 X159.373 Y43.652 E42.64588
G1 X161.668 Y45.667 E42.84583
G1 X162.012 Y46.004 E42.87734
G1 X164.160 Y48.361 E43.08609
G1 X164.443 Y48.708 E43.11545
G1 X166.187 Y51.095 E43.30893
G1 X166.555 Y51.669 E43.35359
G1 X167.635 Y53.536 E43.49482
G1 X168.111 Y54.404 E43.55962
G1 X172.409 Y63.522 E44.21952
G1 X172.833 Y65.418 E44.34670
G1 X172.833 Y134.579 E48.87430
G1 X172.411 Y136.472 E49.00124
G1 X168.383 Y145.042 E49.62114
G1 X166.982 Y147.637 E49.81420
G1 X166.655 Y148.172 E49.85528
G1 X165.040 Y150.523 E50.04198
G1 X164.764 Y150.883 E50.07167
G1 X162.876 Y153.102 E50.26246
G1 X162.574 Y153.422 E50.29127
G1 X160.349 Y155.543 E50.49246
G1 X157.924 Y157.440 E50.69401
G1 X157.362 Y157.826 E50.73865
G1 X155.649 Y158.901 E50.87103
G1 X154.885 Y159.356 E50.92925
G1 X152.624 Y160.486 E51.09473
G1 X152.125 Y160.720 E51.13081
G1 X151.428 Y161.004 E51.18007
G1 X149.003 Y161.896 E51.34920
G1 X148.113 Y162.148 E51.40976
G1 X146.157 Y162.658 E51.54213
G1 X145.495 Y162.798 E51.58643
G1 X142.676 Y163.232 E51.77313
G1 X142.225 Y163.279 E51.80281
G1 X139.358 Y163.421 E51.99075
G1 X138.908 Y163.420 E52.02018
G1 X135.743 Y163.244 E52.22772
G1 X135.279 Y163.192 E52.25828
G1 X132.144 Y162.664 E52.46636
G1 X36.783 Y141.474 E58.86146
G1 X35.837 Y141.215 E58.92564
G1 X35.006 Y140.901 E58.98380
G1 X34.305 Y140.581 E59.03426
G1 X33.646 Y140.222 E59.08341
G1 X33.223 Y139.956 E59.11608
G1 X32.612 Y139.517 E59.16532
G1 X32.282 Y139.253 E59.19302
G1 X31.730 Y138.765 E59.24123
G1 X31.377 Y138.413 E59.27389
G1 X30.887 Y137.859 E59.32230
G1 X30.607 Y137.507 E59.35179
G1 X30.186 Y136.919 E59.39906
G1 X29.921 Y136.497 E59.43171
G1 X29.572 Y135.860 E59.47929
G1 X29.366 Y135.431 E59.51040
G1 X29.086 Y134.755 E59.55833
G1 X28.927 Y134.299 E59.58995
G1 X28.726 Y133.600 E59.63756
G1 X28.620 Y133.125 E59.66941
G1 X28.499 Y132.406 E59.71713
G1 X28.446 Y131.924 E59.74890
G1 X28.410 Y131.007 E59.80893
G1 X28.410 Y68.962 E63.87072
G1 X28.446 Y68.074 E63.92890
G1 X28.499 Y67.592 E63.96067
G1 X28.620 Y66.873 E64.00839
G1 X28.726 Y66.398 E64.04025
G1 X28.927 Y65.699 E64.08786
G1 X29.169 Y65.039 E64.13385
G1 X29.366 Y64.566 E64.16739
G1 X29.572 Y64.138 E64.19850
G1 X29.921 Y63.501 E64.24608
G1 X30.186 Y63.078 E64.27874
G1 X30.607 Y62.491 E64.32600
G1 X30.887 Y62.139 E64.35549
G1 X31.377 Y61.585 E64.40390
G1 X31.730 Y61.232 E64.43656
G1 X32.282 Y60.744 E64.48477
G1 X32.984 Y60.211 E64.54250
G1 X33.595 Y59.808 E64.59042
G1 E61.09042 F3000.00000
G92 E0
G1 X116.508 Y133.264 F3900.000
G1 E3.50000 F3000.00000
G1 F900
G1 X120.003 Y133.264 E3.72880
G1 X120.355 Y135.313 E3.86489
G1 X120.963 Y137.411 E4.00789
G1 X121.803 Y139.417 E4.15031
G1 X122.865 Y141.326 E4.29328
G1 X124.135 Y143.093 E4.43573
G1 X125.597 Y144.714 E4.57867
G1 X127.232 Y146.151 E4.72117
G1 X129.020 Y147.404 E4.86405
G1 X130.939 Y148.440 E5.00685
G1 X131.248 Y148.569 E5.02876
G1 X132.958 Y149.258 E5.14943
G1 X134.734 Y149.750 E5.27010
G1 X135.055 Y149.835 E5.29181
G1 X137.212 Y150.181 E5.43481
G1 X139.389 Y150.273 E5.57750
G1 X141.564 Y150.127 E5.72019
G1 X143.708 Y149.728 E5.86295
G1 X145.793 Y149.099 E6.00556
G1 X147.794 Y148.229 E6.14839
G1 X149.685 Y147.148 E6.29094
G1 X151.440 Y145.851 E6.43383
G1 X153.039 Y144.374 E6.57632
G1 X154.460 Y142.716 E6.71926
G1 X155.686 Y140.919 E6.86171
G1 X156.701 Y138.984 E7.00469
G1 X157.491 Y136.957 E7.14712
G1 X157.671 Y136.276 E7.19327
G1 X161.271 Y136.276 E7.42896
G1 X160.814 Y137.896 E7.53913
G1 X160.084 Y139.857 E7.67616
G1 X159.898 Y140.300 E7.70761
G1 X158.772 Y142.491 E7.86888
G1 X157.295 Y144.705 E8.04308
G1 X155.615 Y146.683 E8.21296
G1 X153.761 Y148.422 E8.37943
G1 X151.581 Y150.040 E8.55711
G1 X149.301 Y151.347 E8.72918
G1 X147.150 Y152.276 E8.88257
G1 X146.699 Y152.445 E8.91410
G1 X144.362 Y153.133 E9.07354
G1 X141.715 Y153.593 E9.24942
G1 X139.622 Y153.714 E9.38669
G1 X139.143 Y153.732 E9.41809
G1 X136.375 Y153.568 E9.59962
G1 X133.764 Y153.089 E9.77333
G1 X133.270 Y152.951 E9.80692
G1 X130.985 Y152.222 E9.96398
G1 X128.685 Y151.180 E10.12927
G1 X128.232 Y150.939 E10.16289
G1 X126.084 Y149.609 E10.32826
G1 X124.204 Y148.120 E10.48523
G1 X123.814 Y147.786 E10.51885
G1 X121.924 Y145.842 E10.69636
G1 X120.579 Y144.084 E10.84127
G1 X120.271 Y143.675 E10.87481
G1 X118.865 Y141.277 E11.05674
G1 X117.809 Y138.845 E11.23033
G1 X117.647 Y138.358 E11.26392
G1 X116.979 Y136.053 E11.42104
G1 X116.518 Y133.323 E11.60228
G1 X117.040 Y133.714 F3900.000
G1 F900
G1 X119.624 Y133.714 E11.77142
G1 X119.916 Y135.414 E11.88433
G1 X120.538 Y137.561 E12.03067
G1 X121.398 Y139.614 E12.17642
G1 X122.485 Y141.567 E12.32274
G1 X123.785 Y143.375 E12.46852
G1 X125.281 Y145.035 E12.61479
G1 X126.954 Y146.506 E12.76062
G1 X128.783 Y147.788 E12.90684
G1 X130.746 Y148.846 E13.05282
G1 X131.077 Y148.985 E13.07637
G1 X132.813 Y149.685 E13.19889
G1 X134.617 Y150.185 E13.32141
G1 X134.962 Y150.275 E13.34475
G1 X137.166 Y150.630 E13.49093
G1 X139.395 Y150.723 E13.63696
G1 X141.620 Y150.574 E13.78298
G1 X143.814 Y150.166 E13.92907
G1 X145.949 Y149.522 E14.07502
G1 X147.996 Y148.631 E14.22118
G1 X149.931 Y147.525 E14.36706
G1 X151.727 Y146.198 E14.51329
G1 X153.364 Y144.687 E14.65911
G1 X154.818 Y142.990 E14.80539
G1 X156.072 Y141.151 E14.95117
G1 X157.111 Y139.171 E15.09749
G1 X157.919 Y137.097 E15.24324
G1 X158.017 Y136.726 E15.26838
G1 X160.677 Y136.726 E15.44247
G1 X160.386 Y137.756 E15.51254
G1 X159.666 Y139.691 E15.64775
G1 X159.490 Y140.110 E15.67746
G1 X158.384 Y142.263 E15.83592
G1 X156.935 Y144.433 E16.00674
G1 X155.289 Y146.372 E16.17325
G1 X153.472 Y148.077 E16.33635
G1 X151.334 Y149.663 E16.51059
G1 X149.099 Y150.944 E16.67927
G1 X146.982 Y151.859 E16.83024
G1 X146.556 Y152.018 E16.85998
G1 X144.260 Y152.694 E17.01670
G1 X141.664 Y153.145 E17.18921
G1 X139.600 Y153.264 E17.32451
G1 X139.147 Y153.282 E17.35419
G1 X136.429 Y153.121 E17.53247
G1 X133.866 Y152.650 E17.70306
G1 X133.399 Y152.520 E17.73476
G1 X131.147 Y151.801 E17.88956
G1 X128.884 Y150.776 E18.05219
G1 X128.456 Y150.548 E18.08391
G1 X126.342 Y149.240 E18.24662
G1 X124.490 Y147.772 E18.40134
G1 X124.122 Y147.458 E18.43306
G1 X122.265 Y145.548 E18.60745
G1 X120.938 Y143.812 E18.75051
G1 X120.646 Y143.425 E18.78225
G1 X119.267 Y141.073 E18.96070
G1 X118.229 Y138.685 E19.13118
G1 X118.077 Y138.225 E19.16289
G1 X117.418 Y135.953 E19.31776
G1 X117.050 Y133.773 E19.46247
G1 X117.010 Y133.315 F3900.000
G1 E15.96247 F3000.00000
G92 E0
G1 X116.524 Y128.731 F3900.000
G1 E3.50000 F3000.00000
G1 F900
G1 X116.663 Y127.625 E3.57297
G1 X117.222 Y124.975 E3.75030
G1 X118.099 Y122.395 E3.92868
G1 X119.307 Y119.890 E4.11074
G1 X120.736 Y117.658 E4.28423
G1 X121.050 Y117.252 E4.31782
G1 X122.592 Y115.411 E4.47505
G1 X124.424 Y113.677 E4.64017
G1 X124.818 Y113.350 E4.67371
G1 X126.599 Y112.046 E4.81822
G1 X127.026 Y111.763 E4.85176
G1 X129.293 Y110.505 E5.02147
G1 X131.928 Y109.435 E5.20767
G1 X134.554 Y108.726 E5.38575
G1 X137.303 Y108.332 E5.56753
G1 X140.090 Y108.276 E5.74998
G1 X142.661 Y108.534 E5.91918
G1 X143.167 Y108.624 E5.95280
G1 X145.571 Y109.182 E6.11434
G1 X148.184 Y110.129 E6.29633
G1 X150.323 Y111.206 E6.45312
G1 X150.773 Y111.454 E6.48673
G1 X153.018 Y112.976 E6.66429
G1 X155.076 Y114.765 E6.84283
G1 X156.938 Y116.831 E7.02488
G1 X158.463 Y118.995 E7.19821
G1 X158.720 Y119.440 E7.23180
G1 X159.842 Y121.566 E7.38920
G1 X160.753 Y123.915 E7.55415
G1 X160.907 Y124.404 E7.58769
G1 X161.235 Y125.719 E7.67646
G1 X157.671 Y125.719 E7.90980
G1 X157.491 Y125.038 E7.95596
G1 X156.701 Y123.011 E8.09839
G1 X155.686 Y121.076 E8.24136
G1 X154.460 Y119.279 E8.38381
G1 X153.039 Y117.621 E8.52675
G1 X151.440 Y116.144 E8.66925
G1 X149.685 Y114.847 E8.81213
G1 X147.794 Y113.766 E8.95468
G1 X145.793 Y112.896 E9.09751
G1 X143.708 Y112.267 E9.24013
G1 X141.564 Y111.868 E9.38289
G1 X139.389 Y111.722 E9.52557
G1 X137.212 Y111.814 E9.66826
G1 X135.055 Y112.160 E9.81127
G1 X134.734 Y112.245 E9.83298
G1 X132.958 Y112.737 E9.95364
G1 X131.248 Y113.427 E10.07432
G1 X130.939 Y113.556 E10.09623
G1 X129.020 Y114.591 E10.23902
G1 X127.232 Y115.844 E10.38191
G1 X125.597 Y117.281 E10.52440
G1 X124.135 Y118.902 E10.66734
G1 X122.865 Y120.669 E10.80979
G1 X121.803 Y122.578 E10.95277
G1 X120.963 Y124.584 E11.09519
G1 X120.355 Y126.682 E11.23819
G1 X120.003 Y128.731 E11.37428
G1 X116.584 Y128.731 E11.59809
G1 X117.034 Y128.281 F3900.000
G1 F900
G1 X117.107 Y127.700 E11.63646
G1 X117.656 Y125.094 E11.81079
G1 X118.516 Y122.566 E11.98561
G1 X119.700 Y120.110 E12.16411
G1 X121.104 Y117.917 E12.33451
G1 X121.400 Y117.534 E12.36622
G1 X122.920 Y115.719 E12.52118
G1 X124.723 Y114.014 E12.68365
G1 X125.095 Y113.704 E12.71534
G1 X126.856 Y112.415 E12.85825
G1 X127.260 Y112.148 E12.88993
G1 X129.488 Y110.911 E13.05677
G1 X132.068 Y109.863 E13.23906
G1 X134.645 Y109.168 E13.41382
G1 X137.343 Y108.781 E13.59222
G1 X140.071 Y108.727 E13.77086
G1 X142.599 Y108.980 E13.93720
G1 X143.076 Y109.065 E13.96892
G1 X145.443 Y109.614 E14.12794
G1 X148.006 Y110.542 E14.30641
G1 X150.113 Y111.605 E14.46091
G1 X150.538 Y111.838 E14.49263
G1 X152.743 Y113.333 E14.66704
G1 X154.760 Y115.087 E14.84203
G1 X156.586 Y117.112 E15.02052
G1 X158.083 Y119.238 E15.19076
G1 X158.326 Y119.657 E15.22247
G1 X159.432 Y121.753 E15.37759
G1 X160.328 Y124.064 E15.53989
G1 X160.474 Y124.526 E15.57158
G1 X160.659 Y125.270 E15.62175
G1 X158.017 Y125.270 E15.79471
G1 X157.919 Y124.898 E15.81986
G1 X157.111 Y122.824 E15.96561
G1 X156.072 Y120.845 E16.11193
G1 X154.818 Y119.005 E16.25770
G1 X153.364 Y117.308 E16.40398
G1 X151.727 Y115.797 E16.54980
G1 X149.931 Y114.470 E16.69603
G1 X147.996 Y113.364 E16.84191
G1 X145.949 Y112.473 E16.98808
G1 X143.814 Y111.829 E17.13402
G1 X141.620 Y111.421 E17.28012
G1 X139.395 Y111.272 E17.42614
G1 X137.166 Y111.365 E17.57216
G1 X134.962 Y111.720 E17.71834
G1 X134.617 Y111.811 E17.74169
G1 X132.813 Y112.310 E17.86421
G1 X131.077 Y113.010 E17.98673
G1 X130.746 Y113.149 E18.01028
G1 X128.783 Y114.207 E18.15626
G1 X126.954 Y115.489 E18.30248
G1 X125.281 Y116.960 E18.44831
G1 X123.785 Y118.620 E18.59458
G1 X122.485 Y120.428 E18.74036
G1 X121.398 Y122.381 E18.88668
G1 X120.538 Y124.434 E19.03242
G1 X119.916 Y126.581 E19.17877
G1 X119.624 Y128.281 E19.29168
G1 X117.094 Y128.281 E19.45729
G1 X116.636 Y128.319 F3900.000
G1 X116.015 Y129.181 F3900.000
G1 F900
G1 X120.383 Y129.181 E19.74323
G1 X120.794 Y126.783 E19.90249
G1 X121.388 Y124.734 E20.04215
G1 X122.209 Y122.775 E20.18124
G1 X123.246 Y120.911 E20.32088
G1 X124.486 Y119.185 E20.46000
G1 X125.914 Y117.601 E20.59960
G1 X127.511 Y116.198 E20.73877
G1 X129.256 Y114.974 E20.87831
G1 X131.133 Y113.962 E21.01792
G1 X133.103 Y113.164 E21.15703
G1 X135.148 Y112.601 E21.29591
G1 X137.257 Y112.262 E21.43573
G1 X139.384 Y112.173 E21.57509
G1 X141.508 Y112.315 E21.71444
G1 X143.601 Y112.705 E21.85387
G1 X145.638 Y113.319 E21.99315
G1 X147.592 Y114.169 E22.13264
G1 X149.438 Y115.225 E22.27186
G1 X151.153 Y116.491 E22.41141
G1 X152.715 Y117.934 E22.55057
G1 X154.103 Y119.553 E22.69018
G1 X155.300 Y121.308 E22.82929
G1 X156.290 Y123.197 E22.96893
G1 X157.062 Y125.177 E23.10804
G1 X157.241 Y125.854 E23.15384
G1 X154.435 Y125.856 E23.33754
G1 X154.036 Y124.702 E23.41745
G1 X153.090 Y122.826 E23.55503
G1 X151.904 Y121.072 E23.69361
G1 X150.504 Y119.503 E23.83127
G1 X148.910 Y118.117 E23.96957
G1 X147.155 Y116.966 E24.10696
G1 X145.253 Y116.035 E24.24558
