; generated by Slic3r 1.3.0 on 2022-03-30 at 14:08:29

; external perimeters extrusion width = 0.44mm (0.85mm^3/s)
; perimeters extrusion width = 0.48mm (3.77mm^3/s)
; infill extrusion width = 0.48mm (4.40mm^3/s)
; solid infill extrusion width = 0.48mm (1.26mm^3/s)
; top infill extrusion width = 0.48mm (0.88mm^3/s)

M190 S65 ; set bed temperature and wait for it to be reached
M104 S205 ; set temperature
; M106 P0 S255 ; turn hot-end fan on
G28 ; home all axes
G1 Z5 F5000 ; lift nozzle


; Filament gcode

M109 S205 ; set temperature and wait for it to be reached
G21 ; set units to millimeters
G90 ; use absolute coordinates
M82 ; use absolute distances for extrusion
G92 E0
G1 Z-0.150 F3900.000
G1 E-3.50000 F3000.00000
G92 E0
G1 X100.682 Y84.687 F3900.000
G1 E3.50000 F3000.00000
G1 F900
G1 X101.348 Y84.085 E3.55874
G1 X101.745 Y83.768 E3.59204
G1 X102.244 Y83.408 E3.63231
G1 X102.752 Y83.089 E3.67158
G1 X103.292 Y82.796 E3.71180
G1 X103.723 Y82.588 E3.74314
G1 X104.301 Y82.343 E3.78424
G1 X104.868 Y82.145 E3.82352
G1 X105.472 Y81.976 E3.86462
G1 X105.919 Y81.874 E3.89461
G1 X106.544 Y81.762 E3.93618
G1 X107.140 Y81.695 E3.97545
G1 X107.775 Y81.665 E4.01703
G1 X108.225 Y81.665 E4.04654
G1 X108.860 Y81.695 E4.08812
G1 X109.456 Y81.762 E4.12739
G1 X110.081 Y81.874 E4.16896
G1 X110.528 Y81.976 E4.19896
G1 X111.132 Y82.145 E4.24006
G1 X111.699 Y82.343 E4.27933
G1 X112.277 Y82.588 E4.32043
G1 X112.708 Y82.796 E4.35178
G1 X113.248 Y83.089 E4.39200
G1 X113.756 Y83.408 E4.43127
G1 X114.255 Y83.768 E4.47154
G1 X114.652 Y84.085 E4.50484
G1 X115.100 Y84.480 E4.54394
G1 X115.568 Y84.954 E4.58750
G1 X115.921 Y85.354 E4.62246
G1 X116.259 Y85.778 E4.65791
G1 X116.619 Y86.283 E4.69854
G1 X116.913 Y86.755 E4.73494
G1 X117.196 Y87.270 E4.77339
G1 X117.552 Y88.046 E4.82930
G1 X117.861 Y88.882 E4.88762
G1 X118.022 Y89.446 E4.92603
G1 X118.150 Y90.016 E4.96433
G1 X118.251 Y90.623 E5.00460
G1 X118.330 Y91.428 E5.05754
G1 X118.341 Y92.338 E5.11708
G1 X118.301 Y92.957 E5.15769
G1 X118.150 Y93.984 E5.22564
G1 X117.971 Y94.736 E5.27629
G1 X117.861 Y95.118 E5.30234
G1 X117.670 Y95.667 E5.34036
G1 X117.444 Y96.216 E5.37921
G1 X117.196 Y96.730 E5.41660
G1 X116.913 Y97.245 E5.45506
G1 X116.619 Y97.717 E5.49145
G1 X116.259 Y98.222 E5.53208
G1 X115.921 Y98.646 E5.56754
G1 X115.524 Y99.095 E5.60679
G1 X99.318 Y115.313 E7.10772
G1 X98.652 Y115.915 E7.16646
G1 X98.255 Y116.232 E7.19976
G1 X97.756 Y116.592 E7.24002
G1 X97.248 Y116.911 E7.27930
G1 X96.708 Y117.204 E7.31952
G1 X95.874 Y117.584 E7.37952
G1 X95.132 Y117.855 E7.43121
G1 X94.528 Y118.024 E7.47231
G1 X94.081 Y118.126 E7.50230
G1 X93.456 Y118.238 E7.54387
G1 X92.860 Y118.305 E7.58315
G1 X92.225 Y118.335 E7.62472
G1 X91.775 Y118.335 E7.65424
G1 X91.140 Y118.305 E7.69581
G1 X90.544 Y118.238 E7.73509
G1 X89.919 Y118.126 E7.77666
G1 X89.472 Y118.024 E7.80665
G1 X88.868 Y117.855 E7.84775
G1 X88.301 Y117.657 E7.88702
G1 X87.723 Y117.412 E7.92812
G1 X87.292 Y117.204 E7.95947
G1 X86.752 Y116.911 E7.99969
G1 X86.244 Y116.592 E8.03896
G1 X85.745 Y116.232 E8.07923
G1 X85.348 Y115.915 E8.11253
G1 X84.900 Y115.520 E8.15163
G1 X84.476 Y115.095 E8.19090
G1 X84.079 Y114.646 E8.23015
G1 X83.741 Y114.222 E8.26561
G1 X83.459 Y113.828 E8.29737
G1 X83.087 Y113.245 E8.34262
G1 X82.804 Y112.730 E8.38108
G1 X82.556 Y112.216 E8.41847
G1 X82.330 Y111.667 E8.45732
G1 X82.139 Y111.118 E8.49534
G1 X81.978 Y110.554 E8.53376
G1 X81.850 Y109.984 E8.57205
G1 X81.749 Y109.377 E8.61232
G1 X81.699 Y108.957 E8.64002
G1 X81.659 Y108.338 E8.68063
G1 X81.675 Y107.360 E8.74466
G1 X81.749 Y106.623 E8.79311
G1 X81.805 Y106.280 E8.81587
G1 X81.978 Y105.446 E8.87165
G1 X82.139 Y104.882 E8.91007
G1 X82.330 Y104.333 E8.94809
G1 X82.556 Y103.784 E8.98694
G1 X82.804 Y103.270 E9.02433
G1 X83.087 Y102.755 E9.06279
G1 X83.381 Y102.283 E9.09919
G1 X83.741 Y101.778 E9.13982
G1 X84.079 Y101.354 E9.17527
G1 X84.476 Y100.905 E9.21452
G1 X100.639 Y84.729 E10.71153
G1 X101.000 Y85.005 F3900.000
G1 F900
G1 X101.645 Y84.423 E10.76840
G1 X102.009 Y84.132 E10.79889
G1 X102.504 Y83.775 E10.83888
G1 X102.970 Y83.483 E10.87484
G1 X103.900 Y83.001 E10.94345
G1 X104.474 Y82.759 E10.98419
G1 X104.992 Y82.577 E11.02016
G1 X105.591 Y82.410 E11.06088
G1 X106.619 Y82.206 E11.12950
G1 X107.165 Y82.144 E11.16547
G1 X107.794 Y82.114 E11.20664
G1 X108.835 Y82.144 E11.27482
G1 X109.381 Y82.206 E11.31079
G1 X110.409 Y82.410 E11.37941
G1 X111.008 Y82.577 E11.42013
G1 X111.526 Y82.759 E11.45610
G1 X112.100 Y83.001 E11.49684
G1 X113.030 Y83.483 E11.56544
G1 X113.496 Y83.775 E11.60141
G1 X113.991 Y84.132 E11.64140
G1 X114.355 Y84.423 E11.67189
G1 X114.801 Y84.816 E11.71078
G1 X115.233 Y85.253 E11.75104
G1 X115.584 Y85.652 E11.78580
G1 X115.893 Y86.040 E11.81827
G1 X116.250 Y86.541 E11.85856
G1 X116.520 Y86.973 E11.89189
G1 X116.802 Y87.486 E11.93022
G1 X117.136 Y88.216 E11.98281
G1 X117.428 Y89.006 E12.03793
G1 X117.589 Y89.568 E12.07622
G1 X117.707 Y90.091 E12.11129
G1 X117.807 Y90.694 E12.15134
G1 X117.881 Y91.458 E12.20155
G1 X117.893 Y92.272 E12.25483
G1 X117.853 Y92.921 E12.29741
G1 X117.707 Y93.909 E12.36281
G1 X117.538 Y94.614 E12.41024
G1 X117.254 Y95.497 E12.47096
G1 X117.028 Y96.043 E12.50964
G1 X116.802 Y96.514 E12.54389
G1 X116.520 Y97.027 E12.58221
G1 X116.250 Y97.459 E12.61555
G1 X115.893 Y97.960 E12.65583
G1 X115.584 Y98.348 E12.68831
G1 X115.000 Y98.995 E12.74535
G1 X99.000 Y114.995 E14.22665
G1 X98.355 Y115.577 E14.28352
G1 X97.991 Y115.868 E14.31401
G1 X97.496 Y116.225 E14.35399
G1 X97.030 Y116.517 E14.38997
G1 X96.495 Y116.808 E14.42988
G1 X95.702 Y117.169 E14.48688
G1 X95.008 Y117.423 E14.53527
G1 X94.409 Y117.590 E14.57599
G1 X93.381 Y117.794 E14.64461
G1 X92.835 Y117.856 E14.68058
G1 X92.206 Y117.886 E14.72175
G1 X91.165 Y117.856 E14.78992
G1 X90.619 Y117.794 E14.82590
G1 X89.591 Y117.590 E14.89452
G1 X88.992 Y117.423 E14.93524
G1 X88.474 Y117.241 E14.97121
G1 X87.900 Y116.999 E15.01195
G1 X87.506 Y116.808 E15.04066
G1 X86.970 Y116.517 E15.08057
G1 X86.504 Y116.225 E15.11654
G1 X86.009 Y115.868 E15.15653
G1 X85.645 Y115.577 E15.18702
G1 X85.199 Y115.184 E15.22591
G1 X84.811 Y114.796 E15.26188
G1 X84.416 Y114.348 E15.30093
G1 X83.825 Y113.566 E15.36515
G1 X83.480 Y113.027 E15.40700
G1 X83.198 Y112.514 E15.44532
G1 X82.972 Y112.043 E15.47957
G1 X82.746 Y111.497 E15.51825
G1 X82.572 Y110.994 E15.55307
G1 X82.411 Y110.432 E15.59136
G1 X82.293 Y109.909 E15.62644
G1 X82.193 Y109.306 E15.66647
G1 X82.147 Y108.921 E15.69185
G1 X82.109 Y108.323 E15.73106
G1 X82.123 Y107.392 E15.79204
G1 X82.193 Y106.694 E15.83791
G1 X82.249 Y106.355 E15.86045
G1 X82.411 Y105.568 E15.91301
G1 X82.572 Y105.006 E15.95131
G1 X82.746 Y104.503 E15.98613
G1 X82.972 Y103.957 E16.02481
G1 X83.198 Y103.486 E16.05906
G1 X83.480 Y102.973 E16.09738
G1 X83.750 Y102.541 E16.13072
G1 X84.107 Y102.040 E16.17100
G1 X84.416 Y101.652 E16.20348
G1 X84.811 Y101.204 E16.24253
G1 X100.957 Y85.047 E17.73789
G1 X101.318 Y85.323 F3900.000
G1 F900
G1 X101.942 Y84.761 E17.79289
G1 X102.273 Y84.497 E17.82058
G1 X102.765 Y84.142 E17.86028
G1 X103.187 Y83.877 E17.89295
G1 X104.078 Y83.415 E17.95861
G1 X104.646 Y83.174 E17.99899
G1 X105.117 Y83.010 E18.03166
G1 X105.710 Y82.844 E18.07200
G1 X106.695 Y82.649 E18.13770
G1 X107.191 Y82.593 E18.17036
G1 X107.812 Y82.564 E18.21112
G1 X108.809 Y82.593 E18.27641
G1 X109.305 Y82.649 E18.30907
G1 X110.290 Y82.844 E18.37477
G1 X110.883 Y83.010 E18.41511
G1 X111.354 Y83.174 E18.44778
G1 X111.922 Y83.415 E18.48816
G1 X112.813 Y83.877 E18.55382
G1 X113.235 Y84.142 E18.58649
G1 X113.727 Y84.496 E18.62619
G1 X114.501 Y85.151 E18.69253
G1 X114.897 Y85.553 E18.72949
G1 X115.527 Y86.302 E18.79352
G1 X115.881 Y86.798 E18.83347
G1 X116.126 Y87.191 E18.86375
G1 X116.407 Y87.702 E18.90193
G1 X116.720 Y88.387 E18.95121
G1 X116.996 Y89.130 E19.00314
G1 X117.156 Y89.691 E19.04131
G1 X117.263 Y90.166 E19.07316
G1 X117.362 Y90.766 E19.11297
G1 X117.432 Y91.488 E19.16046
G1 X117.443 Y92.262 E19.21116
G1 X117.404 Y92.885 E19.25203
G1 X117.263 Y93.834 E19.31487
G1 X117.105 Y94.491 E19.35908
G1 X116.837 Y95.326 E19.41648
G1 X116.613 Y95.870 E19.45499
G1 X116.407 Y96.298 E19.48609
G1 X116.126 Y96.809 E19.52428
G1 X115.881 Y97.202 E19.55456
G1 X115.527 Y97.698 E19.59450
G1 X115.247 Y98.051 E19.62399
G1 X114.682 Y98.677 E19.67919
G1 X98.682 Y114.677 E21.16049
G1 X98.058 Y115.239 E21.21549
G1 X97.727 Y115.504 E21.24318
G1 X97.235 Y115.858 E21.28288
G1 X96.813 Y116.123 E21.31555
G1 X96.281 Y116.412 E21.35515
G1 X95.530 Y116.753 E21.40916
G1 X94.883 Y116.990 E21.45425
G1 X94.290 Y117.156 E21.49459
G1 X93.305 Y117.351 E21.56029
G1 X92.809 Y117.407 E21.59296
G1 X92.188 Y117.436 E21.63371
G1 X91.191 Y117.407 E21.69900
G1 X90.695 Y117.351 E21.73167
G1 X90.082 Y117.241 E21.77243
G1 X89.117 Y116.990 E21.83770
G1 X88.646 Y116.826 E21.87037
G1 X87.719 Y116.412 E21.93681
G1 X87.187 Y116.123 E21.97641
G1 X86.765 Y115.858 E22.00908
G1 X86.273 Y115.504 E22.04878
G1 X85.499 Y114.849 E22.11512
G1 X85.146 Y114.496 E22.14779
G1 X84.753 Y114.051 E22.18665
G1 X84.190 Y113.304 E22.24789
G1 X83.874 Y112.809 E22.28633
G1 X83.593 Y112.298 E22.32452
G1 X83.387 Y111.870 E22.35563
G1 X83.163 Y111.326 E22.39414
G1 X83.004 Y110.870 E22.42576
G1 X82.844 Y110.309 E22.46393
G1 X82.737 Y109.834 E22.49578
G1 X82.638 Y109.235 E22.53559
G1 X82.558 Y108.309 E22.59643
G1 X82.572 Y107.424 E22.65436
G1 X82.638 Y106.766 E22.69766
G1 X82.691 Y106.441 E22.71922
G1 X82.844 Y105.691 E22.76932
G1 X83.004 Y105.130 E22.80748
G1 X83.163 Y104.674 E22.83911
G1 X83.387 Y104.130 E22.87762
G1 X83.593 Y103.702 E22.90872
G1 X83.874 Y103.191 E22.94691
G1 X84.119 Y102.798 E22.97719
G1 X84.473 Y102.302 E23.01713
G1 X84.753 Y101.949 E23.04662
G1 X85.146 Y101.504 E23.08549
G1 X101.275 Y85.365 E24.57919
G1 E21.07919 F3000.00000
G92 E0
G1 X110.998 Y94.383 F3900.000
G1 E3.50000 F3000.00000
G1 F900
G1 X110.712 Y94.707 E3.52826
G1 X110.392 Y94.990 E3.55625
G1 X110.041 Y95.242 E3.58456
G1 X109.664 Y95.447 E3.61260
G1 X109.267 Y95.615 E3.64086
G1 X108.854 Y95.730 E3.66895
G1 X108.429 Y95.806 E3.69715
G1 X108.000 Y95.827 E3.72530
G1 X107.571 Y95.806 E3.75345
G1 X107.146 Y95.730 E3.78165
G1 X106.733 Y95.615 E3.80974
G1 X106.336 Y95.447 E3.83800
G1 X105.959 Y95.242 E3.86604
G1 X105.608 Y94.990 E3.89435
G1 X105.288 Y94.707 E3.92234
G1 X105.002 Y94.383 E3.95060
G1 X104.710 Y93.957 E3.98443
G1 X104.545 Y93.657 E4.00683
G1 X104.380 Y93.257 E4.03518
G1 X104.261 Y92.841 E4.06348
G1 X104.188 Y92.403 E4.09255
G1 X104.167 Y92.025 E4.11735
G1 X104.189 Y91.594 E4.14561
G1 X104.261 Y91.159 E4.17447
G1 X104.380 Y90.743 E4.20277
G1 X104.545 Y90.343 E4.23112
G1 X104.710 Y90.043 E4.25352
G1 X105.002 Y89.617 E4.28735
G1 X105.288 Y89.293 E4.31560
G1 X105.608 Y89.010 E4.34360
G1 X105.959 Y88.758 E4.37190
G1 X106.336 Y88.553 E4.39995
G1 X106.733 Y88.385 E4.42820
G1 X107.146 Y88.270 E4.45630
G1 X107.571 Y88.194 E4.48450
G1 X108.003 Y88.173 E4.51284
G1 X108.424 Y88.193 E4.54046
G1 X108.854 Y88.270 E4.56900
G1 X109.267 Y88.385 E4.59709
G1 X109.664 Y88.553 E4.62535
G1 X110.041 Y88.758 E4.65339
G1 X110.392 Y89.010 E4.68170
G1 X110.712 Y89.293 E4.70969
G1 X110.998 Y89.617 E4.73795
G1 X111.290 Y90.043 E4.77178
G1 X111.455 Y90.343 E4.79418
G1 X111.620 Y90.743 E4.82253
G1 X111.739 Y91.159 E4.85083
G1 X111.811 Y91.594 E4.87969
G1 X111.833 Y92.025 E4.90794
G1 X111.812 Y92.403 E4.93275
G1 X111.739 Y92.841 E4.96182
G1 X111.620 Y93.257 E4.99012
G1 X111.455 Y93.657 E5.01847
G1 X111.249 Y94.032 E5.04645
G1 X111.033 Y94.334 E5.07080
G1 X111.335 Y94.681 F3900.000
G1 F900
G1 X111.031 Y95.026 E5.10089
G1 X110.673 Y95.342 E5.13218
G1 X110.281 Y95.624 E5.16381
G1 X109.860 Y95.852 E5.19514
G1 X109.416 Y96.041 E5.22672
G1 X108.954 Y96.170 E5.25811
G1 X108.480 Y96.254 E5.28963
G1 X108.000 Y96.277 E5.32108
G1 X107.520 Y96.254 E5.35254
G1 X107.046 Y96.170 E5.38405
G1 X106.584 Y96.041 E5.41545
G1 X106.140 Y95.852 E5.44702
G1 X105.719 Y95.624 E5.47836
G1 X105.327 Y95.342 E5.50999
G1 X104.969 Y95.026 E5.54127
G1 X104.649 Y94.664 E5.57289
G1 X104.316 Y94.174 E5.61167
G1 X104.139 Y93.852 E5.63575
G1 X103.954 Y93.405 E5.66739
G1 X103.821 Y92.940 E5.69903
G1 X103.741 Y92.453 E5.73139
G1 X103.717 Y92.026 E5.75936
G1 X103.741 Y91.545 E5.79086
G1 X103.821 Y91.060 E5.82309
G1 X103.954 Y90.595 E5.85473
G1 X104.139 Y90.148 E5.88637
G1 X104.316 Y89.826 E5.91045
G1 X104.649 Y89.336 E5.94923
G1 X104.969 Y88.974 E5.98085
G1 X105.327 Y88.658 E6.01213
G1 X105.719 Y88.376 E6.04376
G1 X106.140 Y88.148 E6.07510
G1 X106.584 Y87.959 E6.10667
G1 X107.046 Y87.830 E6.13807
G1 X107.520 Y87.746 E6.16958
G1 X108.002 Y87.723 E6.20116
G1 X108.477 Y87.745 E6.23229
G1 X108.954 Y87.830 E6.26401
G1 X109.416 Y87.959 E6.29540
G1 X109.860 Y88.148 E6.32698
G1 X110.281 Y88.376 E6.35831
G1 X110.673 Y88.658 E6.38994
G1 X111.031 Y88.974 E6.42123
G1 X111.351 Y89.336 E6.45285
G1 X111.684 Y89.826 E6.49162
G1 X111.861 Y90.148 E6.51571
G1 X112.046 Y90.595 E6.54735
G1 X112.179 Y91.060 E6.57899
G1 X112.259 Y91.545 E6.61122
G1 X112.283 Y92.026 E6.64272
G1 X112.259 Y92.453 E6.67068
G1 X112.179 Y92.940 E6.70305
G1 X112.046 Y93.405 E6.73469
G1 X111.861 Y93.852 E6.76632
G1 X111.684 Y94.174 E6.79041
G1 X111.372 Y94.634 E6.82678
G1 X111.673 Y94.979 F3900.000
G1 F900
G1 X111.350 Y95.345 E6.85872
G1 X110.954 Y95.694 E6.89329
G1 X110.520 Y96.006 E6.92824
G1 X110.055 Y96.258 E6.96287
G1 X109.565 Y96.466 E6.99777
G1 X109.054 Y96.609 E7.03246
G1 X108.530 Y96.702 E7.06729
G1 X108.000 Y96.727 E7.10205
G1 X107.470 Y96.702 E7.13681
G1 X106.946 Y96.609 E7.17164
G1 X106.435 Y96.466 E7.20633
G1 X105.945 Y96.258 E7.24123
G1 X105.480 Y96.006 E7.27586
G1 X105.046 Y95.694 E7.31081
G1 X104.650 Y95.345 E7.34538
G1 X104.297 Y94.944 E7.38037
G1 X103.989 Y94.513 E7.41506
G1 X103.922 Y94.391 E7.42414
G1 X103.732 Y94.046 E7.44992
G1 X103.529 Y93.553 E7.48483
G1 X103.382 Y93.039 E7.51982
G1 X103.293 Y92.502 E7.55547
G1 X103.266 Y92.027 E7.58659
G1 X103.293 Y91.497 E7.62134
G1 X103.382 Y90.961 E7.65694
G1 X103.529 Y90.447 E7.69193
G1 X103.732 Y89.954 E7.72684
G1 X103.922 Y89.609 E7.75262
G1 X103.989 Y89.487 E7.76170
G1 X104.297 Y89.056 E7.79639
G1 X104.650 Y88.655 E7.83137
G1 X105.046 Y88.306 E7.86595
G1 X105.480 Y87.994 E7.90090
G1 X105.945 Y87.742 E7.93553
G1 X106.435 Y87.534 E7.97043
G1 X106.946 Y87.391 E8.00512
G1 X107.470 Y87.298 E8.03995
G1 X108.001 Y87.273 E8.07475
G1 X108.529 Y87.298 E8.10939
G1 X109.054 Y87.391 E8.14430
G1 X109.565 Y87.534 E8.17899
G1 X110.055 Y87.742 E8.21389
G1 X110.520 Y87.994 E8.24852
G1 X110.954 Y88.306 E8.28347
G1 X111.350 Y88.655 E8.31804
G1 X111.703 Y89.056 E8.35303
G1 X112.011 Y89.487 E8.38772
G1 X112.078 Y89.609 E8.39680
G1 X112.268 Y89.954 E8.42257
G1 X112.471 Y90.447 E8.45749
G1 X112.618 Y90.961 E8.49248
G1 X112.707 Y91.497 E8.52808
G1 X112.734 Y92.027 E8.56282
G1 X112.707 Y92.502 E8.59395
G1 X112.618 Y93.039 E8.62960
G1 X112.471 Y93.553 E8.66459
G1 X112.268 Y94.046 E8.69950
G1 X112.078 Y94.391 E8.72528
G1 X111.711 Y94.933 E8.76813
G1 X111.278 Y94.915 F3900.000
G1 X110.345 Y94.437 F3900.000
G1 F900
G1 X110.690 Y94.058 E8.80174
G1 X110.954 Y93.674 E8.83236
G1 X111.096 Y93.415 E8.85170
G1 X111.242 Y93.061 E8.87682
G1 X111.306 Y92.838 E8.89202
G1 X108.844 Y95.301 E9.12046
G1 X108.331 Y95.406 E9.15477
G1 X108.089 Y95.417 E9.17068
G1 X111.424 Y92.083 E9.48006
G1 X111.411 Y91.594 E9.51211
G1 X111.391 Y91.478 E9.51987
G1 X107.480 Y95.389 E9.88276
G1 X107.199 Y95.339 E9.90148
G1 X106.959 Y95.272 E9.91780
G1 X111.275 Y90.957 E10.31815
G1 X111.099 Y90.495 E10.35055
G1 X106.499 Y95.095 E10.77728
G1 X106.091 Y94.865 E10.80798
G1 X110.861 Y90.095 E11.25051
G1 X110.588 Y89.730 E11.28039
G1 X105.731 Y94.588 E11.73102
G1 X105.558 Y94.436 E11.74611
G1 X105.412 Y94.270 E11.76065
G1 X110.269 Y89.412 E12.21128
G1 X109.909 Y89.135 E12.24111
G1 X105.139 Y93.905 E12.68364
G1 X104.901 Y93.505 E12.71416
G1 X109.501 Y88.905 E13.14090
G1 X109.041 Y88.728 E13.17326
G1 X104.725 Y93.043 E13.57361
G1 X104.653 Y92.790 E13.59089
G1 X104.609 Y92.522 E13.60867
G1 X108.513 Y88.618 E13.97086
G1 X108.299 Y88.586 E13.98502
G1 X107.911 Y88.583 E14.01049
G1 X104.578 Y91.916 E14.31971
G1 X104.589 Y91.690 E14.33454
G1 X104.694 Y91.162 E14.36985
G1 X107.156 Y88.699 E14.59829
