; generated by Slic3r 1.3.0 on 2022-03-30 at 17:40:43

; external perimeters extrusion width = 0.44mm (0.85mm^3/s)
; perimeters extrusion width = 0.48mm (3.77mm^3/s)
; infill extrusion width = 0.48mm (4.40mm^3/s)
; solid infill extrusion width = 0.48mm (1.26mm^3/s)
; top infill extrusion width = 0.48mm (0.88mm^3/s)

M190 S65 ; set bed temperature and wait for it to be reached
M104 S205 ; set temperature
; M106 P0 S255 ; turn hot-end fan on
G28 ; home all axes
G1 Z5 F5000 ; lift nozzle


; Filament gcode

M109 S205 ; set temperature and wait for it to be reached
G21 ; set units to millimeters
G90 ; use absolute coordinates
M82 ; use absolute distances for extrusion
G92 E0
G1 Z-0.150 F3900.000
G1 E-3.50000 F3000.00000
G92 E0
G1 X83.012 Y91.263 F3900.000
G1 E3.50000 F3000.00000
G1 F900
G1 X83.811 Y90.623 E3.56700
G1 X84.462 Y90.179 E3.61860
G1 X85.348 Y89.666 E3.68560
G1 X86.395 Y89.188 E3.76100
G1 X87.363 Y88.854 E3.82800
G1 X88.125 Y88.653 E3.87959
G1 X88.956 Y88.494 E3.93500
G1 X89.974 Y88.387 E4.00200
G1 X90.609 Y88.363 E4.04360
G1 X109.352 Y88.365 E5.27058
G1 X110.197 Y88.398 E5.32598
G1 X111.213 Y88.525 E5.39298
G1 X111.985 Y88.681 E5.44458
G1 X112.970 Y88.960 E5.51158
G1 X113.762 Y89.259 E5.56699
G1 X114.205 Y89.451 E5.59859
G1 X115.223 Y89.989 E5.67399
G1 X115.632 Y90.245 E5.70560
G1 X116.326 Y90.730 E5.76100
G1 X117.112 Y91.386 E5.82800
G1 X117.464 Y91.716 E5.85961
G1 X118.042 Y92.334 E5.91501
G1 X118.541 Y92.944 E5.96661
G1 X119.128 Y93.783 E6.03361
G1 X119.694 Y94.786 E6.10901
G1 X119.899 Y95.223 E6.14061
G1 X120.220 Y96.006 E6.19602
G1 X120.527 Y96.982 E6.26302
G1 X120.705 Y97.750 E6.31462
G1 X120.841 Y98.585 E6.37002
G1 X120.887 Y99.066 E6.40163
G1 X120.927 Y100.153 E6.47282
G1 X120.887 Y100.934 E6.52404
G1 X120.841 Y101.415 E6.55564
G1 X120.645 Y102.549 E6.63104
G1 X120.527 Y103.018 E6.66265
G1 X120.280 Y103.827 E6.71805
G1 X120.110 Y104.279 E6.74966
G1 X119.772 Y105.055 E6.80506
G1 X119.551 Y105.484 E6.83667
G1 X119.032 Y106.366 E6.90367
G1 X118.541 Y107.056 E6.95908
G1 X118.243 Y107.435 E6.99068
G1 X117.677 Y108.065 E7.04609
G1 X117.112 Y108.614 E7.09768
G1 X116.466 Y109.161 E7.15308
G1 X116.079 Y109.449 E7.18470
G1 X115.223 Y110.011 E7.25169
G1 X114.479 Y110.414 E7.30710
G1 X113.762 Y110.741 E7.35870
G1 X112.970 Y111.040 E7.41410
G1 X112.508 Y111.181 E7.44571
G1 X111.688 Y111.388 E7.50111
G1 X111.213 Y111.475 E7.53272
G1 X110.374 Y111.587 E7.58812
G1 X109.199 Y111.637 E7.66512
G1 X90.456 Y111.635 E8.89210
G1 X89.435 Y111.566 E8.95910
G1 X88.655 Y111.454 E9.01069
G1 X87.827 Y111.278 E9.06610
G1 X86.848 Y110.979 E9.13310
G1 X86.114 Y110.693 E9.18470
G1 X85.348 Y110.334 E9.24010
G1 X84.925 Y110.101 E9.27171
G1 X84.205 Y109.656 E9.32711
G1 X83.811 Y109.377 E9.35872
G1 X83.012 Y108.737 E9.42572
G1 X82.399 Y108.153 E9.48112
G1 X81.866 Y107.573 E9.53272
G1 X81.337 Y106.912 E9.58812
G1 X80.768 Y106.061 E9.65513
G1 X80.523 Y105.645 E9.68673
G1 X80.142 Y104.890 E9.74214
G1 X79.835 Y104.164 E9.79373
G1 X79.559 Y103.364 E9.84914
G1 X79.431 Y102.898 E9.88075
G1 X79.248 Y102.072 E9.93615
G1 X79.175 Y101.595 E9.96776
G1 X79.087 Y100.753 E10.02316
G1 X79.068 Y100.270 E10.05477
G1 X79.087 Y99.247 E10.12177
G1 X79.175 Y98.405 E10.17717
G1 X79.248 Y97.928 E10.20878
G1 X79.431 Y97.102 E10.26419
G1 X79.653 Y96.346 E10.31578
G1 X79.946 Y95.552 E10.37118
G1 X80.142 Y95.110 E10.40279
G1 X80.610 Y94.200 E10.46979
G1 X81.061 Y93.484 E10.52520
G1 X81.524 Y92.846 E10.57679
G1 X82.066 Y92.196 E10.63220
G1 X82.399 Y91.847 E10.66381
G1 X82.968 Y91.304 E10.71528
G1 X83.307 Y91.603 F3900.000
G1 F900
G1 X84.086 Y90.980 E10.78060
G1 X84.694 Y90.564 E10.82884
G1 X85.558 Y90.064 E10.89416
G1 X86.559 Y89.607 E10.96619
G1 X87.502 Y89.282 E11.03151
G1 X88.214 Y89.094 E11.07974
G1 X89.020 Y88.939 E11.13347
G1 X90.013 Y88.836 E11.19878
G1 X90.609 Y88.813 E11.23787
G1 X109.339 Y88.815 E12.46400
G1 X110.159 Y88.846 E12.51772
G1 X111.149 Y88.970 E12.58304
G1 X111.871 Y89.116 E12.63127
G1 X112.831 Y89.388 E12.69660
G1 X113.599 Y89.678 E12.75032
G1 X114.018 Y89.860 E12.78024
G1 X114.991 Y90.374 E12.85227
G1 X115.378 Y90.617 E12.88220
G1 X116.051 Y91.087 E12.93592
G1 X116.817 Y91.726 E13.00124
G1 X117.150 Y92.039 E13.03117
G1 X117.711 Y92.638 E13.08489
G1 X118.177 Y93.208 E13.13312
G1 X118.749 Y94.026 E13.19844
G1 X119.290 Y94.984 E13.27048
G1 X119.485 Y95.398 E13.30040
G1 X119.797 Y96.157 E13.35412
G1 X120.095 Y97.109 E13.41944
G1 X120.206 Y97.552 E13.44937
G1 X120.354 Y98.360 E13.50309
G1 X120.438 Y99.092 E13.55132
G1 X120.478 Y100.140 E13.62000
G1 X120.438 Y100.908 E13.67037
G1 X120.394 Y101.363 E13.70030
G1 X120.206 Y102.448 E13.77233
G1 X120.095 Y102.891 E13.80225
G1 X119.856 Y103.676 E13.85598
G1 X119.695 Y104.104 E13.88590
G1 X119.368 Y104.857 E13.93962
G1 X119.160 Y105.263 E13.96955
G1 X118.653 Y106.123 E14.03487
G1 X118.177 Y106.792 E14.08859
G1 X117.894 Y107.150 E14.11852
G1 X117.345 Y107.760 E14.17224
G1 X116.817 Y108.274 E14.22047
G1 X116.192 Y108.805 E14.27419
G1 X115.825 Y109.078 E14.30412
G1 X114.991 Y109.626 E14.36944
G1 X114.269 Y110.016 E14.42316
G1 X113.599 Y110.322 E14.47140
G1 X112.831 Y110.612 E14.52512
G1 X112.394 Y110.746 E14.55504
G1 X111.598 Y110.947 E14.60877
G1 X111.149 Y111.030 E14.63869
G1 X110.335 Y111.139 E14.69241
G1 X109.199 Y111.187 E14.76689
G1 X90.469 Y111.185 E15.99302
G1 X89.474 Y111.118 E16.05834
G1 X88.744 Y111.013 E16.10658
G1 X87.942 Y110.842 E16.16030
G1 X86.987 Y110.551 E16.22562
G1 X86.301 Y110.284 E16.27385
G1 X85.558 Y109.936 E16.32757
G1 X85.157 Y109.716 E16.35750
G1 X84.312 Y109.185 E16.42282
G1 X83.657 Y108.690 E16.47654
G1 X83.307 Y108.397 E16.50647
G1 X82.713 Y107.831 E16.56019
G1 X82.215 Y107.288 E16.60842
G1 X81.701 Y106.648 E16.66214
G1 X81.147 Y105.818 E16.72746
G1 X80.915 Y105.424 E16.75739
G1 X80.546 Y104.691 E16.81111
G1 X80.259 Y104.012 E16.85934
G1 X79.991 Y103.237 E16.91307
G1 X79.870 Y102.796 E16.94299
G1 X79.692 Y101.995 E16.99671
G1 X79.621 Y101.543 E17.02664
G1 X79.536 Y100.727 E17.08036
G1 X79.518 Y100.270 E17.11029
G1 X79.536 Y99.273 E17.17561
G1 X79.621 Y98.457 E17.22933
G1 X79.692 Y98.005 E17.25926
G1 X79.870 Y97.204 E17.31298
G1 X80.077 Y96.497 E17.36121
G1 X80.360 Y95.727 E17.41493
G1 X80.546 Y95.309 E17.44486
G1 X81.002 Y94.422 E17.51018
G1 X81.439 Y93.727 E17.56390
G1 X81.872 Y93.131 E17.61213
G1 X82.398 Y92.501 E17.66586
G1 X82.713 Y92.169 E17.69578
G1 X83.263 Y91.644 E17.74558
G1 X83.601 Y91.943 F3900.000
G1 F900
G1 X84.360 Y91.336 E17.80922
G1 X84.926 Y90.949 E17.85408
G1 X85.768 Y90.462 E17.91772
G1 X86.722 Y90.026 E17.98639
G1 X87.641 Y89.709 E18.05003
G1 X88.304 Y89.535 E18.09490
G1 X89.084 Y89.384 E18.14694
G1 X90.051 Y89.284 E18.21058
G1 X90.609 Y89.263 E18.24714
G1 X109.326 Y89.264 E19.47243
G1 X110.120 Y89.294 E19.52447
G1 X111.085 Y89.415 E19.58811
G1 X111.757 Y89.552 E19.63298
G1 X112.523 Y89.761 E19.68502
G1 X112.931 Y89.901 E19.71326
G1 X113.670 Y90.196 E19.76530
G1 X114.537 Y90.634 E19.82894
G1 X115.124 Y90.988 E19.87381
G1 X115.776 Y91.443 E19.92585
G1 X116.114 Y91.712 E19.95410
G1 X116.837 Y92.362 E20.01774
G1 X117.380 Y92.942 E20.06978
G1 X117.658 Y93.272 E20.09802
G1 X118.275 Y94.120 E20.16669
G1 X118.502 Y94.487 E20.19493
G1 X118.886 Y95.183 E20.24697
G1 X119.070 Y95.573 E20.27522
G1 X119.373 Y96.308 E20.32726
G1 X119.664 Y97.236 E20.39089
G1 X119.768 Y97.654 E20.41914
G1 X119.911 Y98.436 E20.47118
G1 X119.989 Y99.117 E20.51605
G1 X120.028 Y100.127 E20.58220
G1 X119.967 Y101.136 E20.64836
G1 X119.911 Y101.564 E20.67661
G1 X119.768 Y102.346 E20.72865
G1 X119.511 Y103.283 E20.79229
G1 X119.281 Y103.929 E20.83716
G1 X118.965 Y104.658 E20.88920
G1 X118.768 Y105.042 E20.91744
G1 X118.275 Y105.880 E20.98108
G1 X117.813 Y106.527 E21.03312
G1 X117.546 Y106.866 E21.06136
G1 X117.014 Y107.456 E21.11340
G1 X116.522 Y107.934 E21.15827
G1 X115.917 Y108.449 E21.21031
G1 X115.571 Y108.707 E21.23856
G1 X114.759 Y109.241 E21.30219
G1 X114.059 Y109.618 E21.35424
G1 X113.435 Y109.903 E21.39911
G1 X112.692 Y110.185 E21.45115
G1 X112.280 Y110.311 E21.47939
G1 X111.509 Y110.506 E21.53143
G1 X111.085 Y110.585 E21.55967
G1 X110.297 Y110.691 E21.61171
G1 X109.199 Y110.737 E21.68367
G1 X90.609 Y110.737 E22.90064
G1 X90.051 Y110.716 E22.93720
G1 X89.084 Y110.616 E23.00084
G1 X88.304 Y110.465 E23.05288
G1 X87.641 Y110.291 E23.09775
G1 X86.887 Y110.038 E23.14979
G1 X85.996 Y109.650 E23.21343
G1 X85.611 Y109.455 E23.24167
G1 X84.926 Y109.051 E23.29371
G1 X84.360 Y108.664 E23.33858
G1 X83.735 Y108.173 E23.39062
G1 X83.414 Y107.885 E23.41887
G1 X82.849 Y107.326 E23.47091
G1 X82.220 Y106.584 E23.53455
G1 X81.961 Y106.240 E23.56279
G1 X81.525 Y105.575 E23.61483
G1 X81.188 Y104.978 E23.65970
G1 X80.844 Y104.261 E23.71174
G1 X80.683 Y103.861 E23.73998
G1 X80.422 Y103.110 E23.79202
G1 X80.185 Y102.167 E23.85566
G1 X80.068 Y101.492 E23.90053
G1 X79.985 Y100.702 E23.95257
G1 X79.968 Y100.270 E23.98082
G1 X79.975 Y99.476 E24.03286
G1 X80.007 Y99.045 E24.06110
G1 X80.135 Y98.082 E24.12474
G1 X80.308 Y97.306 E24.17678
G1 X80.501 Y96.648 E24.22165
G1 X80.775 Y95.902 E24.27369
G1 X81.188 Y95.022 E24.33733
G1 X81.394 Y94.643 E24.36557
G1 X81.818 Y93.970 E24.41761
G1 X82.220 Y93.416 E24.46248
G1 X82.729 Y92.805 E24.51452
G1 X83.026 Y92.492 E24.54277
G1 X83.557 Y91.984 E24.59088
G1 E21.09088 F3000.00000
G92 E0
G1 X112.809 Y103.725 F3900.000
G1 E3.50000 F3000.00000
G1 F900
G1 X112.361 Y104.101 E3.53830
G1 X111.874 Y104.425 E3.57660
G1 X111.345 Y104.694 E3.61544
G1 X110.957 Y104.845 E3.64268
G1 X110.228 Y105.037 E3.69203
G1 X109.656 Y105.111 E3.72979
G1 X109.063 Y105.120 E3.76863
G1 X108.640 Y105.083 E3.79641
G1 X108.057 Y104.974 E3.83525
G1 X107.498 Y104.801 E3.87355
G1 X106.970 Y104.568 E3.91131
G1 X106.332 Y104.183 E3.96012
G1 X105.880 Y103.825 E3.99789
G1 X105.460 Y103.405 E4.03672
G1 X105.192 Y103.077 E4.06451
G1 X104.864 Y102.582 E4.10334
G1 X104.598 Y102.061 E4.14165
G1 X104.397 Y101.521 E4.17941
G1 X104.228 Y100.794 E4.22822
G1 X104.170 Y100.220 E4.26598
G1 X104.179 Y99.627 E4.30482
G1 X104.227 Y99.206 E4.33260
G1 X104.352 Y98.634 E4.37090
G1 X104.605 Y97.924 E4.42025
G1 X104.789 Y97.550 E4.44749
G1 X105.102 Y97.047 E4.48633
G1 X105.466 Y96.589 E4.52463
G1 X105.880 Y96.175 E4.56293
G1 X106.338 Y95.811 E4.60123
G1 X106.828 Y95.507 E4.63899
G1 X107.514 Y95.193 E4.68834
G1 X107.909 Y95.065 E4.71558
G1 X108.489 Y94.939 E4.75442
G1 X109.071 Y94.881 E4.79272
G1 X109.648 Y94.889 E4.83049
G1 X110.386 Y94.995 E4.87930
G1 X110.942 Y95.150 E4.91706
G1 X111.484 Y95.369 E4.95536
G1 X111.997 Y95.650 E4.99366
G1 X112.482 Y95.991 E5.03250
G1 X112.803 Y96.269 E5.06028
G1 X113.205 Y96.695 E5.09858
G1 X113.643 Y97.298 E5.14739
G1 X113.919 Y97.804 E5.18515
G1 X114.143 Y98.354 E5.22399
G1 X114.262 Y98.761 E5.25177
G1 X114.370 Y99.336 E5.29007
G1 X114.413 Y100.089 E5.33942
G1 X114.389 Y100.504 E5.36666
G1 X114.297 Y101.090 E5.40550
G1 X114.140 Y101.654 E5.44380
G1 X113.923 Y102.188 E5.48156
G1 X113.556 Y102.837 E5.53037
G1 X113.210 Y103.299 E5.56814
G1 X112.850 Y103.681 E5.60251
G1 X113.099 Y104.069 F3900.000
G1 F900
G1 X112.631 Y104.462 E5.64249
G1 X112.101 Y104.814 E5.68416
G1 X111.529 Y105.105 E5.72616
G1 X111.097 Y105.274 E5.75656
G1 X110.315 Y105.479 E5.80949
G1 X109.688 Y105.560 E5.85083
G1 X109.047 Y105.570 E5.89283
G1 X108.579 Y105.530 E5.92356
G1 X107.949 Y105.411 E5.96556
G1 X107.341 Y105.223 E6.00723
G1 X106.763 Y104.969 E6.04856
G1 X106.075 Y104.554 E6.10116
G1 X105.580 Y104.161 E6.14250
G1 X105.126 Y103.708 E6.18450
G1 X104.829 Y103.344 E6.21523
G1 X104.475 Y102.809 E6.25723
G1 X104.186 Y102.242 E6.29890
G1 X103.965 Y101.651 E6.34024
G1 X103.783 Y100.868 E6.39283
G1 X103.720 Y100.240 E6.43417
G1 X103.729 Y99.598 E6.47617
G1 X103.783 Y99.132 E6.50690
G1 X103.918 Y98.510 E6.54857
G1 X104.190 Y97.748 E6.60149
G1 X104.395 Y97.332 E6.63190
G1 X104.734 Y96.787 E6.67390
G1 X105.130 Y96.289 E6.71557
G1 X105.580 Y95.839 E6.75723
G1 X106.079 Y95.443 E6.79890
G1 X106.615 Y95.109 E6.84024
G1 X107.350 Y94.774 E6.89317
G1 X107.792 Y94.630 E6.92357
G1 X108.419 Y94.494 E6.96557
G1 X109.052 Y94.430 E7.00724
G1 X109.683 Y94.439 E7.04858
G1 X110.479 Y94.554 E7.10117
G1 X111.087 Y94.723 E7.14251
G1 X111.677 Y94.962 E7.18418
G1 X112.236 Y95.267 E7.22585
G1 X112.760 Y95.637 E7.26785
G1 X113.115 Y95.944 E7.29858
G1 X113.552 Y96.407 E7.34025
G1 X114.024 Y97.057 E7.39284
G1 X114.327 Y97.611 E7.43418
G1 X114.568 Y98.206 E7.47618
G1 X114.700 Y98.656 E7.50691
G1 X114.818 Y99.282 E7.54858
G1 X114.864 Y100.089 E7.60151
G1 X114.837 Y100.552 E7.63191
G1 X114.737 Y101.186 E7.67391
G1 X114.566 Y101.799 E7.71558
G1 X114.329 Y102.384 E7.75692
G1 X113.933 Y103.084 E7.80951
G1 X113.555 Y103.589 E7.85085
G1 X113.142 Y104.027 E7.89027
G1 X113.388 Y104.413 F3900.000
G1 F900
G1 X112.901 Y104.823 E7.93194
G1 X112.328 Y105.203 E7.97698
G1 X111.714 Y105.516 E8.02214
G1 X111.236 Y105.702 E8.05570
G1 X110.401 Y105.922 E8.11220
G1 X109.721 Y106.010 E8.15712
G1 X109.031 Y106.020 E8.20228
G1 X108.518 Y105.976 E8.23596
G1 X107.840 Y105.848 E8.28112
G1 X107.183 Y105.645 E8.32616
G1 X106.555 Y105.369 E8.37107
G1 X105.818 Y104.924 E8.42745
G1 X105.280 Y104.498 E8.47237
G1 X104.792 Y104.010 E8.51753
G1 X104.467 Y103.612 E8.55121
G1 X104.085 Y103.037 E8.59637
G1 X103.773 Y102.424 E8.64141
G1 X103.534 Y101.781 E8.68632
G1 X103.339 Y100.942 E8.74270
G1 X103.270 Y100.259 E8.78762
G1 X103.280 Y99.569 E8.83278
G1 X103.338 Y99.058 E8.86646
G1 X103.485 Y98.386 E8.91150
G1 X103.775 Y97.573 E8.96800
G1 X104.001 Y97.113 E9.00156
G1 X104.366 Y96.527 E9.04672
G1 X104.794 Y95.989 E9.09176
G1 X105.280 Y95.502 E9.13680
G1 X105.819 Y95.075 E9.18183
G1 X106.401 Y94.712 E9.22675
G1 X107.187 Y94.354 E9.28325
G1 X107.674 Y94.195 E9.31681
G1 X108.348 Y94.049 E9.36197
G1 X109.033 Y93.980 E9.40701
G1 X109.719 Y93.990 E9.45192
G1 X110.571 Y94.113 E9.50830
G1 X111.232 Y94.296 E9.55322
G1 X111.870 Y94.555 E9.59826
G1 X112.474 Y94.885 E9.64329
G1 X113.038 Y95.282 E9.68845
G1 X113.426 Y95.619 E9.72214
G1 X113.899 Y96.119 E9.76717
G1 X114.405 Y96.816 E9.82355
G1 X114.734 Y97.418 E9.86847
G1 X114.993 Y98.057 E9.91363
G1 X115.138 Y98.551 E9.94731
G1 X115.265 Y99.227 E9.99235
G1 X115.314 Y100.089 E10.04885
G1 X115.285 Y100.601 E10.08241
G1 X115.177 Y101.282 E10.12757
G1 X114.993 Y101.945 E10.17261
G1 X114.734 Y102.580 E10.21753
G1 X114.311 Y103.330 E10.27390
G1 X113.900 Y103.880 E10.31882
G1 X113.434 Y104.374 E10.36330
G1 X113.005 Y104.298 F3900.000
G1 X112.451 Y103.446 F3900.000
G1 F900
G1 X112.913 Y102.961 E10.40879
G1 X113.226 Y102.543 E10.44427
G1 X113.564 Y101.944 E10.49099
G1 X113.751 Y101.485 E10.52467
G1 X110.772 Y104.464 E10.81084
G1 X110.094 Y104.642 E10.85848
G1 X109.910 Y104.666 E10.87112
G1 X113.956 Y100.620 E11.25984
G1 X113.989 Y100.408 E11.27441
G1 X114.003 Y99.913 E11.30810
G1 X109.201 Y104.715 E11.76946
G1 X109.031 Y104.717 E11.78098
G1 X108.584 Y104.672 E11.81155
G1 X113.961 Y99.294 E12.32819
G1 X113.850 Y98.745 E12.36626
G1 X108.036 Y104.559 E12.92485
G1 X107.539 Y104.396 E12.96040
G1 X113.683 Y98.252 E13.55068
G1 X113.560 Y97.950 E13.57285
G1 X113.477 Y97.797 E13.58462
G1 X107.085 Y104.189 E14.19869
G1 X106.673 Y103.941 E14.23137
G1 X113.231 Y97.383 E14.86139
G1 X112.953 Y97.001 E14.89350
G1 X106.291 Y103.663 E15.53354
G1 X106.132 Y103.536 E15.54736
G1 X105.945 Y103.349 E15.56535
G1 X112.640 Y96.654 E16.20860
G1 X112.297 Y96.337 E16.24034
G1 X105.628 Y103.006 E16.88105
G1 X105.351 Y102.622 E16.91317
G1 X111.914 Y96.060 E17.54368
G1 X111.497 Y95.816 E17.57646
G1 X105.106 Y102.207 E18.19054
G1 X104.963 Y101.927 E18.21187
G1 X104.899 Y101.754 E18.22444
G1 X111.044 Y95.609 E18.81481
G1 X110.844 Y95.528 E18.82943
G1 X110.547 Y95.446 E18.85039
G1 X104.738 Y101.254 E19.40846
G1 X104.619 Y100.713 E19.44613
G1 X109.994 Y95.339 E19.96246
G1 X109.660 Y95.291 E19.98535
G1 X109.385 Y95.287 E20.00402
G1 X104.575 Y100.097 E20.46618
G1 X104.581 Y99.704 E20.49290
G1 X104.616 Y99.396 E20.51395
G1 X108.683 Y95.329 E20.90472
G1 X108.075 Y95.452 E20.94691
G1 X107.815 Y95.536 E20.96542
G1 X104.843 Y98.508 E21.25095
G1 X104.972 Y98.147 E21.27700
G1 X105.135 Y97.817 E21.30199
G1 X105.423 Y97.354 E21.33902
G1 X105.754 Y96.937 E21.37520
G1 X106.228 Y96.464 E21.42070
