; generated by Slic3r 1.3.0 on 2022-03-30 at 15:53:47

; external perimeters extrusion width = 0.44mm (0.85mm^3/s)
; perimeters extrusion width = 0.48mm (3.77mm^3/s)
; infill extrusion width = 0.48mm (4.40mm^3/s)
; solid infill extrusion width = 0.48mm (1.26mm^3/s)
; top infill extrusion width = 0.48mm (0.88mm^3/s)

M190 S65 ; set bed temperature and wait for it to be reached
M104 S205 ; set temperature
; M106 P0 S255 ; turn hot-end fan on
G28 ; home all axes
G1 Z5 F5000 ; lift nozzle


; Filament gcode

M109 S205 ; set temperature and wait for it to be reached
G21 ; set units to millimeters
G90 ; use absolute coordinates
M82 ; use absolute distances for extrusion
G92 E0
G1 Z-0.150 F3900.000
G1 E-3.50000 F3000.00000
G92 E0
G1 X83.193 Y91.773 F3900.000
G1 E3.50000 F3000.00000
G1 F900
G1 X83.724 Y91.303 E3.54644
G1 X84.121 Y90.986 E3.57974
G1 X84.712 Y90.562 E3.62735
G1 X85.220 Y90.242 E3.66662
G1 X85.858 Y89.895 E3.71418
G1 X86.289 Y89.687 E3.74553
G1 X86.971 Y89.399 E3.79397
G1 X87.537 Y89.201 E3.83324
G1 X88.250 Y89.001 E3.88168
G1 X88.696 Y88.899 E3.91168
G1 X89.432 Y88.769 E3.96059
G1 X90.028 Y88.701 E3.99986
G1 X91.000 Y88.660 E4.06354
G1 X109.225 Y88.665 E5.25666
G1 X109.972 Y88.701 E5.30558
G1 X110.568 Y88.769 E5.34485
G1 X111.304 Y88.899 E5.39376
G1 X111.750 Y89.001 E5.42376
G1 X112.463 Y89.201 E5.47220
G1 X113.029 Y89.399 E5.51147
G1 X113.711 Y89.687 E5.55991
G1 X114.553 Y90.117 E5.62182
G1 X115.288 Y90.562 E5.67806
G1 X115.879 Y90.986 E5.72567
G1 X116.276 Y91.303 E5.75896
G1 X116.807 Y91.773 E5.80541
G1 X117.232 Y92.198 E5.84468
G1 X117.703 Y92.730 E5.89127
G1 X118.040 Y93.154 E5.92672
G1 X118.443 Y93.717 E5.97202
G1 X118.762 Y94.225 E6.01130
G1 X119.097 Y94.836 E6.05690
G1 X119.345 Y95.350 E6.09429
G1 X119.523 Y95.778 E6.12463
G1 X119.804 Y96.550 E6.17839
G1 X119.997 Y97.220 E6.22407
G1 X120.125 Y97.791 E6.26236
G1 X120.240 Y98.479 E6.30802
G1 X120.297 Y98.949 E6.33903
G1 X120.337 Y99.532 E6.37727
G1 X120.347 Y100.063 E6.41206
G1 X120.294 Y101.088 E6.47920
G1 X120.125 Y102.209 E6.55343
G1 X119.997 Y102.780 E6.59172
G1 X119.804 Y103.450 E6.63740
G1 X119.614 Y103.999 E6.67542
G1 X119.345 Y104.650 E6.72152
G1 X119.097 Y105.164 E6.75891
G1 X118.763 Y105.775 E6.80450
G1 X118.443 Y106.283 E6.84377
G1 X118.040 Y106.846 E6.88908
G1 X117.703 Y107.270 E6.92454
G1 X117.232 Y107.802 E6.97113
G1 X116.807 Y108.227 E7.01040
G1 X116.276 Y108.697 E7.05685
G1 X115.879 Y109.014 E7.09014
G1 X115.288 Y109.438 E7.13775
G1 X114.780 Y109.758 E7.17702
G1 X114.142 Y110.105 E7.22458
G1 X113.711 Y110.313 E7.25593
G1 X113.029 Y110.601 E7.30437
G1 X112.463 Y110.799 E7.34365
G1 X111.750 Y110.999 E7.39208
G1 X111.304 Y111.101 E7.42208
G1 X110.568 Y111.231 E7.47099
G1 X109.972 Y111.299 E7.51027
G1 X109.000 Y111.340 E7.57394
G1 X91.000 Y111.340 E8.75230
G1 X90.028 Y111.299 E8.81598
G1 X89.432 Y111.231 E8.85525
G1 X88.696 Y111.101 E8.90416
G1 X88.250 Y110.999 E8.93416
G1 X87.537 Y110.799 E8.98260
G1 X86.971 Y110.601 E9.02187
G1 X86.289 Y110.313 E9.07031
G1 X85.858 Y110.105 E9.10166
G1 X85.220 Y109.758 E9.14922
G1 X84.712 Y109.438 E9.18849
G1 X84.121 Y109.014 E9.23610
G1 X83.724 Y108.697 E9.26940
G1 X83.193 Y108.227 E9.31584
G1 X82.768 Y107.802 E9.35511
G1 X82.297 Y107.270 E9.40170
G1 X81.960 Y106.846 E9.43716
G1 X81.557 Y106.283 E9.48246
G1 X81.230 Y105.762 E9.52273
G1 X80.903 Y105.164 E9.56733
G1 X80.655 Y104.650 E9.60472
G1 X80.477 Y104.222 E9.63506
G1 X80.196 Y103.450 E9.68882
G1 X80.003 Y102.780 E9.73450
G1 X79.875 Y102.209 E9.77279
G1 X79.706 Y101.088 E9.84701
G1 X79.663 Y100.482 E9.88677
G1 X79.654 Y99.892 E9.92538
G1 X79.678 Y99.272 E9.96599
G1 X79.760 Y98.479 E10.01820
G1 X79.875 Y97.791 E10.06387
G1 X80.035 Y97.107 E10.10989
G1 X80.196 Y96.550 E10.14783
G1 X80.386 Y96.001 E10.18585
G1 X80.655 Y95.350 E10.23194
G1 X80.903 Y94.836 E10.26934
G1 X81.238 Y94.225 E10.31493
G1 X81.557 Y93.717 E10.35421
G1 X81.960 Y93.154 E10.39951
G1 X82.297 Y92.730 E10.43496
G1 X82.650 Y92.330 E10.46991
G1 X83.150 Y91.816 E10.51688
G1 X83.492 Y92.109 F3900.000
G1 F900
G1 X84.021 Y91.641 E10.56311
G1 X84.385 Y91.350 E10.59360
G1 X84.972 Y90.928 E10.64093
G1 X85.438 Y90.636 E10.67690
G1 X86.072 Y90.291 E10.72415
G1 X86.467 Y90.100 E10.75286
G1 X87.143 Y89.815 E10.80094
G1 X87.662 Y89.633 E10.83692
G1 X88.369 Y89.435 E10.88498
G1 X88.778 Y89.341 E10.91245
G1 X89.507 Y89.212 E10.96096
G1 X90.053 Y89.151 E10.99693
G1 X91.000 Y89.110 E11.05895
G1 X109.206 Y89.114 E12.25083
G1 X109.947 Y89.151 E12.29934
G1 X110.493 Y89.212 E12.33531
G1 X111.222 Y89.341 E12.38382
G1 X111.631 Y89.435 E12.41129
G1 X112.338 Y89.633 E12.45935
G1 X112.857 Y89.815 E12.49532
G1 X113.533 Y90.100 E12.54340
G1 X114.335 Y90.511 E12.60237
G1 X115.028 Y90.928 E12.65530
G1 X115.615 Y91.350 E12.70263
G1 X115.979 Y91.641 E12.73313
G1 X116.508 Y92.109 E12.77935
G1 X116.896 Y92.497 E12.81532
G1 X117.366 Y93.028 E12.86172
G1 X117.675 Y93.416 E12.89419
G1 X118.076 Y93.977 E12.93936
G1 X118.369 Y94.443 E12.97534
G1 X118.703 Y95.052 E13.02082
G1 X118.929 Y95.523 E13.05507
G1 X119.106 Y95.949 E13.08525
G1 X119.372 Y96.674 E13.13581
G1 X119.564 Y97.343 E13.18136
G1 X119.682 Y97.866 E13.21643
G1 X119.796 Y98.552 E13.26202
G1 X119.849 Y98.994 E13.29111
G1 X119.888 Y99.547 E13.32744
G1 X119.897 Y100.063 E13.36120
G1 X119.845 Y101.051 E13.42595
G1 X119.682 Y102.134 E13.49770
G1 X119.564 Y102.657 E13.53277
G1 X119.372 Y103.326 E13.57833
G1 X119.198 Y103.828 E13.61315
G1 X118.929 Y104.477 E13.65908
G1 X118.703 Y104.948 E13.69333
G1 X118.369 Y105.557 E13.73880
G1 X118.076 Y106.023 E13.77478
G1 X117.675 Y106.584 E13.81996
G1 X117.366 Y106.972 E13.85243
G1 X116.896 Y107.503 E13.89883
G1 X116.508 Y107.891 E13.93480
G1 X115.979 Y108.359 E13.98102
G1 X115.615 Y108.650 E14.01152
G1 X115.028 Y109.071 E14.05884
G1 X114.562 Y109.364 E14.09482
G1 X113.928 Y109.709 E14.14207
G1 X113.533 Y109.900 E14.17078
G1 X112.857 Y110.185 E14.21886
G1 X112.338 Y110.367 E14.25483
G1 X111.631 Y110.565 E14.30289
G1 X111.222 Y110.659 E14.33037
G1 X110.493 Y110.788 E14.37887
G1 X109.947 Y110.849 E14.41485
G1 X109.000 Y110.890 E14.47686
G1 X91.000 Y110.890 E15.65523
G1 X90.053 Y110.849 E15.71725
G1 X89.507 Y110.788 E15.75322
G1 X88.778 Y110.659 E15.80173
G1 X88.369 Y110.565 E15.82920
G1 X87.662 Y110.367 E15.87726
G1 X87.143 Y110.185 E15.91324
G1 X86.467 Y109.900 E15.96132
G1 X86.072 Y109.709 E15.99003
G1 X85.438 Y109.364 E16.03728
G1 X84.972 Y109.072 E16.07325
G1 X84.385 Y108.650 E16.12058
G1 X84.021 Y108.359 E16.15107
G1 X83.492 Y107.891 E16.19730
G1 X83.104 Y107.503 E16.23327
G1 X82.634 Y106.972 E16.27966
G1 X82.325 Y106.584 E16.31214
G1 X81.924 Y106.023 E16.35731
G1 X81.624 Y105.544 E16.39428
G1 X81.297 Y104.948 E16.43877
G1 X81.071 Y104.477 E16.47302
G1 X80.894 Y104.051 E16.50319
G1 X80.628 Y103.326 E16.55375
G1 X80.436 Y102.657 E16.59931
G1 X80.318 Y102.134 E16.63438
G1 X80.155 Y101.051 E16.70612
G1 X80.113 Y100.466 E16.74453
G1 X80.104 Y99.894 E16.78192
G1 X80.126 Y99.305 E16.82051
G1 X80.204 Y98.552 E16.87006
G1 X80.318 Y97.866 E16.91565
G1 X80.468 Y97.231 E16.95833
G1 X80.628 Y96.674 E16.99627
G1 X80.802 Y96.172 E17.03109
G1 X81.071 Y95.523 E17.07701
G1 X81.297 Y95.052 E17.11126
G1 X81.631 Y94.443 E17.15675
G1 X81.924 Y93.977 E17.19273
G1 X82.325 Y93.416 E17.23790
G1 X82.634 Y93.028 E17.27037
G1 X82.985 Y92.630 E17.30512
G1 X83.450 Y92.151 E17.34880
G1 X83.792 Y92.444 F3900.000
G1 F900
G1 X84.319 Y91.979 E17.39480
G1 X84.649 Y91.715 E17.42250
G1 X85.233 Y91.295 E17.46954
G1 X85.655 Y91.030 E17.50221
G1 X86.285 Y90.687 E17.54915
G1 X86.644 Y90.514 E17.57523
G1 X87.315 Y90.230 E17.62295
G1 X87.786 Y90.066 E17.65562
G1 X88.488 Y89.869 E17.70330
G1 X89.583 Y89.656 E17.77634
G1 X90.079 Y89.600 E17.80900
G1 X91.000 Y89.560 E17.86937
G1 X109.000 Y89.560 E19.04774
G1 X109.921 Y89.600 E19.10811
G1 X110.417 Y89.656 E19.14077
G1 X111.141 Y89.784 E19.18888
G1 X112.214 Y90.066 E19.26149
G1 X112.685 Y90.230 E19.29416
G1 X113.356 Y90.514 E19.34188
G1 X114.118 Y90.904 E19.39790
G1 X114.767 Y91.295 E19.44754
G1 X115.351 Y91.715 E19.49458
G1 X115.681 Y91.979 E19.52228
G1 X116.208 Y92.444 E19.56828
G1 X116.561 Y92.797 E19.60095
G1 X117.028 Y93.326 E19.64715
G1 X117.309 Y93.678 E19.67664
G1 X117.709 Y94.238 E19.72169
G1 X117.975 Y94.660 E19.75436
G1 X118.308 Y95.268 E19.79974
G1 X118.514 Y95.696 E19.83085
G1 X118.781 Y96.342 E19.87660
G1 X118.940 Y96.798 E19.90823
G1 X119.131 Y97.465 E19.95366
G1 X119.238 Y97.940 E19.98551
G1 X119.353 Y98.626 E20.03102
G1 X119.415 Y99.209 E20.06939
G1 X119.447 Y100.063 E20.12533
G1 X119.397 Y101.014 E20.18768
G1 X119.238 Y102.060 E20.25695
G1 X119.131 Y102.535 E20.28881
G1 X118.940 Y103.202 E20.33424
G1 X118.781 Y103.658 E20.36586
G1 X118.514 Y104.304 E20.41162
G1 X118.308 Y104.732 E20.44272
G1 X117.975 Y105.340 E20.48809
G1 X117.710 Y105.762 E20.52076
G1 X117.309 Y106.322 E20.56582
G1 X117.028 Y106.674 E20.59531
G1 X116.561 Y107.203 E20.64151
G1 X116.208 Y107.556 E20.67418
G1 X115.681 Y108.021 E20.72019
G1 X115.351 Y108.285 E20.74788
G1 X114.767 Y108.705 E20.79492
G1 X114.345 Y108.970 E20.82759
G1 X113.715 Y109.313 E20.87453
G1 X113.356 Y109.486 E20.90061
G1 X112.685 Y109.770 E20.94833
G1 X112.214 Y109.934 E20.98100
G1 X111.141 Y110.216 E21.05362
G1 X110.417 Y110.344 E21.10172
G1 X109.921 Y110.400 E21.13439
G1 X109.000 Y110.440 E21.19476
G1 X91.000 Y110.440 E22.37312
G1 X90.079 Y110.400 E22.43349
G1 X89.583 Y110.344 E22.46616
G1 X88.859 Y110.216 E22.51426
G1 X87.786 Y109.934 E22.58688
G1 X87.315 Y109.770 E22.61955
G1 X86.644 Y109.486 E22.66727
G1 X86.285 Y109.313 E22.69335
G1 X85.655 Y108.970 E22.74029
G1 X85.233 Y108.705 E22.77296
G1 X84.649 Y108.285 E22.82000
G1 X84.319 Y108.021 E22.84769
G1 X83.792 Y107.556 E22.89370
G1 X83.439 Y107.203 E22.92637
G1 X82.972 Y106.674 E22.97257
G1 X82.691 Y106.322 E23.00206
G1 X82.291 Y105.762 E23.04711
G1 X82.018 Y105.327 E23.08077
G1 X81.692 Y104.732 E23.12516
G1 X81.310 Y103.881 E23.18624
G1 X81.060 Y103.202 E23.23360
G1 X80.869 Y102.535 E23.27903
G1 X80.762 Y102.060 E23.31089
G1 X80.603 Y101.014 E23.38015
G1 X80.562 Y100.449 E23.41721
G1 X80.554 Y99.897 E23.45339
G1 X80.575 Y99.339 E23.48994
G1 X80.647 Y98.626 E23.53684
G1 X80.762 Y97.940 E23.58235
G1 X80.900 Y97.355 E23.62169
G1 X81.060 Y96.798 E23.65963
G1 X81.219 Y96.342 E23.69125
G1 X81.486 Y95.696 E23.73701
G1 X81.692 Y95.268 E23.76811
G1 X82.025 Y94.660 E23.81349
G1 X82.291 Y94.238 E23.84617
G1 X82.691 Y93.678 E23.89121
G1 X83.321 Y92.930 E23.95524
G1 X83.750 Y92.487 E23.99561
G1 E20.49561 F3000.00000
G92 E0
G1 X112.422 Y103.412 F3900.000
G1 E3.50000 F3000.00000
G1 F900
G1 X112.015 Y103.771 E3.53551
G1 X111.573 Y104.089 E3.57117
G1 X111.098 Y104.348 E3.60654
G1 X110.597 Y104.559 E3.64215
G1 X110.076 Y104.705 E3.67758
G1 X109.541 Y104.800 E3.71312
G1 X109.000 Y104.827 E3.74861
G1 X108.459 Y104.800 E3.78410
G1 X107.924 Y104.705 E3.81965
G1 X107.403 Y104.559 E3.85508
G1 X106.902 Y104.348 E3.89068
G1 X106.427 Y104.089 E3.92605
G1 X105.985 Y103.771 E3.96171
G1 X105.580 Y103.414 E3.99704
G1 X105.220 Y103.007 E4.03263
G1 X104.899 Y102.556 E4.06890
G1 X104.644 Y102.090 E4.10362
G1 X104.436 Y101.588 E4.13925
G1 X104.286 Y101.065 E4.17481
G1 X104.195 Y100.519 E4.21105
G1 X104.167 Y100.022 E4.24367
G1 X104.195 Y99.478 E4.27932
G1 X104.286 Y98.935 E4.31540
G1 X104.436 Y98.412 E4.35096
G1 X104.644 Y97.910 E4.38659
G1 X104.899 Y97.444 E4.42132
G1 X105.221 Y96.992 E4.45765
G1 X105.578 Y96.588 E4.49300
G1 X105.985 Y96.229 E4.52851
G1 X106.427 Y95.911 E4.56416
G1 X106.902 Y95.652 E4.59954
G1 X107.403 Y95.441 E4.63514
G1 X107.924 Y95.295 E4.67057
G1 X108.459 Y95.200 E4.70612
G1 X109.004 Y95.173 E4.74186
G1 X109.537 Y95.199 E4.77682
G1 X110.076 Y95.295 E4.81264
G1 X110.597 Y95.441 E4.84807
G1 X111.098 Y95.652 E4.88368
G1 X111.573 Y95.911 E4.91905
G1 X112.015 Y96.229 E4.95471
G1 X112.420 Y96.586 E4.99003
G1 X112.780 Y96.993 E5.02563
G1 X113.101 Y97.444 E5.06190
G1 X113.356 Y97.910 E5.09662
G1 X113.564 Y98.412 E5.13225
G1 X113.714 Y98.935 E5.16781
G1 X113.805 Y99.478 E5.20390
G1 X113.833 Y100.022 E5.23954
G1 X113.805 Y100.519 E5.27216
G1 X113.714 Y101.065 E5.30840
G1 X113.564 Y101.588 E5.34396
G1 X113.356 Y102.090 E5.37959
G1 X113.101 Y102.556 E5.41432
G1 X112.779 Y103.008 E5.45064
G1 X112.462 Y103.367 E5.48207
G1 X112.720 Y103.749 F3900.000
G1 F900
G1 X112.296 Y104.124 E5.51907
G1 X111.813 Y104.471 E5.55804
G1 X111.294 Y104.753 E5.59671
G1 X110.746 Y104.985 E5.63563
G1 X110.176 Y105.144 E5.67436
G1 X109.592 Y105.248 E5.71322
G1 X109.000 Y105.277 E5.75202
G1 X108.408 Y105.248 E5.79081
G1 X107.824 Y105.144 E5.82967
G1 X107.254 Y104.985 E5.86840
G1 X106.706 Y104.753 E5.90732
G1 X106.187 Y104.471 E5.94599
G1 X105.704 Y104.124 E5.98497
G1 X105.262 Y103.733 E6.02359
G1 X104.867 Y103.287 E6.06255
G1 X104.517 Y102.795 E6.10210
G1 X104.238 Y102.285 E6.14017
G1 X104.010 Y101.736 E6.17907
G1 X103.846 Y101.165 E6.21797
G1 X103.747 Y100.569 E6.25751
G1 X103.716 Y100.023 E6.29333
G1 X103.747 Y99.429 E6.33224
G1 X103.846 Y98.835 E6.37168
G1 X104.010 Y98.264 E6.41059
G1 X104.238 Y97.715 E6.44949
G1 X104.517 Y97.205 E6.48755
G1 X104.868 Y96.712 E6.52714
G1 X105.261 Y96.268 E6.56595
G1 X105.704 Y95.876 E6.60468
G1 X106.187 Y95.529 E6.64366
G1 X106.706 Y95.247 E6.68233
G1 X107.254 Y95.015 E6.72125
G1 X107.824 Y94.856 E6.75998
G1 X108.408 Y94.752 E6.79884
G1 X109.002 Y94.723 E6.83779
G1 X109.589 Y94.752 E6.87626
G1 X110.176 Y94.856 E6.91529
G1 X110.746 Y95.015 E6.95402
G1 X111.294 Y95.247 E6.99294
G1 X111.813 Y95.529 E7.03162
G1 X112.296 Y95.876 E7.07059
G1 X112.738 Y96.267 E7.10921
G1 X113.133 Y96.713 E7.14817
G1 X113.483 Y97.205 E7.18773
G1 X113.762 Y97.715 E7.22579
G1 X113.990 Y98.264 E7.26469
G1 X114.154 Y98.835 E7.30359
G1 X114.253 Y99.429 E7.34304
G1 X114.284 Y100.023 E7.38194
G1 X114.253 Y100.569 E7.41777
G1 X114.154 Y101.165 E7.45730
G1 X113.990 Y101.736 E7.49621
G1 X113.762 Y102.285 E7.53511
G1 X113.483 Y102.795 E7.57317
G1 X113.132 Y103.288 E7.61276
G1 X112.762 Y103.707 E7.64938
G1 X113.018 Y104.086 F3900.000
G1 F900
G1 X112.577 Y104.476 E7.68786
G1 X112.052 Y104.853 E7.73016
G1 X111.489 Y105.159 E7.77213
G1 X110.895 Y105.410 E7.81437
G1 X110.277 Y105.584 E7.85640
G1 X109.642 Y105.696 E7.89857
G1 X109.000 Y105.727 E7.94067
G1 X108.358 Y105.696 E7.98277
G1 X107.723 Y105.584 E8.02494
G1 X107.105 Y105.410 E8.06698
G1 X106.511 Y105.159 E8.10921
G1 X105.948 Y104.853 E8.15118
G1 X105.423 Y104.476 E8.19348
G1 X104.943 Y104.052 E8.23539
G1 X104.515 Y103.568 E8.27772
G1 X104.135 Y103.034 E8.32056
G1 X103.831 Y102.480 E8.36196
G1 X103.585 Y101.885 E8.40413
G1 X103.407 Y101.264 E8.44638
G1 X103.299 Y100.619 E8.48921
G1 X103.266 Y100.024 E8.52824
G1 X103.299 Y99.380 E8.57041
G1 X103.407 Y98.736 E8.61321
G1 X103.585 Y98.115 E8.65546
G1 X103.831 Y97.520 E8.69763
G1 X104.135 Y96.966 E8.73903
G1 X104.515 Y96.432 E8.78188
G1 X104.943 Y95.949 E8.82415
G1 X105.423 Y95.524 E8.86611
G1 X105.948 Y95.147 E8.90840
G1 X106.511 Y94.841 E8.95037
G1 X107.105 Y94.590 E8.99261
G1 X107.723 Y94.416 E9.03464
G1 X108.358 Y94.304 E9.07681
G1 X109.001 Y94.273 E9.11897
G1 X109.641 Y94.304 E9.16096
G1 X110.277 Y94.416 E9.20319
G1 X110.895 Y94.590 E9.24522
G1 X111.489 Y94.841 E9.28746
G1 X112.052 Y95.147 E9.32943
G1 X112.577 Y95.524 E9.37172
G1 X113.057 Y95.948 E9.41364
G1 X113.485 Y96.432 E9.45596
G1 X113.865 Y96.966 E9.49880
G1 X114.169 Y97.520 E9.54020
G1 X114.415 Y98.115 E9.58237
G1 X114.593 Y98.736 E9.62462
G1 X114.701 Y99.380 E9.66742
G1 X114.734 Y100.024 E9.70959
G1 X114.701 Y100.619 E9.74862
G1 X114.593 Y101.264 E9.79145
G1 X114.415 Y101.885 E9.83370
G1 X114.169 Y102.480 E9.87587
G1 X113.865 Y103.034 E9.91727
G1 X113.485 Y103.568 E9.96013
G1 X113.062 Y104.046 E10.00194
G1 X112.634 Y103.974 F3900.000
G1 X112.121 Y103.067 F3900.000
G1 F900
G1 X112.474 Y102.680 E10.03709
G1 X112.767 Y102.269 E10.07094
G1 X112.998 Y101.848 E10.10308
G1 X113.203 Y101.334 E10.14020
G1 X110.338 Y104.199 E10.41178
G1 X109.928 Y104.314 E10.44030
G1 X109.495 Y104.391 E10.46980
G1 X113.394 Y100.492 E10.83936
G1 X113.430 Y99.973 E10.87420
G1 X113.422 Y99.812 E10.88502
G1 X108.817 Y104.417 E11.32153
G1 X108.461 Y104.400 E11.34539
G1 X108.225 Y104.358 E11.36149
