; generated by Slic3r 1.3.0 on 2022-03-30 at 16:00:30

; external perimeters extrusion width = 0.44mm (0.85mm^3/s)
; perimeters extrusion width = 0.48mm (3.77mm^3/s)
; infill extrusion width = 0.48mm (4.40mm^3/s)
; solid infill extrusion width = 0.48mm (1.26mm^3/s)
; top infill extrusion width = 0.48mm (0.88mm^3/s)

M190 S65 ; set bed temperature and wait for it to be reached
M104 S205 ; set temperature
; M106 P0 S255 ; turn hot-end fan on
G28 ; home all axes
G1 Z5 F5000 ; lift nozzle


; Filament gcode

M109 S205 ; set temperature and wait for it to be reached
G21 ; set units to millimeters
G90 ; use absolute coordinates
M82 ; use absolute distances for extrusion
G92 E0
G1 Z-0.150 F3900.000
G1 E-3.50000 F3000.00000
G92 E0
G1 X82.339 Y91.420 F3900.000
G1 E3.50000 F3000.00000
G1 F900
G1 X82.912 Y90.913 E3.55012
G1 X83.310 Y90.595 E3.58341
G1 X83.946 Y90.138 E3.63469
G1 X84.454 Y89.819 E3.67396
G1 X85.141 Y89.445 E3.72520
G1 X85.572 Y89.236 E3.75654
G1 X86.306 Y88.927 E3.80865
G1 X86.872 Y88.729 E3.84793
G1 X87.639 Y88.514 E3.90004
G1 X88.085 Y88.412 E3.93003
G1 X88.876 Y88.272 E3.98262
G1 X89.472 Y88.205 E4.02189
G1 X90.500 Y88.160 E4.08923
G1 X109.725 Y88.165 E5.34782
G1 X110.528 Y88.205 E5.40041
G1 X111.124 Y88.272 E5.43968
G1 X111.915 Y88.412 E5.49226
G1 X112.361 Y88.514 E5.52226
G1 X113.128 Y88.729 E5.57437
G1 X113.694 Y88.927 E5.61364
G1 X114.428 Y89.236 E5.66575
G1 X115.270 Y89.666 E5.72766
G1 X116.054 Y90.138 E5.78757
G1 X116.690 Y90.595 E5.83885
G1 X117.088 Y90.913 E5.87214
G1 X117.661 Y91.420 E5.92226
G1 X118.085 Y91.844 E5.96153
G1 X118.594 Y92.419 E6.01179
G1 X118.931 Y92.842 E6.04724
G1 X119.367 Y93.451 E6.09623
G1 X119.686 Y93.959 E6.13550
G1 X120.048 Y94.619 E6.18476
G1 X120.295 Y95.134 E6.22215
G1 X120.508 Y95.645 E6.25840
G1 X120.776 Y96.384 E6.30988
G1 X120.984 Y97.108 E6.35918
G1 X121.113 Y97.678 E6.39748
G1 X121.237 Y98.422 E6.44682
G1 X121.300 Y98.971 E6.48304
G1 X121.336 Y99.497 E6.51753
G1 X121.347 Y100.071 E6.55513
G1 X121.291 Y101.145 E6.62552
G1 X121.113 Y102.322 E6.70342
G1 X120.984 Y102.892 E6.74172
G1 X120.776 Y103.616 E6.79102
G1 X120.586 Y104.165 E6.82904
G1 X120.295 Y104.866 E6.87876
G1 X120.048 Y105.381 E6.91615
G1 X119.686 Y106.041 E6.96541
G1 X119.367 Y106.549 E7.00469
G1 X118.931 Y107.158 E7.05366
G1 X118.594 Y107.581 E7.08912
G1 X118.085 Y108.156 E7.13938
G1 X117.661 Y108.580 E7.17865
G1 X117.088 Y109.087 E7.22877
G1 X116.690 Y109.405 E7.26206
G1 X116.054 Y109.862 E7.31334
G1 X115.546 Y110.181 E7.35262
G1 X114.859 Y110.555 E7.40385
G1 X114.428 Y110.764 E7.43519
G1 X113.694 Y111.073 E7.48730
G1 X113.128 Y111.271 E7.52658
G1 X112.361 Y111.486 E7.57869
G1 X111.915 Y111.588 E7.60868
G1 X111.124 Y111.728 E7.66127
G1 X110.528 Y111.795 E7.70054
G1 X109.500 Y111.840 E7.76788
G1 X90.500 Y111.840 E9.01171
G1 X89.472 Y111.795 E9.07906
G1 X88.876 Y111.728 E9.11833
G1 X88.085 Y111.588 E9.17091
G1 X87.638 Y111.486 E9.20091
G1 X86.872 Y111.271 E9.25302
G1 X86.306 Y111.073 E9.29229
G1 X85.572 Y110.764 E9.34440
G1 X85.141 Y110.555 E9.37575
G1 X84.454 Y110.181 E9.42698
G1 X83.946 Y109.862 E9.46626
G1 X83.310 Y109.405 E9.51753
G1 X82.912 Y109.087 E9.55083
G1 X82.339 Y108.580 E9.60094
G1 X81.915 Y108.156 E9.64022
G1 X81.406 Y107.581 E9.69048
G1 X81.069 Y107.158 E9.72593
G1 X80.633 Y106.549 E9.77491
G1 X80.280 Y105.979 E9.81883
G1 X79.952 Y105.381 E9.86344
G1 X79.705 Y104.866 E9.90083
G1 X79.492 Y104.355 E9.93708
G1 X79.224 Y103.616 E9.98855
G1 X79.016 Y102.892 E10.03786
G1 X78.887 Y102.322 E10.07616
G1 X78.709 Y101.145 E10.15406
G1 X78.664 Y100.516 E10.19532
G1 X78.653 Y99.913 E10.23482
G1 X78.675 Y99.286 E10.27587
G1 X78.763 Y98.422 E10.33276
G1 X78.887 Y97.678 E10.38211
G1 X79.035 Y97.039 E10.42508
G1 X79.224 Y96.384 E10.46970
G1 X79.504 Y95.616 E10.52319
G1 X79.705 Y95.134 E10.55742
G1 X79.952 Y94.619 E10.59482
G1 X80.314 Y93.959 E10.64408
G1 X80.633 Y93.451 E10.68335
G1 X81.069 Y92.842 E10.73233
G1 X81.406 Y92.419 E10.76778
G1 X81.759 Y92.018 E10.80273
G1 X82.297 Y91.462 E10.85337
G1 X82.639 Y91.755 F3900.000
G1 F900
G1 X83.210 Y91.250 E10.90327
G1 X83.574 Y90.959 E10.93376
G1 X84.206 Y90.505 E10.98476
G1 X84.672 Y90.213 E11.02073
G1 X85.355 Y89.841 E11.07165
G1 X85.750 Y89.650 E11.10036
G1 X86.478 Y89.343 E11.15212
G1 X86.997 Y89.161 E11.18809
G1 X87.758 Y88.948 E11.23982
G1 X88.167 Y88.854 E11.26729
G1 X88.951 Y88.715 E11.31947
G1 X89.497 Y88.654 E11.35544
G1 X90.500 Y88.610 E11.42113
G1 X109.706 Y88.614 E12.67848
G1 X110.503 Y88.654 E12.73066
G1 X111.049 Y88.715 E12.76663
G1 X111.833 Y88.854 E12.81880
G1 X112.242 Y88.948 E12.84628
G1 X113.003 Y89.161 E12.89801
G1 X113.522 Y89.343 E12.93398
G1 X114.250 Y89.650 E12.98573
G1 X115.052 Y90.060 E13.04469
G1 X115.794 Y90.505 E13.10130
G1 X116.426 Y90.959 E13.15230
G1 X116.790 Y91.250 E13.18279
G1 X117.361 Y91.755 E13.23269
G1 X117.750 Y92.144 E13.26866
G1 X118.257 Y92.716 E13.31873
G1 X118.566 Y93.104 E13.35120
G1 X119.000 Y93.711 E13.40005
G1 X119.292 Y94.177 E13.43602
G1 X119.653 Y94.835 E13.48518
G1 X119.880 Y95.306 E13.51942
G1 X120.169 Y96.006 E13.56897
G1 X120.344 Y96.508 E13.60380
G1 X120.551 Y97.230 E13.65297
G1 X120.669 Y97.753 E13.68805
G1 X120.793 Y98.495 E13.73732
G1 X120.862 Y99.138 E13.77966
G1 X120.896 Y100.157 E13.84639
G1 X120.842 Y101.108 E13.90875
G1 X120.669 Y102.247 E13.98417
G1 X120.551 Y102.770 E14.01925
G1 X120.344 Y103.492 E14.06843
G1 X120.169 Y103.994 E14.10325
G1 X119.880 Y104.694 E14.15280
G1 X119.653 Y105.165 E14.18705
G1 X119.292 Y105.823 E14.23620
G1 X119.000 Y106.289 E14.27217
G1 X118.566 Y106.896 E14.32102
G1 X118.257 Y107.284 E14.35350
G1 X117.750 Y107.856 E14.40356
G1 X117.361 Y108.245 E14.43953
G1 X116.790 Y108.750 E14.48943
G1 X116.426 Y109.041 E14.51992
G1 X115.794 Y109.495 E14.57092
G1 X115.328 Y109.787 E14.60689
G1 X114.645 Y110.159 E14.65781
G1 X114.250 Y110.350 E14.68653
G1 X113.522 Y110.657 E14.73828
G1 X113.003 Y110.839 E14.77425
G1 X112.242 Y111.052 E14.82598
G1 X111.833 Y111.146 E14.85345
G1 X111.049 Y111.285 E14.90563
G1 X110.503 Y111.346 E14.94160
G1 X109.500 Y111.390 E15.00729
G1 X90.500 Y111.390 E16.25112
G1 X89.497 Y111.346 E16.31682
G1 X88.951 Y111.285 E16.35279
G1 X88.167 Y111.146 E16.40496
G1 X87.758 Y111.052 E16.43244
G1 X86.997 Y110.839 E16.48417
G1 X86.478 Y110.657 E16.52014
G1 X85.750 Y110.350 E16.57189
G1 X85.355 Y110.159 E16.60061
G1 X84.672 Y109.787 E16.65153
G1 X84.206 Y109.495 E16.68750
G1 X83.574 Y109.041 E16.73849
G1 X83.210 Y108.750 E16.76899
G1 X82.639 Y108.245 E16.81889
G1 X82.250 Y107.856 E16.85486
G1 X81.743 Y107.284 E16.90492
G1 X81.434 Y106.896 E16.93740
G1 X81.000 Y106.289 E16.98624
G1 X80.674 Y105.761 E17.02686
G1 X80.347 Y105.165 E17.07136
G1 X80.120 Y104.694 E17.10561
G1 X79.831 Y103.994 E17.15516
G1 X79.656 Y103.492 E17.18998
G1 X79.448 Y102.770 E17.23917
G1 X79.331 Y102.247 E17.27424
G1 X79.158 Y101.108 E17.34967
G1 X79.114 Y100.500 E17.38959
G1 X79.103 Y99.914 E17.42793
G1 X79.124 Y99.319 E17.46689
G1 X79.207 Y98.495 E17.52112
G1 X79.331 Y97.753 E17.57039
G1 X79.467 Y97.163 E17.61001
G1 X79.656 Y96.508 E17.65464
G1 X79.919 Y95.789 E17.70476
G1 X80.120 Y95.306 E17.73899
G1 X80.347 Y94.835 E17.77324
G1 X80.708 Y94.177 E17.82240
G1 X81.000 Y93.711 E17.85836
G1 X81.434 Y93.104 E17.90722
G1 X81.743 Y92.716 E17.93969
G1 X82.094 Y92.318 E17.97444
G1 X82.596 Y91.798 E18.02178
G1 X82.939 Y92.091 F3900.000
G1 F900
G1 X83.507 Y91.588 E18.07146
G1 X83.837 Y91.324 E18.09916
G1 X84.467 Y90.872 E18.14987
G1 X84.889 Y90.607 E18.18254
G1 X85.568 Y90.237 E18.23315
G1 X85.927 Y90.063 E18.25922
G1 X86.650 Y89.759 E18.31062
G1 X87.121 Y89.594 E18.34328
G1 X87.877 Y89.381 E18.39464
G1 X88.248 Y89.296 E18.41959
G1 X89.027 Y89.159 E18.47137
G1 X89.523 Y89.103 E18.50403
G1 X90.500 Y89.060 E18.56807
G1 X109.500 Y89.060 E19.81190
G1 X110.477 Y89.103 E19.87594
G1 X110.973 Y89.159 E19.90861
G1 X111.752 Y89.296 E19.96038
G1 X112.123 Y89.381 E19.98534
G1 X112.879 Y89.594 E20.03669
G1 X113.350 Y89.759 E20.06936
G1 X114.073 Y90.063 E20.12075
G1 X114.835 Y90.454 E20.17677
G1 X115.533 Y90.872 E20.23008
G1 X116.163 Y91.324 E20.28079
G1 X116.493 Y91.588 E20.30848
G1 X117.061 Y92.091 E20.35816
G1 X117.414 Y92.444 E20.39083
G1 X117.919 Y93.014 E20.44070
G1 X118.200 Y93.366 E20.47019
G1 X118.633 Y93.972 E20.51892
G1 X118.898 Y94.394 E20.55158
G1 X119.259 Y95.051 E20.60063
G1 X119.464 Y95.479 E20.63173
G1 X119.753 Y96.176 E20.68111
G1 X119.912 Y96.633 E20.71274
G1 X120.119 Y97.353 E20.76179
G1 X120.225 Y97.828 E20.79365
G1 X120.349 Y98.569 E20.84284
G1 X120.417 Y99.213 E20.88528
G1 X120.446 Y100.149 E20.94654
G1 X120.394 Y101.071 E21.00703
G1 X120.225 Y102.172 E21.07997
G1 X120.119 Y102.647 E21.11183
G1 X119.912 Y103.367 E21.16088
G1 X119.753 Y103.824 E21.19251
G1 X119.464 Y104.521 E21.24189
G1 X119.259 Y104.949 E21.27299
G1 X118.898 Y105.606 E21.32204
G1 X118.633 Y106.028 E21.35471
G1 X118.200 Y106.634 E21.40343
G1 X117.919 Y106.986 E21.43292
G1 X117.414 Y107.556 E21.48279
G1 X117.061 Y107.909 E21.51546
G1 X116.493 Y108.412 E21.56514
G1 X116.163 Y108.676 E21.59283
G1 X115.533 Y109.128 E21.64354
G1 X115.111 Y109.393 E21.67621
G1 X114.432 Y109.763 E21.72683
G1 X114.073 Y109.937 E21.75290
G1 X113.350 Y110.241 E21.80429
G1 X112.879 Y110.406 E21.83696
G1 X112.123 Y110.619 E21.88832
G1 X111.752 Y110.704 E21.91327
G1 X110.973 Y110.841 E21.96504
G1 X110.477 Y110.897 E21.99771
G1 X109.500 Y110.940 E22.06175
G1 X90.500 Y110.940 E23.30558
G1 X89.523 Y110.897 E23.36962
G1 X89.027 Y110.841 E23.40229
G1 X88.248 Y110.704 E23.45406
G1 X87.877 Y110.619 E23.47901
G1 X87.121 Y110.406 E23.53037
G1 X86.650 Y110.241 E23.56304
G1 X85.927 Y109.937 E23.61443
G1 X85.568 Y109.763 E23.64051
G1 X84.889 Y109.393 E23.69112
G1 X84.467 Y109.128 E23.72379
G1 X83.837 Y108.676 E23.77450
G1 X83.507 Y108.412 E23.80219
G1 X82.939 Y107.909 E23.85187
G1 X82.586 Y107.556 E23.88454
G1 X82.081 Y106.986 E23.93441
G1 X81.800 Y106.634 E23.96390
G1 X81.367 Y106.028 E24.01262
G1 X81.067 Y105.544 E24.04994
G1 X80.741 Y104.949 E24.09434
G1 X80.536 Y104.521 E24.12544
G1 X80.247 Y103.824 E24.17482
G1 X80.088 Y103.367 E24.20644
G1 X79.881 Y102.647 E24.25550
G1 X79.775 Y102.172 E24.28736
G1 X79.606 Y101.071 E24.36030
G1 X79.563 Y100.483 E24.39889
G1 X79.553 Y99.915 E24.43607
G1 X79.572 Y99.353 E24.47293
G1 X79.651 Y98.569 E24.52451
G1 X79.775 Y97.828 E24.57370
G1 X79.900 Y97.288 E24.60998
G1 X80.088 Y96.633 E24.65461
G1 X80.335 Y95.962 E24.70136
G1 X80.536 Y95.479 E24.73560
G1 X80.741 Y95.051 E24.76670
G1 X81.102 Y94.394 E24.81575
G1 X81.367 Y93.972 E24.84841
G1 X81.800 Y93.366 E24.89714
G1 X82.430 Y92.618 E24.96117
G1 X82.896 Y92.133 E25.00521
G1 E21.50521 F3000.00000
G92 E0
G1 X113.275 Y103.766 F3900.000
G1 E3.50000 F3000.00000
G1 F900
G1 X112.827 Y104.162 E3.53917
G1 X112.339 Y104.513 E3.57849
G1 X111.815 Y104.798 E3.61754
G1 X111.262 Y105.031 E3.65681
G1 X110.687 Y105.193 E3.69591
G1 X110.097 Y105.297 E3.73513
G1 X109.500 Y105.326 E3.77429
G1 X108.903 Y105.297 E3.81345
G1 X108.313 Y105.193 E3.85267
G1 X107.738 Y105.031 E3.89177
G1 X107.185 Y104.798 E3.93104
G1 X106.661 Y104.513 E3.97008
G1 X106.173 Y104.162 E4.00941
G1 X105.727 Y103.768 E4.04841
G1 X105.328 Y103.317 E4.08778
G1 X104.982 Y102.833 E4.12673
G1 X104.693 Y102.307 E4.16604
G1 X104.464 Y101.753 E4.20530
G1 X104.298 Y101.178 E4.24448
G1 X104.198 Y100.577 E4.28438
G1 X104.167 Y100.020 E4.32085
G1 X104.198 Y99.421 E4.36012
G1 X104.298 Y98.822 E4.39989
G1 X104.464 Y98.247 E4.43908
G1 X104.693 Y97.693 E4.47834
G1 X104.951 Y97.223 E4.51340
G1 X105.333 Y96.677 E4.55704
G1 X105.725 Y96.234 E4.59577
G1 X106.173 Y95.838 E4.63494
G1 X106.661 Y95.487 E4.67426
G1 X107.185 Y95.202 E4.71331
G1 X107.738 Y94.969 E4.75258
G1 X108.313 Y94.807 E4.79168
G1 X108.903 Y94.703 E4.83090
G1 X109.504 Y94.673 E4.87033
G1 X110.094 Y94.702 E4.90896
G1 X110.687 Y94.807 E4.94844
G1 X111.262 Y94.969 E4.98754
G1 X111.815 Y95.202 E5.02681
G1 X112.339 Y95.487 E5.06586
G1 X112.827 Y95.838 E5.10518
G1 X113.273 Y96.232 E5.14418
G1 X113.672 Y96.683 E5.18355
G1 X114.018 Y97.167 E5.22251
G1 X114.307 Y97.693 E5.26182
G1 X114.536 Y98.247 E5.30107
G1 X114.702 Y98.822 E5.34025
G1 X114.802 Y99.421 E5.38002
G1 X114.833 Y100.020 E5.41929
G1 X114.802 Y100.577 E5.45576
G1 X114.702 Y101.178 E5.49567
G1 X114.536 Y101.753 E5.53485
G1 X114.307 Y102.307 E5.57412
G1 X114.049 Y102.777 E5.60917
G1 X113.667 Y103.323 E5.65282
G1 X113.315 Y103.721 E5.68761
G1 X113.610 Y104.066 F3900.000
G1 F900
G1 X113.108 Y104.514 E5.73173
G1 X112.579 Y104.894 E5.77437
G1 X112.011 Y105.204 E5.81671
G1 X111.411 Y105.457 E5.85931
G1 X110.788 Y105.632 E5.90171
G1 X110.148 Y105.745 E5.94424
G1 X109.500 Y105.777 E5.98670
G1 X108.852 Y105.745 E6.02917
G1 X108.212 Y105.632 E6.07170
G1 X107.589 Y105.457 E6.11410
G1 X106.989 Y105.204 E6.15669
G1 X106.421 Y104.894 E6.19903
G1 X105.892 Y104.514 E6.24168
G1 X105.408 Y104.086 E6.28397
G1 X104.976 Y103.598 E6.32666
G1 X104.600 Y103.073 E6.36891
G1 X104.287 Y102.502 E6.41158
G1 X104.038 Y101.902 E6.45411
G1 X103.859 Y101.277 E6.49664
G1 X103.750 Y100.626 E6.53984
G1 X103.716 Y100.021 E6.57953
G1 X103.750 Y99.372 E6.62206
G1 X103.859 Y98.723 E6.66519
G1 X104.038 Y98.098 E6.70772
G1 X104.287 Y97.498 E6.75025
G1 X104.568 Y96.985 E6.78851
G1 X104.979 Y96.398 E6.83542
G1 X105.407 Y95.915 E6.87772
G1 X105.892 Y95.486 E6.92012
G1 X106.421 Y95.106 E6.96277
G1 X106.989 Y94.796 E7.00511
G1 X107.589 Y94.543 E7.04770
G1 X108.212 Y94.368 E7.09010
G1 X108.852 Y94.255 E7.13263
G1 X109.503 Y94.223 E7.17526
G1 X110.146 Y94.255 E7.21740
G1 X110.788 Y94.368 E7.26009
G1 X111.411 Y94.543 E7.30249
G1 X112.011 Y94.796 E7.34508
G1 X112.579 Y95.106 E7.38743
G1 X113.108 Y95.486 E7.43007
G1 X113.592 Y95.914 E7.47236
G1 X114.024 Y96.402 E7.51506
G1 X114.400 Y96.927 E7.55730
G1 X114.713 Y97.498 E7.59998
G1 X114.962 Y98.098 E7.64250
G1 X115.141 Y98.723 E7.68503
G1 X115.250 Y99.372 E7.72816
G1 X115.284 Y100.021 E7.77069
G1 X115.250 Y100.626 E7.81038
G1 X115.141 Y101.277 E7.85358
G1 X114.962 Y101.902 E7.89611
G1 X114.713 Y102.502 E7.93864
G1 X114.432 Y103.015 E7.97691
G1 X114.021 Y103.602 E8.02382
G1 X113.650 Y104.021 E8.06046
G1 X113.946 Y104.366 F3900.000
G1 F900
G1 X113.389 Y104.867 E8.10952
G1 X112.818 Y105.276 E8.15549
G1 X112.206 Y105.610 E8.20113
G1 X111.560 Y105.882 E8.24703
G1 X110.888 Y106.071 E8.29274
G1 X110.198 Y106.193 E8.33858
G1 X109.500 Y106.227 E8.38435
G1 X108.802 Y106.193 E8.43012
G1 X108.112 Y106.071 E8.47596
G1 X107.440 Y105.882 E8.52167
G1 X106.794 Y105.610 E8.56758
G1 X106.182 Y105.276 E8.61321
G1 X105.611 Y104.867 E8.65918
G1 X105.090 Y104.405 E8.70477
G1 X104.624 Y103.879 E8.75078
G1 X104.219 Y103.313 E8.79632
G1 X103.881 Y102.697 E8.84236
G1 X103.613 Y102.051 E8.88815
G1 X103.419 Y101.377 E8.93403
G1 X103.302 Y100.676 E8.98054
G1 X103.266 Y100.022 E9.02344
G1 X103.302 Y99.323 E9.06924
G1 X103.419 Y98.623 E9.11572
G1 X103.613 Y97.949 E9.16160
G1 X103.881 Y97.303 E9.20739
G1 X104.185 Y96.748 E9.24887
G1 X104.625 Y96.120 E9.29904
G1 X105.089 Y95.595 E9.34492
G1 X105.611 Y95.133 E9.39054
G1 X106.182 Y94.724 E9.43651
G1 X106.794 Y94.390 E9.48214
G1 X107.440 Y94.118 E9.52805
G1 X108.112 Y93.929 E9.57376
G1 X108.802 Y93.807 E9.61960
G1 X109.501 Y93.773 E9.66543
G1 X110.197 Y93.807 E9.71108
G1 X110.888 Y93.929 E9.75698
G1 X111.560 Y94.118 E9.80269
G1 X112.206 Y94.390 E9.84859
G1 X112.818 Y94.724 E9.89423
G1 X113.389 Y95.133 E9.94020
G1 X113.910 Y95.595 E9.98578
G1 X114.376 Y96.121 E10.03180
G1 X114.781 Y96.687 E10.07734
G1 X115.119 Y97.303 E10.12338
G1 X115.387 Y97.949 E10.16917
G1 X115.581 Y98.623 E10.21505
G1 X115.698 Y99.323 E10.26152
G1 X115.734 Y100.022 E10.30733
G1 X115.698 Y100.676 E10.35023
G1 X115.581 Y101.377 E10.39674
G1 X115.387 Y102.051 E10.44262
G1 X115.119 Y102.697 E10.48841
G1 X114.815 Y103.252 E10.52989
G1 X114.375 Y103.880 E10.58006
G1 X113.986 Y104.321 E10.61855
G1 X113.894 Y104.355 F3900.000
G1 X112.908 Y103.495 F3900.000
G1 F900
G1 X113.361 Y102.997 E10.66410
G1 X113.714 Y102.491 E10.70583
G1 X113.948 Y102.065 E10.73874
G1 X114.137 Y101.609 E10.77211
G1 X111.112 Y104.634 E11.06148
G1 X110.539 Y104.801 E11.10187
G1 X110.233 Y104.855 E11.12291
G1 X114.361 Y100.728 E11.51778
G1 X114.402 Y100.479 E11.53485
