; generated by Slic3r 1.3.0 on 2022-03-30 at 15:05:29

; external perimeters extrusion width = 0.44mm (0.85mm^3/s)
; perimeters extrusion width = 0.48mm (3.77mm^3/s)
; infill extrusion width = 0.48mm (4.40mm^3/s)
; solid infill extrusion width = 0.48mm (1.26mm^3/s)
; top infill extrusion width = 0.48mm (0.88mm^3/s)

M190 S65 ; set bed temperature and wait for it to be reached
M104 S205 ; set temperature
; M106 P0 S255 ; turn hot-end fan on
G28 ; home all axes
G1 Z5 F5000 ; lift nozzle


; Filament gcode

M109 S205 ; set temperature and wait for it to be reached
G21 ; set units to millimeters
G90 ; use absolute coordinates
M82 ; use absolute distances for extrusion
G92 E0
G1 Z-0.150 F3900.000
G1 E-3.50000 F3000.00000
G92 E0
G1 X81.490 Y91.061 F3900.000
G1 E3.50000 F3000.00000
G1 F900
G1 X82.107 Y90.515 E3.55393
G1 X82.531 Y90.178 E3.58938
G1 X83.185 Y89.710 E3.64204
G1 X83.804 Y89.329 E3.68962
G1 X84.402 Y89.002 E3.73423
G1 X84.917 Y88.754 E3.77162
G1 X85.669 Y88.442 E3.82496
G1 X86.218 Y88.252 E3.86298
G1 X86.995 Y88.028 E3.91595
G1 X87.566 Y87.900 E3.95422
G1 X88.798 Y87.712 E4.03579
G1 X89.446 Y87.665 E4.07835
G1 X89.917 Y87.653 E4.10920
G1 X110.259 Y87.655 E5.44089
G1 X111.202 Y87.712 E5.50275
G1 X112.434 Y87.900 E5.58432
G1 X113.005 Y88.028 E5.62258
G1 X113.782 Y88.252 E5.67556
G1 X114.331 Y88.442 E5.71357
G1 X115.083 Y88.754 E5.76692
G1 X115.598 Y89.002 E5.80431
G1 X116.196 Y89.329 E5.84892
G1 X116.815 Y89.710 E5.89650
G1 X117.469 Y90.178 E5.94915
G1 X117.893 Y90.515 E5.98461
G1 X118.510 Y91.061 E6.03854
G1 X118.934 Y91.486 E6.07781
G1 X119.478 Y92.101 E6.13160
G1 X119.796 Y92.498 E6.16489
G1 X120.285 Y93.180 E6.21984
G1 X120.604 Y93.688 E6.25912
G1 X121.006 Y94.424 E6.31402
G1 X121.214 Y94.855 E6.34536
G1 X121.545 Y95.641 E6.40115
G1 X121.743 Y96.207 E6.44042
G1 X121.858 Y96.605 E6.46753
G1 X122.076 Y97.474 E6.52618
G1 X122.225 Y98.320 E6.58244
G1 X122.292 Y98.916 E6.62171
G1 X122.335 Y99.775 E6.67797
G1 X122.335 Y100.225 E6.70748
G1 X122.292 Y101.084 E6.76374
G1 X122.225 Y101.680 E6.80301
G1 X122.076 Y102.526 E6.85927
G1 X121.974 Y102.973 E6.88926
G1 X121.743 Y103.793 E6.94504
G1 X121.545 Y104.359 E6.98432
G1 X121.214 Y105.145 E7.04010
G1 X121.006 Y105.576 E7.07144
G1 X120.604 Y106.312 E7.12635
G1 X120.285 Y106.820 E7.16562
G1 X119.796 Y107.502 E7.22057
G1 X119.478 Y107.899 E7.25386
G1 X118.934 Y108.514 E7.30765
G1 X118.293 Y109.132 E7.36589
G1 X117.893 Y109.485 E7.40084
G1 X117.469 Y109.822 E7.43629
G1 X116.815 Y110.290 E7.48894
G1 X116.307 Y110.609 E7.52821
G1 X115.598 Y110.998 E7.58114
G1 X115.083 Y111.246 E7.61854
G1 X114.331 Y111.558 E7.67188
G1 X113.782 Y111.748 E7.70990
G1 X113.029 Y111.965 E7.76121
G1 X112.434 Y112.100 E7.80113
G1 X111.202 Y112.288 E7.88270
G1 X110.150 Y112.347 E7.95171
G1 X89.838 Y112.346 E9.28139
G1 X89.242 Y112.323 E9.32045
G1 X88.364 Y112.234 E9.37822
G1 X87.566 Y112.100 E9.43123
G1 X86.996 Y111.972 E9.46945
G1 X86.218 Y111.748 E9.52247
G1 X85.669 Y111.558 E9.56049
G1 X84.917 Y111.246 E9.61383
G1 X84.402 Y110.998 E9.65122
G1 X83.693 Y110.609 E9.70415
G1 X83.185 Y110.290 E9.74342
G1 X82.531 Y109.822 E9.79608
G1 X82.107 Y109.485 E9.83153
G1 X81.490 Y108.939 E9.88546
G1 X81.066 Y108.514 E9.92473
G1 X80.522 Y107.899 E9.97852
G1 X80.204 Y107.502 E10.01182
G1 X79.715 Y106.820 E10.06677
G1 X79.396 Y106.312 E10.10604
G1 X79.216 Y105.987 E10.13037
G1 X78.786 Y105.145 E10.19227
G1 X78.455 Y104.359 E10.24805
G1 X78.257 Y103.793 E10.28733
G1 X78.026 Y102.973 E10.34311
G1 X77.924 Y102.526 E10.37310
G1 X77.775 Y101.680 E10.42936
G1 X77.708 Y101.084 E10.46863
G1 X77.665 Y100.225 E10.52489
G1 X77.665 Y99.775 E10.55440
G1 X77.708 Y98.916 E10.61066
G1 X77.775 Y98.320 E10.64993
G1 X77.924 Y97.474 E10.70619
G1 X78.026 Y97.027 E10.73618
G1 X78.257 Y96.207 E10.79196
G1 X78.455 Y95.641 E10.83124
G1 X78.786 Y94.855 E10.88702
G1 X78.994 Y94.424 E10.91836
G1 X79.396 Y93.688 E10.97327
G1 X79.715 Y93.180 E11.01254
G1 X80.204 Y92.498 E11.06749
G1 X80.873 Y91.702 E11.13557
G1 X81.448 Y91.104 E11.18988
G1 X81.790 Y91.397 F3900.000
G1 F900
G1 X82.405 Y90.852 E11.24362
G1 X82.793 Y90.543 E11.27609
G1 X83.445 Y90.077 E11.32861
G1 X84.022 Y89.723 E11.37289
G1 X84.618 Y89.396 E11.41739
G1 X85.090 Y89.170 E11.45164
G1 X85.840 Y88.859 E11.50481
G1 X86.342 Y88.684 E11.53964
G1 X87.118 Y88.461 E11.59248
G1 X87.640 Y88.343 E11.62753
G1 X88.835 Y88.161 E11.70662
G1 X89.918 Y88.103 E11.77764
G1 X110.252 Y88.105 E13.10878
G1 X111.165 Y88.161 E13.16871
G1 X112.360 Y88.343 E13.24781
G1 X112.882 Y88.461 E13.28285
G1 X113.658 Y88.684 E13.33570
G1 X114.160 Y88.859 E13.37052
G1 X114.910 Y89.170 E13.42369
G1 X115.382 Y89.396 E13.45794
G1 X115.978 Y89.723 E13.50244
G1 X116.555 Y90.077 E13.54673
G1 X117.207 Y90.543 E13.59925
G1 X117.595 Y90.852 E13.63172
G1 X118.210 Y91.397 E13.68546
G1 X118.598 Y91.785 E13.72143
G1 X119.141 Y92.398 E13.77500
G1 X119.432 Y92.762 E13.80549
G1 X119.918 Y93.440 E13.86016
G1 X120.211 Y93.906 E13.89613
G1 X120.610 Y94.638 E13.95072
G1 X120.801 Y95.033 E13.97943
G1 X121.129 Y95.813 E14.03486
G1 X121.311 Y96.332 E14.07083
G1 X121.425 Y96.730 E14.09794
G1 X121.633 Y97.555 E14.15369
G1 X121.782 Y98.395 E14.20954
G1 X121.843 Y98.942 E14.24551
G1 X121.886 Y99.794 E14.30136
G1 X121.886 Y100.206 E14.32839
G1 X121.843 Y101.058 E14.38423
G1 X121.782 Y101.604 E14.42021
G1 X121.633 Y102.445 E14.47606
G1 X121.540 Y102.854 E14.50353
G1 X121.311 Y103.668 E14.55893
G1 X121.129 Y104.187 E14.59490
G1 X120.801 Y104.967 E14.65033
G1 X120.610 Y105.362 E14.67903
G1 X120.211 Y106.094 E14.73363
G1 X119.918 Y106.560 E14.76960
G1 X119.432 Y107.238 E14.82427
G1 X119.141 Y107.602 E14.85476
G1 X118.598 Y108.215 E14.90833
G1 X117.994 Y108.796 E14.96327
G1 X117.595 Y109.148 E14.99802
G1 X117.207 Y109.457 E15.03049
G1 X116.555 Y109.923 E15.08301
G1 X116.089 Y110.215 E15.11898
G1 X115.382 Y110.604 E15.17181
G1 X114.910 Y110.830 E15.20605
G1 X114.160 Y111.141 E15.25923
G1 X113.658 Y111.316 E15.29405
G1 X112.904 Y111.533 E15.34536
G1 X112.360 Y111.657 E15.38194
G1 X111.165 Y111.839 E15.46103
G1 X110.144 Y111.897 E15.52803
G1 X89.846 Y111.896 E16.85680
G1 X88.835 Y111.839 E16.92312
G1 X88.276 Y111.763 E16.96000
G1 X87.640 Y111.657 E17.00223
G1 X87.119 Y111.539 E17.03723
G1 X86.342 Y111.316 E17.09012
G1 X85.840 Y111.141 E17.12494
G1 X85.090 Y110.830 E17.17811
G1 X84.618 Y110.604 E17.21236
G1 X83.911 Y110.215 E17.26518
G1 X83.445 Y109.923 E17.30116
G1 X82.793 Y109.457 E17.35368
G1 X82.405 Y109.148 E17.38615
G1 X81.790 Y108.603 E17.43989
G1 X81.402 Y108.215 E17.47586
G1 X80.859 Y107.602 E17.52942
G1 X80.568 Y107.238 E17.55992
G1 X80.082 Y106.560 E17.61459
G1 X79.610 Y105.769 E17.67486
G1 X79.199 Y104.967 E17.73382
G1 X78.871 Y104.187 E17.78925
G1 X78.689 Y103.668 E17.82522
G1 X78.460 Y102.854 E17.88062
G1 X78.367 Y102.445 E17.90809
G1 X78.218 Y101.604 E17.96394
G1 X78.157 Y101.058 E17.99991
G1 X78.114 Y100.206 E18.05576
G1 X78.114 Y99.794 E18.08279
G1 X78.157 Y98.941 E18.13864
G1 X78.218 Y98.396 E18.17461
G1 X78.367 Y97.555 E18.23046
G1 X78.575 Y96.730 E18.28621
G1 X78.689 Y96.332 E18.31332
G1 X78.871 Y95.813 E18.34929
G1 X79.199 Y95.033 E18.40472
G1 X79.390 Y94.638 E18.43343
G1 X79.789 Y93.906 E18.48802
G1 X80.082 Y93.440 E18.52399
G1 X80.568 Y92.762 E18.57866
G1 X81.208 Y92.002 E18.64372
G1 X81.748 Y91.439 E18.69473
G1 X82.090 Y91.732 F3900.000
G1 F900
G1 X82.702 Y91.190 E18.74827
G1 X83.055 Y90.909 E18.77776
G1 X83.706 Y90.444 E18.83015
G1 X84.239 Y90.117 E18.87113
G1 X84.834 Y89.791 E18.91553
G1 X85.262 Y89.585 E18.94663
G1 X86.010 Y89.275 E18.99964
G1 X86.467 Y89.116 E19.03126
G1 X87.241 Y88.894 E19.08398
G1 X87.715 Y88.787 E19.11581
G1 X88.872 Y88.609 E19.19243
G1 X89.919 Y88.553 E19.26107
G1 X110.244 Y88.555 E20.59166
G1 X111.128 Y88.609 E20.64967
G1 X112.285 Y88.787 E20.72629
G1 X112.759 Y88.894 E20.75811
G1 X113.533 Y89.116 E20.81083
G1 X113.990 Y89.275 E20.84246
G1 X114.738 Y89.585 E20.89546
G1 X115.166 Y89.791 E20.92656
G1 X115.761 Y90.117 E20.97096
G1 X116.294 Y90.444 E21.01194
G1 X116.945 Y90.909 E21.06433
G1 X117.298 Y91.190 E21.09382
G1 X117.910 Y91.732 E21.14737
G1 X118.263 Y92.085 E21.18004
G1 X118.803 Y92.695 E21.23338
G1 X119.067 Y93.026 E21.26108
G1 X119.551 Y93.701 E21.31546
G1 X119.817 Y94.123 E21.34813
G1 X120.214 Y94.851 E21.40241
G1 X120.387 Y95.210 E21.42849
G1 X120.713 Y95.985 E21.48355
G1 X120.878 Y96.456 E21.51622
G1 X120.993 Y96.854 E21.54333
G1 X121.191 Y97.637 E21.59619
G1 X121.338 Y98.471 E21.65163
G1 X121.394 Y98.967 E21.68430
G1 X121.436 Y99.812 E21.73973
G1 X121.436 Y100.188 E21.76428
G1 X121.394 Y101.033 E21.81972
G1 X121.338 Y101.529 E21.85239
G1 X121.191 Y102.363 E21.90783
G1 X121.106 Y102.735 E21.93278
G1 X120.878 Y103.544 E21.98781
G1 X120.713 Y104.015 E22.02048
G1 X120.387 Y104.790 E22.07554
G1 X120.214 Y105.149 E22.10161
G1 X119.817 Y105.877 E22.15590
G1 X119.551 Y106.299 E22.18857
G1 X119.067 Y106.974 E22.24295
G1 X118.803 Y107.305 E22.27065
G1 X118.263 Y107.915 E22.32399
G1 X117.694 Y108.461 E22.37563
G1 X116.945 Y109.091 E22.43966
G1 X116.294 Y109.556 E22.49205
G1 X115.872 Y109.822 E22.52472
G1 X115.166 Y110.209 E22.57744
G1 X114.738 Y110.415 E22.60854
G1 X113.990 Y110.725 E22.66154
G1 X113.533 Y110.884 E22.69317
G1 X112.780 Y111.100 E22.74448
G1 X112.285 Y111.213 E22.77771
G1 X111.128 Y111.391 E22.85433
G1 X110.137 Y111.447 E22.91933
G1 X89.890 Y111.447 E24.24483
G1 X89.311 Y111.426 E24.28275
G1 X88.511 Y111.346 E24.33535
G1 X87.715 Y111.213 E24.38821
G1 X87.241 Y111.106 E24.42000
G1 X86.467 Y110.884 E24.47275
G1 X86.010 Y110.725 E24.50438
G1 X85.262 Y110.415 E24.55738
G1 X84.834 Y110.209 E24.58848
G1 X84.128 Y109.822 E24.64120
G1 X83.706 Y109.556 E24.67387
G1 X83.055 Y109.091 E24.72626
G1 X82.702 Y108.810 E24.75575
G1 X82.090 Y108.268 E24.80930
G1 X81.737 Y107.915 E24.84197
G1 X81.197 Y107.305 E24.89531
G1 X80.933 Y106.974 E24.92301
G1 X80.449 Y106.299 E24.97739
G1 X80.003 Y105.551 E25.03437
G1 X79.613 Y104.790 E25.09038
G1 X79.287 Y104.015 E25.14545
G1 X79.122 Y103.544 E25.17811
G1 X78.894 Y102.735 E25.23314
G1 X78.809 Y102.363 E25.25809
G1 X78.662 Y101.529 E25.31354
G1 X78.606 Y101.033 E25.34620
G1 X78.564 Y100.187 E25.40164
G1 X78.564 Y99.813 E25.42619
G1 X78.606 Y98.967 E25.48163
G1 X78.662 Y98.471 E25.51429
G1 X78.809 Y97.637 E25.56974
G1 X79.007 Y96.854 E25.62259
G1 X79.122 Y96.456 E25.64970
G1 X79.287 Y95.985 E25.68237
G1 X79.613 Y95.210 E25.73744
G1 X79.786 Y94.851 E25.76351
G1 X80.183 Y94.123 E25.81780
G1 X80.449 Y93.701 E25.85046
G1 X80.933 Y93.026 E25.90485
G1 X81.544 Y92.301 E25.96689
G1 X82.048 Y91.775 E26.01459
G1 E22.51459 F3000.00000
G92 E0
G1 X113.861 Y104.357 F3900.000
G1 E3.50000 F3000.00000
G1 F900
G1 X113.629 Y104.563 E3.52027
G1 X113.100 Y104.941 E3.56289
G1 X112.524 Y105.257 E3.60590
G1 X111.919 Y105.508 E3.64878
G1 X111.290 Y105.689 E3.69158
G1 X110.620 Y105.801 E3.73607
G1 X109.952 Y105.834 E3.77985
G1 X109.368 Y105.799 E3.81813
G1 X108.710 Y105.689 E3.86185
G1 X108.081 Y105.508 E3.90465
G1 X107.476 Y105.257 E3.94753
G1 X106.900 Y104.941 E3.99054
G1 X106.371 Y104.563 E4.03316
G1 X105.879 Y104.127 E4.07620
G1 X105.447 Y103.639 E4.11887
G1 X105.064 Y103.105 E4.16187
G1 X104.751 Y102.532 E4.20458
G1 X104.497 Y101.927 E4.24753
G1 X104.320 Y101.299 E4.29030
G1 X104.206 Y100.653 E4.33319
G1 X104.174 Y100.000 E4.37601
G1 X104.206 Y99.347 E4.41884
G1 X104.320 Y98.701 E4.46173
G1 X104.497 Y98.073 E4.50450
G1 X104.751 Y97.468 E4.54745
G1 X105.064 Y96.895 E4.59016
G1 X105.447 Y96.361 E4.63316
G1 X105.879 Y95.873 E4.67583
G1 X106.371 Y95.437 E4.71887
G1 X106.900 Y95.059 E4.76149
G1 X107.476 Y94.743 E4.80450
G1 X108.081 Y94.492 E4.84738
G1 X108.710 Y94.311 E4.89018
G1 X109.363 Y94.201 E4.93354
G1 X110.055 Y94.167 E4.97891
G1 X110.632 Y94.201 E5.01674
G1 X111.290 Y94.311 E5.06043
G1 X111.919 Y94.492 E5.10324
G1 X112.524 Y94.743 E5.14612
G1 X113.100 Y95.059 E5.18912
G1 X113.629 Y95.437 E5.23175
G1 X114.121 Y95.873 E5.27479
G1 X114.553 Y96.361 E5.31745
G1 X114.936 Y96.895 E5.36045
G1 X115.249 Y97.468 E5.40317
G1 X115.503 Y98.073 E5.44611
G1 X115.680 Y98.701 E5.48888
G1 X115.794 Y99.347 E5.53177
G1 X115.826 Y100.000 E5.57460
G1 X115.794 Y100.653 E5.61743
G1 X115.680 Y101.299 E5.66032
G1 X115.503 Y101.927 E5.70309
G1 X115.249 Y102.532 E5.74603
G1 X114.936 Y103.105 E5.78875
G1 X114.553 Y103.639 E5.83175
G1 X114.121 Y104.127 E5.87441
G1 X113.906 Y104.318 E5.89326
G1 X114.159 Y104.694 F3900.000
G1 F900
G1 X113.910 Y104.915 E5.91507
G1 X113.339 Y105.323 E5.96098
G1 X112.719 Y105.664 E6.00734
G1 X112.067 Y105.934 E6.05349
G1 X111.390 Y106.129 E6.09964
G1 X110.675 Y106.248 E6.14708
G1 X109.943 Y106.285 E6.19508
G1 X109.318 Y106.247 E6.23609
G1 X108.610 Y106.129 E6.28305
G1 X107.932 Y105.934 E6.32921
G1 X107.281 Y105.664 E6.37536
G1 X106.661 Y105.323 E6.42172
G1 X106.090 Y104.915 E6.46763
G1 X105.560 Y104.445 E6.51400
G1 X105.095 Y103.920 E6.55996
G1 X104.682 Y103.345 E6.60628
G1 X104.346 Y102.728 E6.65229
G1 X104.071 Y102.076 E6.69855
G1 X103.881 Y101.399 E6.74462
G1 X103.758 Y100.704 E6.79082
G1 X103.723 Y100.000 E6.83696
G1 X103.758 Y99.296 E6.88309
G1 X103.881 Y98.601 E6.92929
G1 X104.071 Y97.924 E6.97537
G1 X104.346 Y97.272 E7.02163
G1 X104.682 Y96.655 E7.06764
G1 X105.095 Y96.080 E7.11396
G1 X105.560 Y95.555 E7.15992
G1 X106.090 Y95.085 E7.20628
G1 X106.661 Y94.677 E7.25220
G1 X107.281 Y94.336 E7.29856
G1 X107.932 Y94.066 E7.34471
G1 X108.610 Y93.871 E7.39086
G1 X109.314 Y93.753 E7.43761
G1 X110.057 Y93.716 E7.48630
G1 X110.683 Y93.753 E7.52732
G1 X111.390 Y93.871 E7.57427
G1 X112.067 Y94.066 E7.62042
G1 X112.719 Y94.336 E7.66657
G1 X113.339 Y94.677 E7.71293
G1 X113.910 Y95.085 E7.75884
G1 X114.440 Y95.555 E7.80521
G1 X114.905 Y96.080 E7.85117
G1 X115.318 Y96.655 E7.89749
G1 X115.654 Y97.272 E7.94350
G1 X115.929 Y97.924 E7.98976
G1 X116.119 Y98.601 E8.03583
G1 X116.242 Y99.296 E8.08203
G1 X116.277 Y100.000 E8.12817
G1 X116.242 Y100.704 E8.17431
G1 X116.119 Y101.399 E8.22051
G1 X115.929 Y102.076 E8.26658
G1 X115.654 Y102.728 E8.31284
G1 X115.318 Y103.345 E8.35885
G1 X114.905 Y103.920 E8.40517
G1 X114.440 Y104.445 E8.45113
G1 X114.204 Y104.654 E8.47176
G1 X114.458 Y105.031 F3900.000
G1 F900
G1 X114.191 Y105.267 E8.49511
G1 X113.579 Y105.704 E8.54431
G1 X112.914 Y106.070 E8.59403
G1 X112.216 Y106.359 E8.64344
G1 X111.490 Y106.568 E8.69295
G1 X110.730 Y106.695 E8.74334
G1 X109.934 Y106.735 E8.79554
G1 X109.267 Y106.695 E8.83929
G1 X108.510 Y106.568 E8.88951
G1 X107.784 Y106.359 E8.93901
G1 X107.086 Y106.070 E8.98843
G1 X106.421 Y105.704 E9.03814
G1 X105.809 Y105.267 E9.08735
G1 X105.241 Y104.764 E9.13704
G1 X104.742 Y104.201 E9.18629
G1 X104.301 Y103.584 E9.23593
G1 X103.940 Y102.923 E9.28524
G1 X103.646 Y102.225 E9.33482
G1 X103.442 Y101.499 E9.38419
G1 X103.310 Y100.754 E9.43370
G1 X103.273 Y100.000 E9.48315
G1 X103.310 Y99.246 E9.53259
G1 X103.442 Y98.501 E9.58210
G1 X103.646 Y97.775 E9.63148
G1 X103.940 Y97.077 E9.68105
G1 X104.301 Y96.416 E9.73036
G1 X104.742 Y95.799 E9.78000
G1 X105.241 Y95.236 E9.82925
G1 X105.809 Y94.733 E9.87894
G1 X106.421 Y94.296 E9.92815
G1 X107.086 Y93.930 E9.97787
G1 X107.784 Y93.641 E10.02728
G1 X108.510 Y93.432 E10.07679
G1 X109.266 Y93.305 E10.12692
G1 X110.059 Y93.265 E10.17892
G1 X110.733 Y93.305 E10.22313
G1 X111.490 Y93.432 E10.27334
G1 X112.216 Y93.641 E10.32285
G1 X112.914 Y93.930 E10.37226
G1 X113.579 Y94.296 E10.42198
G1 X114.191 Y94.733 E10.47118
G1 X114.759 Y95.236 E10.52087
G1 X115.258 Y95.799 E10.57013
G1 X115.699 Y96.416 E10.61977
G1 X116.060 Y97.077 E10.66908
G1 X116.354 Y97.775 E10.71865
G1 X116.558 Y98.501 E10.76803
G1 X116.690 Y99.246 E10.81754
G1 X116.727 Y100.000 E10.86698
G1 X116.690 Y100.754 E10.91642
G1 X116.558 Y101.499 E10.96594
G1 X116.354 Y102.225 E11.01531
G1 X116.060 Y102.923 E11.06489
G1 X115.699 Y103.584 E11.11420
G1 X115.258 Y104.201 E11.16384
G1 X114.759 Y104.764 E11.21309
G1 X114.503 Y104.991 E11.23551
G1 X114.117 Y104.927 F3900.000
G1 X113.754 Y103.857 F3900.000
G1 F900
G1 X114.249 Y103.310 E11.28575
G1 X114.602 Y102.817 E11.32702
G1 X114.890 Y102.289 E11.36801
G1 X115.058 Y101.890 E11.39746
G1 X111.886 Y105.063 E11.70297
G1 X111.722 Y105.131 E11.71502
G1 X111.143 Y105.297 E11.75606
