; generated by Slic3r 1.3.0 on 2022-03-30 at 14:43:29

; external perimeters extrusion width = 0.44mm (0.85mm^3/s)
; perimeters extrusion width = 0.48mm (3.77mm^3/s)
; infill extrusion width = 0.48mm (4.40mm^3/s)
; solid infill extrusion width = 0.48mm (1.26mm^3/s)
; top infill extrusion width = 0.48mm (0.88mm^3/s)

M190 S65 ; set bed temperature and wait for it to be reached
M104 S205 ; set temperature
; M106 P0 S255 ; turn hot-end fan on
G28 ; home all axes
G1 Z5 F5000 ; lift nozzle


; Filament gcode

M109 S205 ; set temperature and wait for it to be reached
G21 ; set units to millimeters
G90 ; use absolute coordinates
M82 ; use absolute distances for extrusion
G92 E0
G1 Z-0.150 F3900.000
G1 E-3.50000 F3000.00000
G92 E0
G1 X99.975 Y83.979 F3900.000
G1 E3.50000 F3000.00000
G1 F900
G1 X100.724 Y83.303 E3.56608
G1 X101.459 Y82.742 E3.62661
G1 X102.220 Y82.242 E3.68622
G1 X102.858 Y81.895 E3.73378
G1 X103.289 Y81.687 E3.76513
G1 X103.971 Y81.399 E3.81357
G1 X104.537 Y81.201 E3.85284
G1 X105.250 Y81.001 E3.90128
G1 X105.696 Y80.899 E3.93128
G1 X106.432 Y80.769 E3.98019
G1 X107.028 Y80.701 E4.01946
G1 X107.775 Y80.665 E4.06838
G1 X108.225 Y80.665 E4.09789
G1 X108.972 Y80.701 E4.14681
G1 X109.568 Y80.769 E4.18608
G1 X110.304 Y80.899 E4.23500
G1 X110.750 Y81.001 E4.26499
G1 X111.463 Y81.201 E4.31343
G1 X112.029 Y81.399 E4.35270
G1 X112.711 Y81.687 E4.40115
G1 X113.142 Y81.895 E4.43249
G1 X113.780 Y82.242 E4.48005
G1 X114.288 Y82.562 E4.51933
G1 X114.879 Y82.986 E4.56694
G1 X115.276 Y83.303 E4.60023
G1 X115.807 Y83.773 E4.64668
G1 X116.232 Y84.198 E4.68595
G1 X116.703 Y84.730 E4.73254
G1 X117.040 Y85.154 E4.76799
G1 X117.443 Y85.717 E4.81330
G1 X117.763 Y86.225 E4.85259
G1 X118.097 Y86.836 E4.89816
G1 X118.345 Y87.350 E4.93556
G1 X118.614 Y88.001 E4.98165
G1 X118.804 Y88.550 E5.01967
G1 X118.965 Y89.107 E5.05761
G1 X119.125 Y89.791 E5.10364
G1 X119.294 Y90.912 E5.17786
G1 X119.343 Y91.725 E5.23119
G1 X119.327 Y92.669 E5.29297
G1 X119.240 Y93.521 E5.34903
G1 X119.125 Y94.209 E5.39469
G1 X118.997 Y94.780 E5.43298
G1 X118.804 Y95.450 E5.47867
G1 X118.614 Y95.999 E5.51668
G1 X118.345 Y96.650 E5.56278
G1 X118.097 Y97.164 E5.60017
G1 X117.763 Y97.775 E5.64575
G1 X117.443 Y98.283 E5.68504
G1 X117.040 Y98.846 E5.73034
G1 X116.703 Y99.270 E5.76580
G1 X116.232 Y99.802 E5.81239
G1 X100.025 Y116.021 E7.31332
G1 X99.276 Y116.697 E7.37941
G1 X98.879 Y117.014 E7.41270
G1 X98.288 Y117.438 E7.46031
G1 X97.780 Y117.758 E7.49958
G1 X97.142 Y118.105 E7.54714
G1 X96.711 Y118.313 E7.57849
G1 X96.029 Y118.601 E7.62693
G1 X95.463 Y118.799 E7.66621
G1 X94.750 Y118.999 E7.71464
G1 X93.884 Y119.178 E7.77255
G1 X92.972 Y119.299 E7.83279
G1 X92.577 Y119.320 E7.85867
G1 X91.775 Y119.335 E7.91121
G1 X91.028 Y119.299 E7.96013
G1 X90.432 Y119.231 E7.99940
G1 X89.696 Y119.101 E8.04831
G1 X89.250 Y118.999 E8.07831
G1 X88.537 Y118.799 E8.12675
G1 X87.971 Y118.601 E8.16602
G1 X87.289 Y118.313 E8.21446
G1 X86.447 Y117.883 E8.27637
G1 X85.712 Y117.438 E8.33261
G1 X85.121 Y117.014 E8.38022
G1 X84.724 Y116.697 E8.41351
G1 X84.193 Y116.227 E8.45996
G1 X83.768 Y115.802 E8.49923
G1 X83.297 Y115.270 E8.54582
G1 X82.960 Y114.846 E8.58127
G1 X82.557 Y114.283 E8.62659
G1 X82.237 Y113.775 E8.66586
G1 X81.903 Y113.164 E8.71145
G1 X81.655 Y112.650 E8.74884
G1 X81.477 Y112.222 E8.77918
G1 X81.196 Y111.450 E8.83294
G1 X81.003 Y110.780 E8.87862
G1 X80.875 Y110.209 E8.91691
G1 X80.760 Y109.521 E8.96258
G1 X80.703 Y109.051 E8.99357
G1 X80.653 Y108.029 E9.06053
G1 X80.663 Y107.532 E9.09308
G1 X80.706 Y106.912 E9.13375
G1 X80.875 Y105.791 E9.20798
G1 X81.003 Y105.220 E9.24627
G1 X81.196 Y104.550 E9.29195
G1 X81.386 Y104.001 E9.32997
G1 X81.655 Y103.350 E9.37607
G1 X81.903 Y102.836 E9.41346
G1 X82.238 Y102.225 E9.45906
G1 X82.557 Y101.717 E9.49832
G1 X82.960 Y101.154 E9.54363
G1 X83.297 Y100.730 E9.57909
G1 X83.768 Y100.198 E9.62568
G1 X99.932 Y84.022 E11.12268
G1 X100.293 Y84.298 F3900.000
G1 F900
G1 X101.021 Y83.641 E11.18689
G1 X101.722 Y83.106 E11.24462
G1 X102.438 Y82.636 E11.30065
G1 X103.072 Y82.291 E11.34790
G1 X103.467 Y82.100 E11.37661
G1 X104.143 Y81.815 E11.42469
G1 X104.662 Y81.633 E11.46067
G1 X105.369 Y81.435 E11.50873
G1 X105.778 Y81.341 E11.53620
G1 X106.507 Y81.212 E11.58471
G1 X107.053 Y81.151 E11.62068
G1 X107.794 Y81.114 E11.66919
G1 X108.206 Y81.114 E11.69622
G1 X108.947 Y81.151 E11.74472
G1 X109.493 Y81.212 E11.78069
G1 X110.222 Y81.341 E11.82920
G1 X110.631 Y81.435 E11.85667
G1 X111.338 Y81.633 E11.90473
G1 X111.857 Y81.815 E11.94071
G1 X112.533 Y82.100 E11.98879
G1 X112.928 Y82.291 E12.01750
G1 X113.562 Y82.636 E12.06475
G1 X114.239 Y83.079 E12.11769
G1 X114.979 Y83.641 E12.17851
G1 X115.508 Y84.109 E12.22473
G1 X115.896 Y84.497 E12.26070
G1 X116.366 Y85.028 E12.30710
G1 X116.675 Y85.416 E12.33957
G1 X117.076 Y85.977 E12.38475
G1 X117.369 Y86.443 E12.42074
G1 X117.703 Y87.052 E12.46621
G1 X117.929 Y87.523 E12.50045
G1 X118.198 Y88.172 E12.54638
G1 X118.372 Y88.674 E12.58120
G1 X118.532 Y89.231 E12.61914
G1 X118.682 Y89.866 E12.66182
G1 X118.845 Y90.949 E12.73357
G1 X118.894 Y91.738 E12.78530
G1 X118.878 Y92.637 E12.84415
G1 X118.796 Y93.448 E12.89749
G1 X118.682 Y94.134 E12.94308
G1 X118.564 Y94.657 E12.97815
G1 X118.372 Y95.326 E13.02370
G1 X118.198 Y95.828 E13.05852
G1 X117.929 Y96.477 E13.10445
G1 X117.703 Y96.948 E13.13870
G1 X117.369 Y97.557 E13.18417
G1 X117.076 Y98.023 E13.22016
G1 X116.675 Y98.584 E13.26533
G1 X116.366 Y98.972 E13.29781
G1 X115.896 Y99.503 E13.34420
G1 X99.707 Y115.702 E14.84349
G1 X98.979 Y116.359 E14.90770
G1 X98.615 Y116.650 E14.93819
G1 X98.028 Y117.071 E14.98552
G1 X97.562 Y117.364 E15.02149
G1 X96.928 Y117.709 E15.06874
G1 X96.533 Y117.900 E15.09745
G1 X95.857 Y118.185 E15.14553
G1 X95.338 Y118.367 E15.18151
G1 X94.631 Y118.565 E15.22957
G1 X93.809 Y118.734 E15.28454
G1 X92.947 Y118.849 E15.34148
G1 X92.206 Y118.886 E15.38999
G1 X91.794 Y118.886 E15.41702
G1 X91.053 Y118.849 E15.46553
G1 X90.507 Y118.788 E15.50150
G1 X89.778 Y118.659 E15.55001
G1 X89.369 Y118.565 E15.57748
G1 X88.662 Y118.367 E15.62554
G1 X88.143 Y118.185 E15.66151
G1 X87.467 Y117.900 E15.70960
G1 X86.665 Y117.489 E15.76855
G1 X85.972 Y117.072 E15.82150
G1 X85.385 Y116.650 E15.86882
G1 X85.021 Y116.359 E15.89932
G1 X84.492 Y115.891 E15.94554
G1 X84.104 Y115.503 E15.98151
G1 X83.634 Y114.972 E16.02791
G1 X83.325 Y114.584 E16.06038
G1 X82.924 Y114.023 E16.10556
G1 X82.631 Y113.557 E16.14154
G1 X82.297 Y112.948 E16.18701
G1 X82.071 Y112.477 E16.22126
G1 X81.894 Y112.051 E16.25144
G1 X81.628 Y111.326 E16.30199
G1 X81.436 Y110.657 E16.34755
G1 X81.318 Y110.134 E16.38262
G1 X81.204 Y109.448 E16.42821
G1 X81.150 Y108.999 E16.45780
G1 X81.103 Y108.001 E16.52318
G1 X81.112 Y107.547 E16.55289
G1 X81.155 Y106.949 E16.59214
G1 X81.318 Y105.866 E16.66389
G1 X81.436 Y105.343 E16.69896
G1 X81.628 Y104.674 E16.74452
G1 X81.802 Y104.172 E16.77934
G1 X82.071 Y103.523 E16.82526
G1 X82.297 Y103.052 E16.85951
G1 X82.631 Y102.443 E16.90500
G1 X82.924 Y101.977 E16.94096
G1 X83.325 Y101.416 E16.98615
G1 X83.634 Y101.028 E17.01862
G1 X84.104 Y100.497 E17.06502
G1 X100.250 Y84.340 E18.56037
G1 X100.611 Y84.616 F3900.000
G1 F900
G1 X101.319 Y83.979 E18.62271
G1 X101.649 Y83.715 E18.65041
G1 X102.233 Y83.295 E18.69745
G1 X102.655 Y83.030 E18.73012
G1 X103.285 Y82.687 E18.77706
G1 X103.644 Y82.514 E18.80313
G1 X104.315 Y82.230 E18.85086
G1 X104.786 Y82.066 E18.88353
G1 X105.488 Y81.869 E18.93121
G1 X106.583 Y81.656 E19.00424
G1 X107.079 Y81.600 E19.03691
G1 X107.813 Y81.564 E19.08501
G1 X108.921 Y81.600 E19.15763
G1 X109.417 Y81.656 E19.19030
G1 X110.512 Y81.869 E19.26333
G1 X111.214 Y82.066 E19.31102
G1 X111.685 Y82.230 E19.34369
G1 X112.356 Y82.514 E19.39141
G1 X112.715 Y82.687 E19.41749
G1 X113.345 Y83.030 E19.46443
G1 X113.767 Y83.295 E19.49710
G1 X114.351 Y83.715 E19.54414
G1 X114.681 Y83.979 E19.57183
G1 X115.208 Y84.444 E19.61784
G1 X115.679 Y84.930 E19.66214
G1 X116.309 Y85.678 E19.72617
G1 X116.709 Y86.238 E19.77122
G1 X116.975 Y86.660 E19.80390
G1 X117.308 Y87.268 E19.84926
G1 X117.690 Y88.119 E19.91035
G1 X117.940 Y88.798 E19.95771
G1 X118.131 Y89.465 E20.00314
G1 X118.238 Y89.940 E20.03499
G1 X118.353 Y90.626 E20.08050
G1 X118.429 Y91.395 E20.13109
G1 X118.444 Y92.253 E20.18726
G1 X118.397 Y93.014 E20.23718
G1 X118.238 Y94.060 E20.30645
G1 X118.100 Y94.645 E20.34578
G1 X117.940 Y95.202 E20.38372
G1 X117.781 Y95.658 E20.41534
G1 X117.514 Y96.304 E20.46110
G1 X117.308 Y96.732 E20.49221
G1 X116.975 Y97.340 E20.53757
G1 X116.709 Y97.762 E20.57025
G1 X116.309 Y98.322 E20.61530
G1 X116.028 Y98.674 E20.64479
G1 X115.561 Y99.203 E20.69100
G1 X99.389 Y115.384 E22.18863
G1 X98.681 Y116.021 E22.25097
G1 X98.351 Y116.285 E22.27866
G1 X97.767 Y116.705 E22.32571
G1 X97.345 Y116.970 E22.35838
G1 X96.715 Y117.313 E22.40532
G1 X95.964 Y117.654 E22.45933
G1 X95.214 Y117.934 E22.51175
G1 X94.512 Y118.131 E22.55944
G1 X93.417 Y118.344 E22.63247
G1 X92.921 Y118.400 E22.66514
G1 X92.188 Y118.436 E22.71323
G1 X91.079 Y118.400 E22.78586
G1 X90.583 Y118.344 E22.81853
G1 X89.859 Y118.216 E22.86663
G1 X88.786 Y117.934 E22.93924
G1 X88.315 Y117.770 E22.97191
G1 X87.644 Y117.486 E23.01964
G1 X87.285 Y117.313 E23.04571
G1 X86.655 Y116.970 E23.09265
G1 X86.233 Y116.705 E23.12532
G1 X85.649 Y116.285 E23.17236
G1 X85.319 Y116.021 E23.20006
G1 X84.792 Y115.556 E23.24607
G1 X84.439 Y115.203 E23.27873
G1 X83.972 Y114.674 E23.32494
G1 X83.691 Y114.322 E23.35443
G1 X83.290 Y113.762 E23.39948
G1 X83.018 Y113.327 E23.43313
G1 X82.692 Y112.732 E23.47752
G1 X82.486 Y112.304 E23.50863
G1 X82.219 Y111.658 E23.55438
G1 X82.060 Y111.202 E23.58601
G1 X81.869 Y110.535 E23.63144
G1 X81.762 Y110.060 E23.66329
G1 X81.647 Y109.374 E23.70880
G1 X81.603 Y109.014 E23.73257
G1 X81.558 Y108.323 E23.77792
G1 X81.571 Y107.395 E23.83862
G1 X81.603 Y106.986 E23.86548
G1 X81.686 Y106.395 E23.90456
G1 X81.762 Y105.940 E23.93476
G1 X81.869 Y105.465 E23.96661
G1 X82.060 Y104.798 E24.01205
G1 X82.219 Y104.342 E24.04367
G1 X82.486 Y103.696 E24.08942
G1 X82.692 Y103.268 E24.12053
G1 X83.025 Y102.660 E24.16591
G1 X83.290 Y102.238 E24.19857
G1 X83.691 Y101.678 E24.24363
G1 X83.972 Y101.326 E24.27312
G1 X84.439 Y100.797 E24.31932
G1 X100.568 Y84.658 E25.81303
G1 E22.31303 F3000.00000
G92 E0
G1 X111.779 Y95.008 F3900.000
G1 E3.50000 F3000.00000
G1 F900
G1 X111.422 Y95.412 E3.53535
G1 X111.015 Y95.771 E3.57086
G1 X110.573 Y96.089 E3.60652
G1 X110.098 Y96.348 E3.64189
G1 X109.597 Y96.559 E3.67749
G1 X109.076 Y96.705 E3.71293
G1 X108.541 Y96.800 E3.74847
G1 X108.000 Y96.827 E3.78396
G1 X107.459 Y96.800 E3.81945
G1 X106.924 Y96.705 E3.85499
G1 X106.403 Y96.559 E3.89043
G1 X105.902 Y96.348 E3.92603
G1 X105.427 Y96.089 E3.96140
G1 X104.985 Y95.771 E3.99706
G1 X104.580 Y95.414 E4.03239
G1 X104.220 Y95.007 E4.06798
G1 X103.899 Y94.556 E4.10425
G1 X103.644 Y94.090 E4.13897
G1 X103.436 Y93.588 E4.17460
G1 X103.286 Y93.065 E4.21016
G1 X103.195 Y92.519 E4.24640
G1 X103.167 Y92.022 E4.27902
G1 X103.195 Y91.478 E4.31467
G1 X103.286 Y90.935 E4.35075
G1 X103.436 Y90.412 E4.38631
G1 X103.644 Y89.910 E4.42194
G1 X103.899 Y89.444 E4.45667
G1 X104.221 Y88.992 E4.49299
G1 X104.578 Y88.588 E4.52834
G1 X104.985 Y88.229 E4.56386
G1 X105.427 Y87.911 E4.59951
G1 X105.902 Y87.652 E4.63489
G1 X106.403 Y87.441 E4.67049
G1 X106.924 Y87.295 E4.70592
G1 X107.459 Y87.200 E4.74147
G1 X108.004 Y87.173 E4.77721
G1 X108.537 Y87.199 E4.81217
G1 X109.076 Y87.295 E4.84799
G1 X109.597 Y87.441 E4.88342
G1 X110.098 Y87.652 E4.91903
G1 X110.573 Y87.911 E4.95440
G1 X111.015 Y88.229 E4.99005
G1 X111.420 Y88.586 E5.02538
G1 X111.780 Y88.993 E5.06098
G1 X112.101 Y89.444 E5.09724
G1 X112.356 Y89.910 E5.13197
G1 X112.564 Y90.412 E5.16760
G1 X112.714 Y90.935 E5.20316
G1 X112.805 Y91.478 E5.23925
G1 X112.833 Y92.022 E5.27489
G1 X112.805 Y92.519 E5.30751
G1 X112.714 Y93.065 E5.34375
G1 X112.564 Y93.588 E5.37931
G1 X112.356 Y94.090 E5.41494
G1 X112.101 Y94.556 E5.44967
G1 X111.814 Y94.959 E5.48207
G1 X112.146 Y95.269 F3900.000
G1 F900
G1 X111.739 Y95.732 E5.52240
G1 X111.296 Y96.124 E5.56113
G1 X110.813 Y96.471 E5.60011
G1 X110.294 Y96.753 E5.63878
G1 X109.746 Y96.985 E5.67770
G1 X109.176 Y97.144 E5.71643
G1 X108.592 Y97.248 E5.75529
G1 X108.000 Y97.277 E5.79408
G1 X107.408 Y97.248 E5.83288
G1 X106.824 Y97.144 E5.87174
G1 X106.254 Y96.985 E5.91047
G1 X105.706 Y96.753 E5.94939
G1 X105.187 Y96.471 E5.98806
G1 X104.704 Y96.124 E6.02704
G1 X104.262 Y95.733 E6.06566
G1 X103.867 Y95.287 E6.10462
G1 X103.517 Y94.795 E6.14417
G1 X103.238 Y94.285 E6.18224
G1 X103.010 Y93.736 E6.22114
G1 X102.846 Y93.165 E6.26004
G1 X102.747 Y92.569 E6.29958
G1 X102.716 Y92.023 E6.33540
G1 X102.747 Y91.429 E6.37431
G1 X102.846 Y90.835 E6.41375
G1 X103.010 Y90.264 E6.45265
G1 X103.238 Y89.715 E6.49155
G1 X103.517 Y89.205 E6.52962
G1 X103.868 Y88.712 E6.56921
G1 X104.261 Y88.268 E6.60802
G1 X104.704 Y87.876 E6.64675
G1 X105.187 Y87.529 E6.68573
G1 X105.706 Y87.247 E6.72440
G1 X106.254 Y87.015 E6.76332
G1 X106.824 Y86.856 E6.80205
G1 X107.408 Y86.752 E6.84091
G1 X108.002 Y86.723 E6.87986
G1 X108.589 Y86.752 E6.91833
G1 X109.176 Y86.856 E6.95736
G1 X109.746 Y87.015 E6.99609
G1 X110.294 Y87.247 E7.03501
G1 X110.813 Y87.529 E7.07368
G1 X111.296 Y87.876 E7.11266
G1 X111.738 Y88.267 E7.15128
G1 X112.133 Y88.713 E7.19024
G1 X112.483 Y89.205 E7.22979
G1 X112.762 Y89.715 E7.26786
G1 X112.990 Y90.264 E7.30676
G1 X113.154 Y90.835 E7.34566
G1 X113.253 Y91.429 E7.38510
G1 X113.284 Y92.023 E7.42401
G1 X113.253 Y92.569 E7.45983
G1 X113.154 Y93.165 E7.49937
G1 X112.990 Y93.736 E7.53827
G1 X112.762 Y94.285 E7.57717
G1 X112.483 Y94.795 E7.61524
G1 X112.181 Y95.220 E7.64937
G1 X112.512 Y95.530 F3900.000
G1 F900
G1 X112.057 Y96.051 E7.69469
G1 X111.577 Y96.476 E7.73664
G1 X111.052 Y96.853 E7.77894
G1 X110.489 Y97.159 E7.82091
G1 X109.895 Y97.410 E7.86314
G1 X109.277 Y97.584 E7.90518
G1 X108.642 Y97.696 E7.94735
G1 X108.000 Y97.727 E7.98945
G1 X107.358 Y97.696 E8.03155
G1 X106.723 Y97.584 E8.07372
G1 X106.105 Y97.410 E8.11576
G1 X105.511 Y97.159 E8.15799
G1 X104.948 Y96.853 E8.19996
G1 X104.423 Y96.476 E8.24226
G1 X103.943 Y96.052 E8.28417
G1 X103.515 Y95.568 E8.32650
G1 X103.135 Y95.034 E8.36934
G1 X102.831 Y94.480 E8.41074
G1 X102.585 Y93.885 E8.45291
G1 X102.407 Y93.264 E8.49516
G1 X102.299 Y92.619 E8.53799
G1 X102.266 Y92.024 E8.57702
G1 X102.299 Y91.380 E8.61919
G1 X102.407 Y90.736 E8.66199
G1 X102.585 Y90.115 E8.70424
G1 X102.831 Y89.520 E8.74641
G1 X103.135 Y88.966 E8.78781
G1 X103.515 Y88.432 E8.83066
G1 X103.943 Y87.949 E8.87293
G1 X104.423 Y87.524 E8.91489
G1 X104.948 Y87.147 E8.95718
G1 X105.511 Y86.841 E8.99915
G1 X106.105 Y86.590 E9.04139
G1 X106.723 Y86.416 E9.08342
G1 X107.358 Y86.304 E9.12559
G1 X108.001 Y86.273 E9.16775
G1 X108.641 Y86.304 E9.20973
G1 X109.277 Y86.416 E9.25197
G1 X109.895 Y86.590 E9.29400
G1 X110.489 Y86.841 E9.33624
G1 X111.052 Y87.147 E9.37821
G1 X111.577 Y87.524 E9.42050
G1 X112.057 Y87.948 E9.46242
G1 X112.485 Y88.432 E9.50474
G1 X112.865 Y88.966 E9.54758
G1 X113.169 Y89.520 E9.58898
G1 X113.415 Y90.115 E9.63115
G1 X113.593 Y90.736 E9.67340
G1 X113.701 Y91.380 E9.71620
G1 X113.734 Y92.024 E9.75837
G1 X113.701 Y92.619 E9.79740
G1 X113.593 Y93.264 E9.84023
G1 X113.415 Y93.885 E9.88248
G1 X113.169 Y94.480 E9.92465
G1 X112.865 Y95.034 E9.96605
G1 X112.547 Y95.481 E10.00192
G1 X112.466 Y95.526 F3900.000
G1 X111.121 Y95.067 F3900.000
G1 F900
G1 X111.474 Y94.680 E10.03707
G1 X111.767 Y94.269 E10.07092
G1 X111.998 Y93.848 E10.10306
G1 X112.203 Y93.334 E10.14018
G1 X109.338 Y96.199 E10.41175
G1 X108.928 Y96.314 E10.44028
G1 X108.495 Y96.391 E10.46978
G1 X112.394 Y92.492 E10.83934
G1 X112.430 Y91.973 E10.87418
G1 X112.422 Y91.812 E10.88500
G1 X107.817 Y96.417 E11.32150
G1 X107.461 Y96.400 E11.34536
G1 X107.225 Y96.358 E11.36146
G1 X112.362 Y91.221 E11.84836
G1 X112.322 Y90.986 E11.86432
G1 X112.238 Y90.693 E11.88476
G1 X106.696 Y96.235 E12.41008
G1 X106.504 Y96.181 E12.42346
G1 X106.219 Y96.061 E12.44419
G1 X112.064 Y90.216 E12.99820
G1 X111.847 Y89.782 E13.03075
G1 X105.784 Y95.845 E13.60546
G1 X105.619 Y95.755 E13.61801
G1 X105.388 Y95.589 E13.63709
G1 X111.590 Y89.387 E14.22496
