; generated by Slic3r 1.3.0 on 2022-04-02 at 17:31:26

; external perimeters extrusion width = 0.44mm (0.85mm^3/s)
; perimeters extrusion width = 0.48mm (3.77mm^3/s)
; infill extrusion width = 0.48mm (4.40mm^3/s)
; solid infill extrusion width = 0.48mm (1.26mm^3/s)
; top infill extrusion width = 0.48mm (0.88mm^3/s)
; support material extrusion width = 0.44mm (3.38mm^3/s)

M190 S65 ; set bed temperature and wait for it to be reached
M104 S205 ; set temperature
; M106 P0 S255 ; turn hot-end fan on
G28 ; home all axes
G1 Z5 F5000 ; lift nozzle


; Filament gcode

M109 S205 ; set temperature and wait for it to be reached
G21 ; set units to millimeters
G90 ; use absolute coordinates
M82 ; use absolute distances for extrusion
G92 E0
G1 Z-0.150 F3900.000
G1 E-3.50000 F3000.00000
G92 E0
G1 X81.420 Y83.438 F3900.000
G1 E3.50000 F3000.00000
G1 F900
G1 X83.438 Y81.420 E3.68681
G1 X83.966 Y80.963 E3.73257
G1 X86.251 Y79.252 E3.91938
G1 X86.839 Y78.874 E3.96515
G1 X89.343 Y77.507 E4.15196
G1 X89.979 Y77.217 E4.19772
G1 X92.653 Y76.219 E4.38453
G1 X93.324 Y76.022 E4.43030
G1 X95.990 Y75.442 E4.60893
G1 X96.804 Y75.316 E4.66285
G1 X99.650 Y75.113 E4.84966
G1 X100.350 Y75.113 E4.89543
G1 X103.196 Y75.316 E5.08224
G1 X103.888 Y75.416 E5.12800
G1 X106.676 Y76.022 E5.31481
G1 X107.464 Y76.263 E5.36873
G1 X110.021 Y77.217 E5.54737
G1 X110.657 Y77.507 E5.59313
G1 X113.161 Y78.874 E5.77994
G1 X113.749 Y79.252 E5.82571
G1 X116.034 Y80.963 E6.01251
G1 X116.562 Y81.420 E6.05828
G1 X118.580 Y83.438 E6.24509
G1 X119.037 Y83.966 E6.29085
G1 X120.748 Y86.251 E6.47766
G1 X121.126 Y86.839 E6.52343
G1 X122.493 Y89.343 E6.71024
G1 X122.783 Y89.979 E6.75600
G1 X123.781 Y92.653 E6.94281
G1 X123.978 Y93.324 E6.98858
G1 X124.584 Y96.112 E7.17538
G1 X124.684 Y96.804 E7.22115
G1 X124.887 Y99.650 E7.40796
G1 X124.887 Y100.350 E7.45372
G1 X124.684 Y103.196 E7.64053
G1 X124.584 Y103.888 E7.68630
G1 X123.978 Y106.676 E7.87311
G1 X123.781 Y107.347 E7.91887
G1 X122.783 Y110.021 E8.10568
G1 X122.493 Y110.657 E8.15145
G1 X121.126 Y113.161 E8.33826
G1 X120.748 Y113.749 E8.38402
G1 X119.037 Y116.034 E8.57083
G1 X118.580 Y116.562 E8.61659
G1 X116.562 Y118.580 E8.80340
G1 X116.034 Y119.037 E8.84917
G1 X113.749 Y120.748 E9.03598
G1 X113.161 Y121.126 E9.08174
G1 X110.657 Y122.493 E9.26855
G1 X110.021 Y122.783 E9.31432
G1 X107.347 Y123.781 E9.50113
G1 X106.676 Y123.978 E9.54689
G1 X103.888 Y124.584 E9.73370
G1 X103.196 Y124.684 E9.77947
G1 X100.350 Y124.887 E9.96627
G1 X99.650 Y124.887 E10.01204
G1 X96.929 Y124.693 E10.19067
G1 X96.112 Y124.584 E10.24460
G1 X93.324 Y123.978 E10.43140
G1 X92.653 Y123.781 E10.47717
G1 X90.096 Y122.827 E10.65580
G1 X89.343 Y122.493 E10.70973
G1 X86.839 Y121.126 E10.89654
G1 X86.251 Y120.748 E10.94230
G1 X83.966 Y119.037 E11.12911
G1 X83.438 Y118.580 E11.17488
G1 X81.420 Y116.562 E11.36168
G1 X80.963 Y116.034 E11.40745
G1 X79.252 Y113.749 E11.59426
G1 X78.874 Y113.161 E11.64002
G1 X77.507 Y110.657 E11.82683
G1 X77.217 Y110.021 E11.87260
G1 X76.263 Y107.464 E12.05123
G1 X76.022 Y106.676 E12.10515
G1 X75.416 Y103.888 E12.29197
G1 X75.316 Y103.196 E12.33773
G1 X75.113 Y100.349 E12.52454
G1 X75.113 Y99.650 E12.57030
G1 X75.316 Y96.804 E12.75711
G1 X75.416 Y96.112 E12.80288
G1 X76.022 Y93.324 E12.98968
G1 X76.219 Y92.653 E13.03545
G1 X77.217 Y89.979 E13.22226
G1 X77.507 Y89.343 E13.26802
G1 X78.874 Y86.839 E13.45483
G1 X79.252 Y86.251 E13.50060
G1 X80.963 Y83.966 E13.68741
G1 X81.381 Y83.483 E13.72924
G1 X81.738 Y83.756 F3900.000
G1 F900
G1 X83.756 Y81.738 E13.91605
G1 X84.236 Y81.323 E13.95762
G1 X86.520 Y79.613 E14.14442
G1 X87.055 Y79.269 E14.18599
G1 X89.559 Y77.902 E14.37280
G1 X90.137 Y77.638 E14.41436
G1 X92.693 Y76.684 E14.59300
G1 X93.419 Y76.462 E14.64272
G1 X96.208 Y75.855 E14.82953
G1 X96.836 Y75.765 E14.87109
G1 X99.683 Y75.561 E15.05790
G1 X100.442 Y75.570 E15.10761
G1 X103.164 Y75.765 E15.28625
G1 X103.792 Y75.855 E15.32781
G1 X106.581 Y76.462 E15.51462
G1 X107.190 Y76.641 E15.55619
G1 X109.863 Y77.638 E15.74299
G1 X110.441 Y77.902 E15.78456
G1 X112.945 Y79.269 E15.97137
G1 X113.480 Y79.613 E16.01293
G1 X115.764 Y81.323 E16.19974
G1 X116.244 Y81.738 E16.24130
G1 X118.262 Y83.756 E16.42811
G1 X118.677 Y84.236 E16.46967
G1 X120.387 Y86.520 E16.65648
G1 X120.731 Y87.055 E16.69805
G1 X122.098 Y89.559 E16.88485
G1 X122.362 Y90.137 E16.92642
G1 X123.359 Y92.810 E17.11323
G1 X123.538 Y93.419 E17.15479
G1 X124.145 Y96.208 E17.34160
G1 X124.235 Y96.836 E17.38316
G1 X124.439 Y99.683 E17.56997
G1 X124.439 Y100.317 E17.61153
G1 X124.235 Y103.164 E17.79834
G1 X124.145 Y103.792 E17.83990
G1 X123.538 Y106.581 E18.02671
G1 X123.359 Y107.190 E18.06828
G1 X122.362 Y109.863 E18.25508
G1 X122.098 Y110.441 E18.29665
G1 X120.731 Y112.945 E18.48346
G1 X120.387 Y113.480 E18.52502
G1 X118.677 Y115.764 E18.71183
G1 X118.262 Y116.244 E18.75339
G1 X116.244 Y118.262 E18.94020
G1 X115.764 Y118.677 E18.98177
G1 X113.480 Y120.387 E19.16857
G1 X112.945 Y120.731 E19.21014
G1 X110.441 Y122.098 E19.39695
G1 X109.863 Y122.362 E19.43851
G1 X107.190 Y123.359 E19.62532
G1 X106.581 Y123.538 E19.66688
G1 X103.792 Y124.145 E19.85369
G1 X103.164 Y124.235 E19.89525
G1 X100.317 Y124.439 E20.08206
G1 X99.683 Y124.439 E20.12362
G1 X96.961 Y124.244 E20.30226
G1 X96.208 Y124.145 E20.35198
G1 X93.419 Y123.538 E20.53879
G1 X92.810 Y123.359 E20.58035
G1 X90.254 Y122.406 E20.75899
G1 X89.559 Y122.098 E20.80871
G1 X87.055 Y120.731 E20.99551
G1 X86.520 Y120.387 E21.03708
G1 X84.236 Y118.677 E21.22389
G1 X83.756 Y118.262 E21.26545
G1 X81.738 Y116.244 E21.45226
G1 X81.323 Y115.764 E21.49382
G1 X79.613 Y113.480 E21.68063
G1 X79.269 Y112.945 E21.72219
G1 X77.902 Y110.441 E21.90900
G1 X77.638 Y109.863 E21.95057
G1 X76.684 Y107.307 E22.12920
G1 X76.462 Y106.581 E22.17892
G1 X75.855 Y103.792 E22.36573
G1 X75.765 Y103.164 E22.40729
G1 X75.561 Y100.317 E22.59410
G1 X75.561 Y99.683 E22.63566
G1 X75.765 Y96.836 E22.82247
G1 X75.855 Y96.208 E22.86404
G1 X76.462 Y93.419 E23.05084
G1 X76.641 Y92.810 E23.09241
G1 X77.638 Y90.137 E23.27922
G1 X77.902 Y89.559 E23.32078
G1 X79.269 Y87.055 E23.50759
G1 X79.613 Y86.520 E23.54915
G1 X81.323 Y84.236 E23.73596
G1 X81.699 Y83.802 E23.77360
G1 E20.27360 F3000.00000
G92 E0
G1 X102.865 Y110.736 F3900.000
G1 E3.50000 F3000.00000
G1 F900
G1 X103.250 Y111.294 E3.54443
G1 X103.564 Y112.122 E3.60236
G1 X103.672 Y113.006 E3.66068
G1 X103.553 Y113.909 E3.72029
G1 X103.250 Y114.706 E3.77611
G1 X102.748 Y115.434 E3.83404
G1 X102.085 Y116.021 E3.89197
G1 X101.302 Y116.432 E3.94990
G1 X100.442 Y116.644 E4.00783
G1 X99.558 Y116.644 E4.06577
G1 X98.693 Y116.431 E4.12409
G1 X97.891 Y116.000 E4.18370
G1 X97.252 Y115.434 E4.23952
G1 X96.750 Y114.706 E4.29745
G1 X96.436 Y113.878 E4.35538
G1 X96.329 Y113.000 E4.41331
G1 X96.436 Y112.122 E4.47124
G1 X96.750 Y111.294 E4.52918
G1 X97.107 Y110.777 E4.57031
G1 X95.082 Y110.027 E4.71169
G1 X93.164 Y108.832 E4.85962
G1 X91.526 Y107.275 E5.00755
G1 X90.235 Y105.420 E5.15549
G1 X89.344 Y103.343 E5.30342
G1 X89.248 Y102.877 E5.33460
G1 X89.085 Y103.021 E5.34884
G1 X88.302 Y103.432 E5.40677
G1 X87.442 Y103.644 E5.46470
G1 X86.558 Y103.644 E5.52264
G1 X85.698 Y103.432 E5.58057
G1 X84.915 Y103.021 E5.63850
G1 X84.252 Y102.434 E5.69643
G1 X83.746 Y101.701 E5.75475
G1 X83.432 Y100.846 E5.81436
G1 X83.329 Y100.000 E5.87018
G1 X83.436 Y99.122 E5.92811
G1 X83.750 Y98.294 E5.98605
G1 X84.256 Y97.561 E6.04437
G1 X84.943 Y96.964 E6.10398
G1 X85.698 Y96.568 E6.15979
G1 X86.558 Y96.356 E6.21773
G1 X87.442 Y96.356 E6.27566
G1 X88.302 Y96.568 E6.33359
G1 X89.085 Y96.979 E6.39152
G1 X89.248 Y97.123 E6.40576
G1 X89.344 Y96.657 E6.43694
G1 X90.235 Y94.580 E6.58487
G1 X91.526 Y92.725 E6.73281
G1 X93.164 Y91.168 E6.88074
G1 X95.082 Y89.973 E7.02868
G1 X97.107 Y89.223 E7.17005
G1 X96.750 Y88.706 E7.21119
G1 X96.436 Y87.878 E7.26912
G1 X96.329 Y87.000 E7.32705
G1 X96.436 Y86.122 E7.38498
G1 X96.750 Y85.294 E7.44291
G1 X97.256 Y84.561 E7.50123
G1 X97.943 Y83.964 E7.56084
G1 X98.698 Y83.568 E7.61666
G1 X99.558 Y83.356 E7.67459
G1 X100.442 Y83.356 E7.73253
G1 X101.302 Y83.568 E7.79046
G1 X102.085 Y83.979 E7.84839
G1 X102.752 Y84.570 E7.90671
G1 X103.262 Y85.324 E7.96632
G1 X103.564 Y86.122 E8.02214
G1 X103.671 Y87.000 E8.08007
G1 X103.564 Y87.878 E8.13800
G1 X103.250 Y88.706 E8.19594
G1 X102.865 Y89.264 E8.24036
G1 X103.879 Y89.527 E8.30893
G1 X105.908 Y90.522 E8.45686
G1 X107.695 Y91.905 E8.60480
G1 X109.167 Y93.620 E8.75273
G1 X110.263 Y95.596 E8.90067
G1 X110.744 Y97.130 E9.00592
G1 X110.915 Y96.979 E9.02081
G1 X111.698 Y96.568 E9.07874
G1 X112.558 Y96.356 E9.13667
G1 X113.442 Y96.356 E9.19461
G1 X114.307 Y96.569 E9.25293
G1 X115.109 Y97.000 E9.31254
G1 X115.748 Y97.566 E9.36836
G1 X116.250 Y98.294 E9.42629
G1 X116.564 Y99.122 E9.48422
G1 X116.671 Y100.000 E9.54215
G1 X116.564 Y100.878 E9.60008
G1 X116.250 Y101.706 E9.65802
G1 X115.748 Y102.434 E9.71595
G1 X115.085 Y103.021 E9.77388
G1 X114.302 Y103.432 E9.83181
G1 X113.442 Y103.644 E9.88974
G1 X112.558 Y103.644 E9.94768
G1 X111.693 Y103.431 E10.00600
G1 X110.891 Y103.000 E10.06561
G1 X110.744 Y102.870 E10.07838
G1 X110.263 Y104.404 E10.18364
G1 X109.167 Y106.380 E10.33157
G1 X107.695 Y108.095 E10.47951
G1 X105.908 Y109.478 E10.62744
G1 X103.879 Y110.473 E10.77538
G1 X102.923 Y110.721 E10.84002
G1 X101.992 Y110.497 F3900.000
G1 F900
G1 X102.408 Y110.866 E10.87648
G1 X102.849 Y111.505 E10.92726
G1 X103.124 Y112.230 E10.97804
G1 X103.218 Y113.004 E11.02905
G1 X103.113 Y113.798 E11.08151
G1 X102.849 Y114.495 E11.13033
G1 X102.408 Y115.134 E11.18111
G1 X101.828 Y115.648 E11.23189
G1 X101.141 Y116.009 E11.28267
G1 X100.388 Y116.194 E11.33345
G1 X99.612 Y116.194 E11.38423
G1 X98.855 Y116.008 E11.43525
G1 X98.150 Y115.628 E11.48770
G1 X97.592 Y115.134 E11.53652
G1 X97.151 Y114.495 E11.58730
G1 X96.876 Y113.770 E11.63808
G1 X96.782 Y113.000 E11.68886
G1 X96.876 Y112.230 E11.73964
G1 X97.151 Y111.505 E11.79042
G1 X97.594 Y110.863 E11.84144
G1 X98.031 Y110.484 E11.87934
G1 X97.314 Y110.374 E11.92681
G1 X95.281 Y109.621 E12.06876
G1 X93.441 Y108.474 E12.21070
G1 X91.869 Y106.980 E12.35264
G1 X90.630 Y105.201 E12.49459
G1 X89.775 Y103.208 E12.63653
G1 X89.532 Y102.024 E12.71566
G1 X88.828 Y102.648 E12.77725
G1 X88.141 Y103.009 E12.82803
G1 X87.388 Y103.194 E12.87881
G1 X86.612 Y103.194 E12.92959
G1 X85.859 Y103.009 E12.98037
G1 X85.172 Y102.648 E13.03115
G1 X84.592 Y102.134 E13.08193
G1 X84.149 Y101.492 E13.13295
G1 X83.872 Y100.740 E13.18541
G1 X83.782 Y100.000 E13.23422
G1 X83.876 Y99.230 E13.28500
G1 X84.151 Y98.505 E13.33578
G1 X84.594 Y97.863 E13.38680
G1 X85.199 Y97.338 E13.43926
G1 X85.859 Y96.991 E13.48807
G1 X86.612 Y96.806 E13.53885
G1 X87.388 Y96.806 E13.58963
G1 X88.141 Y96.991 E13.64041
G1 X88.828 Y97.352 E13.69119
G1 X89.532 Y97.976 E13.75279
G1 X89.775 Y96.792 E13.83191
G1 X90.630 Y94.799 E13.97386
G1 X91.869 Y93.020 E14.11580
G1 X93.441 Y91.526 E14.25774
G1 X95.281 Y90.379 E14.39969
G1 X97.314 Y89.626 E14.54163
G1 X98.024 Y89.517 E14.58869
G1 X97.592 Y89.134 E14.62655
G1 X97.151 Y88.495 E14.67733
G1 X96.876 Y87.770 E14.72811
G1 X96.782 Y87.000 E14.77889
G1 X96.876 Y86.230 E14.82967
G1 X97.151 Y85.505 E14.88045
G1 X97.594 Y84.863 E14.93146
G1 X98.199 Y84.338 E14.98392
G1 X98.859 Y83.991 E15.03274
G1 X99.612 Y83.806 E15.08352
G1 X100.388 Y83.806 E15.13430
G1 X101.141 Y83.991 E15.18508
G1 X101.828 Y84.352 E15.23586
G1 X102.411 Y84.869 E15.28688
G1 X102.860 Y85.533 E15.33933
G1 X103.124 Y86.230 E15.38815
G1 X103.218 Y87.000 E15.43893
G1 X103.124 Y87.770 E15.48971
G1 X102.849 Y88.495 E15.54049
G1 X102.408 Y89.134 E15.59127
G1 X101.992 Y89.503 E15.62773
G1 X103.722 Y89.951 E15.74473
G1 X105.668 Y90.906 E15.88668
G1 X107.383 Y92.233 E16.02862
G1 X108.795 Y93.878 E16.17057
G1 X109.848 Y95.774 E16.31251
G1 X110.523 Y97.927 E16.46023
G1 X111.172 Y97.352 E16.51700
G1 X111.859 Y96.991 E16.56778
G1 X112.612 Y96.806 E16.61856
G1 X113.388 Y96.806 E16.66934
G1 X114.145 Y96.992 E16.72035
G1 X114.850 Y97.372 E16.77281
G1 X115.408 Y97.866 E16.82163
G1 X115.849 Y98.505 E16.87241
G1 X116.124 Y99.230 E16.92319
G1 X116.218 Y100.000 E16.97397
G1 X116.124 Y100.770 E17.02475
G1 X115.849 Y101.495 E17.07553
G1 X115.408 Y102.134 E17.12631
G1 X114.828 Y102.648 E17.17709
G1 X114.141 Y103.009 E17.22787
G1 X113.388 Y103.194 E17.27865
G1 X112.612 Y103.194 E17.32943
G1 X111.855 Y103.008 E17.38044
G1 X111.150 Y102.628 E17.43290
G1 X110.523 Y102.073 E17.48771
G1 X109.848 Y104.226 E17.63542
G1 X108.795 Y106.122 E17.77737
G1 X107.383 Y107.767 E17.91931
G1 X105.668 Y109.094 E18.06126
G1 X103.722 Y110.049 E18.20320
G1 X102.050 Y110.482 E18.31628
G1 X100.953 Y110.176 F3900.000
G1 F900
G1 X100.908 Y110.376 E18.32969
G1 X101.591 Y110.743 E18.38047
G1 X102.069 Y111.167 E18.42229
G1 X102.448 Y111.715 E18.46591
G1 X102.684 Y112.338 E18.50954
G1 X102.765 Y113.001 E18.55326
G1 X102.674 Y113.687 E18.59856
G1 X102.448 Y114.285 E18.64038
G1 X102.069 Y114.833 E18.68400
G1 X101.570 Y115.275 E18.72763
G1 X100.980 Y115.585 E18.77126
G1 X100.333 Y115.744 E18.81489
G1 X99.667 Y115.744 E18.85852
G1 X99.018 Y115.584 E18.90223
G1 X98.409 Y115.257 E18.94754
G1 X97.931 Y114.833 E18.98935
G1 X97.552 Y114.285 E19.03298
G1 X97.316 Y113.662 E19.07661
G1 X97.236 Y113.000 E19.12023
G1 X97.316 Y112.338 E19.16386
G1 X97.552 Y111.715 E19.20749
G1 X97.932 Y111.166 E19.25120
G1 X98.454 Y110.712 E19.29651
G1 X99.089 Y110.379 E19.34348
G1 X99.057 Y110.186 E19.35627
G1 X97.427 Y109.936 E19.46422
G1 X95.480 Y109.215 E19.60017
G1 X93.717 Y108.116 E19.73613
G1 X92.212 Y106.686 E19.87208
G1 X91.026 Y104.981 E20.00803
G1 X90.207 Y103.073 E20.14399
G1 X89.775 Y100.971 E20.28445
G1 X89.573 Y100.955 E20.29772
G1 X89.448 Y101.285 E20.32082
G1 X89.069 Y101.833 E20.36444
G1 X88.570 Y102.275 E20.40807
G1 X87.980 Y102.585 E20.45170
G1 X87.333 Y102.744 E20.49533
G1 X86.667 Y102.744 E20.53896
G1 X86.020 Y102.585 E20.58258
G1 X85.430 Y102.275 E20.62621
G1 X84.931 Y101.833 E20.66984
G1 X84.551 Y101.284 E20.71355
G1 X84.313 Y100.634 E20.75886
G1 X84.236 Y100.000 E20.80067
G1 X84.316 Y99.338 E20.84430
G1 X84.552 Y98.715 E20.88793
G1 X84.932 Y98.166 E20.93164
G1 X85.454 Y97.712 E20.97695
G1 X86.020 Y97.415 E21.01876
G1 X86.667 Y97.256 E21.06239
G1 X87.333 Y97.256 E21.10602
G1 X87.980 Y97.415 E21.14965
G1 X88.570 Y97.725 E21.19328
G1 X89.069 Y98.167 E21.23690
G1 X89.448 Y98.715 E21.28053
G1 X89.573 Y99.045 E21.30363
G1 X89.775 Y99.029 E21.31690
G1 X90.207 Y96.927 E21.45736
G1 X91.026 Y95.019 E21.59331
G1 X92.212 Y93.314 E21.72927
G1 X93.717 Y91.884 E21.86522
G1 X95.480 Y90.785 E22.00118
G1 X97.427 Y90.064 E22.13713
G1 X99.057 Y89.814 E22.24508
G1 X99.089 Y89.621 E22.25787
G1 X98.430 Y89.275 E22.30665
G1 X97.931 Y88.833 E22.35028
G1 X97.552 Y88.285 E22.39391
G1 X97.316 Y87.662 E22.43753
G1 X97.236 Y87.000 E22.48116
G1 X97.316 Y86.338 E22.52479
G1 X97.552 Y85.715 E22.56842
G1 X97.932 Y85.166 E22.61213
G1 X98.454 Y84.712 E22.65744
G1 X99.020 Y84.415 E22.69925
G1 X99.667 Y84.256 E22.74288
G1 X100.333 Y84.256 E22.78651
G1 X100.980 Y84.415 E22.83014
G1 X101.570 Y84.725 E22.87376
G1 X102.070 Y85.168 E22.91748
G1 X102.458 Y85.741 E22.96278
G1 X102.684 Y86.338 E23.00460
G1 X102.764 Y87.000 E23.04823
G1 X102.684 Y87.662 E23.09185
G1 X102.448 Y88.285 E23.13548
G1 X102.069 Y88.833 E23.17911
G1 X101.570 Y89.275 E23.22274
G1 X100.908 Y89.623 E23.27171
G1 X100.952 Y89.824 E23.28520
G1 X101.554 Y89.855 E23.32467
G1 X103.565 Y90.375 E23.46062
G1 X105.429 Y91.290 E23.59658
G1 X107.071 Y92.561 E23.73253
G1 X108.424 Y94.137 E23.86848
G1 X109.432 Y95.952 E24.00444
G1 X110.054 Y97.934 E24.14039
G1 X110.175 Y99.124 E24.21872
G1 X110.387 Y99.152 E24.23270
G1 X110.552 Y98.715 E24.26328
G1 X110.931 Y98.167 E24.30691
G1 X111.430 Y97.725 E24.35054
G1 X112.020 Y97.415 E24.39417
G1 X112.667 Y97.256 E24.43779
G1 X113.333 Y97.256 E24.48142
G1 X113.982 Y97.416 E24.52514
G1 X114.591 Y97.743 E24.57044
G1 X115.069 Y98.167 E24.61226
G1 X115.448 Y98.715 E24.65588
G1 X115.684 Y99.338 E24.69951
G1 X115.764 Y100.000 E24.74314
G1 X115.684 Y100.662 E24.78677
G1 X115.448 Y101.285 E24.83039
G1 X115.069 Y101.833 E24.87402
G1 X114.570 Y102.275 E24.91765
G1 X113.980 Y102.585 E24.96128
G1 X113.333 Y102.744 E25.00490
