; generated by Slic3r 1.3.0 on 2022-04-03 at 15:36:09

; external perimeters extrusion width = 0.44mm (0.85mm^3/s)
; perimeters extrusion width = 0.48mm (3.77mm^3/s)
; infill extrusion width = 0.48mm (4.40mm^3/s)
; solid infill extrusion width = 0.48mm (1.26mm^3/s)
; top infill extrusion width = 0.48mm (0.88mm^3/s)
; support material extrusion width = 0.44mm (3.38mm^3/s)

M190 S65 ; set bed temperature and wait for it to be reached
M104 S205 ; set temperature
; M106 P0 S255 ; turn hot-end fan on
G28 ; home all axes
G1 Z5 F5000 ; lift nozzle


; Filament gcode

M109 S205 ; set temperature and wait for it to be reached
G21 ; set units to millimeters
G90 ; use absolute coordinates
M82 ; use absolute distances for extrusion
G92 E0
G1 Z-0.150 F3900.000
G1 E-3.50000 F3000.00000
G92 E0
G1 X85.919 Y85.325 F3900.000
G1 E3.50000 F3000.00000
G1 F900
G1 X87.709 Y83.797 E3.65409
G1 X88.388 Y83.303 E3.70904
G1 X90.395 Y82.074 E3.86313
G1 X91.143 Y81.692 E3.91809
G1 X93.318 Y80.792 E4.07218
G1 X94.116 Y80.532 E4.12713
G1 X96.405 Y79.983 E4.28122
G1 X97.234 Y79.851 E4.33618
G1 X99.478 Y79.675 E4.48353
G1 X100.420 Y79.667 E4.54520
G1 X102.766 Y79.852 E4.69929
G1 X103.595 Y79.983 E4.75425
G1 X105.884 Y80.532 E4.90834
G1 X106.682 Y80.792 E4.96329
G1 X108.857 Y81.692 E5.11738
G1 X109.605 Y82.074 E5.17234
G1 X111.612 Y83.303 E5.32643
G1 X112.291 Y83.797 E5.38138
G1 X114.081 Y85.325 E5.53547
G1 X114.675 Y85.919 E5.59043
G1 X116.203 Y87.709 E5.74452
G1 X116.697 Y88.388 E5.79947
G1 X117.926 Y90.395 E5.95356
G1 X118.308 Y91.143 E6.00851
G1 X119.208 Y93.318 E6.16260
G1 X119.468 Y94.116 E6.21756
G1 X120.017 Y96.405 E6.37165
G1 X120.148 Y97.234 E6.42660
G1 X120.333 Y99.580 E6.58069
G1 X120.333 Y100.420 E6.63565
G1 X120.148 Y102.766 E6.78974
G1 X120.017 Y103.595 E6.84469
G1 X119.492 Y105.784 E6.99204
G1 X119.208 Y106.682 E7.05372
G1 X118.308 Y108.857 E7.20781
G1 X117.926 Y109.605 E7.26276
G1 X116.697 Y111.612 E7.41685
G1 X116.203 Y112.291 E7.47181
G1 X114.741 Y114.003 E7.61915
G1 X114.081 Y114.675 E7.68083
G1 X112.291 Y116.203 E7.83492
G1 X111.612 Y116.697 E7.88988
G1 X109.605 Y117.926 E8.04396
G1 X108.857 Y118.308 E8.09892
G1 X106.682 Y119.208 E8.25301
G1 X105.884 Y119.468 E8.30796
G1 X103.595 Y120.017 E8.46205
G1 X102.766 Y120.149 E8.51701
G1 X100.420 Y120.333 E8.67110
G1 X99.580 Y120.333 E8.72605
G1 X97.234 Y120.148 E8.88014
G1 X96.405 Y120.017 E8.93510
G1 X94.116 Y119.468 E9.08919
G1 X93.318 Y119.208 E9.14414
G1 X91.143 Y118.308 E9.29823
G1 X90.395 Y117.926 E9.35319
G1 X88.388 Y116.697 E9.50728
G1 X87.709 Y116.203 E9.56223
G1 X85.919 Y114.675 E9.71632
G1 X85.325 Y114.081 E9.77127
G1 X83.797 Y112.291 E9.92536
G1 X83.303 Y111.612 E9.98032
G1 X82.074 Y109.605 E10.13441
G1 X81.692 Y108.857 E10.18936
G1 X80.792 Y106.682 E10.34345
G1 X80.532 Y105.884 E10.39841
G1 X79.983 Y103.595 E10.55250
G1 X79.851 Y102.766 E10.60745
G1 X79.675 Y100.522 E10.75480
G1 X79.667 Y99.580 E10.81648
G1 X79.851 Y97.234 E10.97057
G1 X79.983 Y96.405 E11.02552
G1 X80.532 Y94.116 E11.17961
G1 X80.792 Y93.318 E11.23457
G1 X81.692 Y91.143 E11.38866
G1 X82.074 Y90.395 E11.44361
G1 X83.303 Y88.388 E11.59770
G1 X83.797 Y87.709 E11.65265
G1 X85.325 Y85.919 E11.80674
G1 X85.877 Y85.368 E11.85777
G1 X86.211 Y85.668 F3900.000
G1 F900
G1 X88.001 Y84.139 E12.01186
G1 X88.623 Y83.687 E12.06219
G1 X90.542 Y82.511 E12.20954
G1 X91.315 Y82.108 E12.26660
G1 X93.490 Y81.207 E12.42069
G1 X94.221 Y80.970 E12.47102
G1 X96.510 Y80.420 E12.62511
G1 X97.269 Y80.300 E12.67544
G1 X99.513 Y80.123 E12.82279
G1 X100.384 Y80.115 E12.87985
G1 X102.731 Y80.300 E13.03394
G1 X103.490 Y80.420 E13.08427
G1 X105.779 Y80.970 E13.23836
G1 X106.510 Y81.207 E13.28869
G1 X108.685 Y82.108 E13.44279
G1 X109.370 Y82.457 E13.49312
G1 X111.377 Y83.687 E13.64721
G1 X111.999 Y84.139 E13.69754
G1 X113.789 Y85.668 E13.85163
G1 X114.332 Y86.211 E13.90196
G1 X115.861 Y88.001 E14.05605
G1 X116.313 Y88.623 E14.10638
G1 X117.543 Y90.630 E14.26047
G1 X117.892 Y91.315 E14.31081
G1 X118.793 Y93.490 E14.46490
G1 X119.030 Y94.221 E14.51523
G1 X119.580 Y96.510 E14.66932
G1 X119.700 Y97.269 E14.71965
G1 X119.885 Y99.616 E14.87374
G1 X119.885 Y100.384 E14.92408
G1 X119.700 Y102.731 E15.07817
G1 X119.580 Y103.490 E15.12850
G1 X119.054 Y105.679 E15.27585
G1 X118.793 Y106.510 E15.33290
G1 X117.892 Y108.685 E15.48700
G1 X117.543 Y109.370 E15.53733
G1 X116.313 Y111.377 E15.69142
G1 X115.861 Y111.999 E15.74175
G1 X114.399 Y113.710 E15.88910
G1 X113.789 Y114.332 E15.94615
G1 X111.999 Y115.861 E16.10024
G1 X111.377 Y116.313 E16.15058
G1 X109.370 Y117.543 E16.30467
G1 X108.685 Y117.892 E16.35500
G1 X106.510 Y118.793 E16.50909
G1 X105.779 Y119.030 E16.55942
G1 X103.490 Y119.580 E16.71351
G1 X102.731 Y119.700 E16.76384
G1 X100.384 Y119.885 E16.91793
G1 X99.616 Y119.885 E16.96827
G1 X97.269 Y119.700 E17.12236
G1 X96.510 Y119.580 E17.17269
G1 X94.221 Y119.030 E17.32678
G1 X93.490 Y118.793 E17.37711
G1 X91.315 Y117.892 E17.53120
G1 X90.630 Y117.543 E17.58154
G1 X88.623 Y116.313 E17.73563
G1 X88.001 Y115.861 E17.78596
G1 X86.211 Y114.332 E17.94005
G1 X85.668 Y113.789 E17.99038
G1 X84.139 Y111.999 E18.14447
G1 X83.687 Y111.377 E18.19480
G1 X82.457 Y109.370 E18.34889
G1 X82.108 Y108.685 E18.39923
G1 X81.207 Y106.510 E18.55332
G1 X80.970 Y105.779 E18.60365
G1 X80.420 Y103.490 E18.75774
G1 X80.300 Y102.731 E18.80807
G1 X80.123 Y100.487 E18.95542
G1 X80.115 Y99.616 E19.01248
G1 X80.300 Y97.269 E19.16657
G1 X80.420 Y96.510 E19.21690
G1 X80.970 Y94.221 E19.37099
G1 X81.207 Y93.490 E19.42132
G1 X82.108 Y91.315 E19.57541
G1 X82.457 Y90.630 E19.62575
G1 X83.687 Y88.623 E19.77984
G1 X84.139 Y88.001 E19.83017
G1 X85.668 Y86.211 E19.98426
G1 X86.169 Y85.710 E20.03066
G1 X86.503 Y86.010 F3900.000
G1 F900
G1 X88.293 Y84.481 E20.18475
G1 X88.858 Y84.071 E20.23046
G1 X90.865 Y82.841 E20.38455
G1 X91.487 Y82.524 E20.43027
G1 X93.662 Y81.623 E20.58436
G1 X94.326 Y81.407 E20.63007
G1 X96.615 Y80.858 E20.78416
G1 X97.304 Y80.749 E20.82987
G1 X99.548 Y80.572 E20.97722
G1 X100.349 Y80.564 E21.02965
G1 X102.696 Y80.749 E21.18374
G1 X103.385 Y80.858 E21.22945
G1 X105.674 Y81.407 E21.38354
G1 X106.338 Y81.623 E21.42925
G1 X108.513 Y82.524 E21.58335
G1 X109.135 Y82.841 E21.62905
G1 X111.142 Y84.071 E21.78314
G1 X111.707 Y84.481 E21.82886
G1 X113.497 Y86.010 E21.98295
G1 X113.990 Y86.503 E22.02866
G1 X115.519 Y88.293 E22.18275
G1 X115.929 Y88.858 E22.22846
G1 X117.159 Y90.865 E22.38255
G1 X117.476 Y91.487 E22.42826
G1 X118.377 Y93.662 E22.58235
G1 X118.593 Y94.326 E22.62806
G1 X119.142 Y96.615 E22.78215
G1 X119.251 Y97.304 E22.82786
G1 X119.436 Y99.651 E22.98195
G1 X119.436 Y100.349 E23.02766
G1 X119.251 Y102.696 E23.18175
G1 X119.142 Y103.385 E23.22746
G1 X118.617 Y105.574 E23.37481
G1 X118.377 Y106.338 E23.42725
G1 X117.476 Y108.513 E23.58134
G1 X117.159 Y109.135 E23.62705
G1 X115.929 Y111.142 E23.78114
G1 X115.519 Y111.707 E23.82685
G1 X114.057 Y113.418 E23.97420
G1 X113.497 Y113.990 E24.02663
G1 X111.707 Y115.519 E24.18072
G1 X111.142 Y115.929 E24.22643
G1 X109.135 Y117.159 E24.38052
G1 X108.513 Y117.476 E24.42624
G1 X106.338 Y118.377 E24.58033
G1 X105.674 Y118.593 E24.62604
G1 X103.385 Y119.142 E24.78013
G1 X102.696 Y119.251 E24.82584
G1 X100.349 Y119.436 E24.97993
G1 X99.651 Y119.436 E25.02564
G1 X97.304 Y119.251 E25.17973
G1 X96.615 Y119.142 E25.22544
G1 X94.326 Y118.593 E25.37953
G1 X93.662 Y118.377 E25.42524
G1 X91.487 Y117.476 E25.57933
G1 X90.865 Y117.159 E25.62504
G1 X88.858 Y115.929 E25.77913
G1 X88.293 Y115.519 E25.82484
G1 X86.503 Y113.990 E25.97893
G1 X86.010 Y113.497 E26.02465
G1 X84.481 Y111.707 E26.17874
G1 X84.071 Y111.142 E26.22445
G1 X82.841 Y109.135 E26.37854
G1 X82.524 Y108.513 E26.42425
G1 X81.623 Y106.338 E26.57834
G1 X81.407 Y105.674 E26.62405
G1 X80.858 Y103.385 E26.77814
G1 X80.749 Y102.696 E26.82385
G1 X80.572 Y100.452 E26.97120
G1 X80.564 Y99.651 E27.02363
G1 X80.749 Y97.304 E27.17772
G1 X80.858 Y96.615 E27.22344
G1 X81.407 Y94.326 E27.37753
G1 X81.623 Y93.662 E27.42324
G1 X82.524 Y91.487 E27.57733
G1 X82.841 Y90.865 E27.62304
G1 X84.071 Y88.858 E27.77713
G1 X84.481 Y88.293 E27.82284
G1 X86.010 Y86.503 E27.97693
G1 X86.461 Y86.052 E28.01871
G1 E24.51871 F3000.00000
G92 E0
G1 X109.782 Y109.782 F3900.000
G1 E3.50000 F3000.00000
G1 F900
G1 X108.131 Y111.192 E3.64211
G1 X106.281 Y112.326 E3.78423
G1 X104.275 Y113.157 E3.92634
G1 X102.164 Y113.664 E4.06845
G1 X100.000 Y113.834 E4.21056
G1 X97.836 Y113.664 E4.35268
G1 X95.725 Y113.157 E4.49479
G1 X93.719 Y112.326 E4.63690
G1 X91.868 Y111.192 E4.77901
G1 X90.218 Y109.782 E4.92113
G1 X88.808 Y108.131 E5.06324
G1 X87.674 Y106.281 E5.20535
G1 X86.843 Y104.275 E5.34747
G1 X86.336 Y102.164 E5.48958
G1 X86.166 Y100.000 E5.63169
G1 X86.336 Y97.836 E5.77380
G1 X86.843 Y95.725 E5.91592
G1 X87.674 Y93.719 E6.05803
G1 X88.808 Y91.868 E6.20014
G1 X90.218 Y90.218 E6.34225
G1 X91.868 Y88.808 E6.48437
G1 X93.719 Y87.674 E6.62648
G1 X95.725 Y86.843 E6.76859
G1 X97.836 Y86.336 E6.91070
G1 X100.000 Y86.166 E7.05282
G1 X102.164 Y86.336 E7.19493
G1 X104.275 Y86.843 E7.33704
G1 X106.281 Y87.674 E7.47916
G1 X108.131 Y88.808 E7.62127
G1 X109.782 Y90.218 E7.76338
G1 X111.192 Y91.868 E7.90549
G1 X112.326 Y93.719 E8.04761
G1 X113.157 Y95.725 E8.18972
G1 X113.664 Y97.836 E8.33183
G1 X113.834 Y100.000 E8.47394
G1 X113.664 Y102.164 E8.61606
G1 X113.157 Y104.275 E8.75817
G1 X112.326 Y106.281 E8.90028
G1 X111.192 Y108.131 E9.04240
G1 X109.821 Y109.737 E9.18058
G1 X110.124 Y110.074 F3900.000
G1 F900
G1 X108.397 Y111.557 E9.32962
G1 X106.485 Y112.728 E9.47637
G1 X104.414 Y113.586 E9.62312
G1 X102.235 Y114.110 E9.76986
G1 X100.000 Y114.285 E9.91661
G1 X97.765 Y114.110 E10.06336
G1 X95.586 Y113.586 E10.21011
G1 X93.515 Y112.728 E10.35686
G1 X91.603 Y111.557 E10.50361
G1 X89.899 Y110.101 E10.65035
G1 X88.443 Y108.397 E10.79710
G1 X87.272 Y106.485 E10.94385
G1 X86.414 Y104.414 E11.09060
G1 X85.890 Y102.235 E11.23735
G1 X85.715 Y100.000 E11.38410
G1 X85.890 Y97.765 E11.53085
G1 X86.414 Y95.586 E11.67759
G1 X87.272 Y93.515 E11.82434
G1 X88.443 Y91.603 E11.97109
G1 X89.899 Y89.899 E12.11784
G1 X91.603 Y88.443 E12.26459
G1 X93.515 Y87.272 E12.41134
G1 X95.586 Y86.414 E12.55809
G1 X97.765 Y85.890 E12.70483
G1 X100.000 Y85.715 E12.85158
G1 X102.235 Y85.890 E12.99833
G1 X104.414 Y86.414 E13.14508
G1 X106.485 Y87.272 E13.29183
G1 X108.397 Y88.443 E13.43858
G1 X110.101 Y89.899 E13.58533
G1 X111.557 Y91.603 E13.73207
G1 X112.728 Y93.515 E13.87882
G1 X113.586 Y95.586 E14.02557
G1 X114.110 Y97.765 E14.17232
G1 X114.285 Y100.000 E14.31907
G1 X114.110 Y102.235 E14.46582
G1 X113.586 Y104.414 E14.61256
G1 X112.728 Y106.485 E14.75931
G1 X111.557 Y108.397 E14.90606
G1 X110.163 Y110.029 E15.04656
G1 X110.466 Y110.367 F3900.000
G1 F900
G1 X108.662 Y111.922 E15.20253
G1 X106.690 Y113.130 E15.35391
G1 X104.554 Y114.015 E15.50530
G1 X102.305 Y114.555 E15.65668
G1 X100.000 Y114.737 E15.80807
G1 X97.695 Y114.555 E15.95945
G1 X95.446 Y114.015 E16.11084
G1 X93.310 Y113.130 E16.26222
G1 X91.338 Y111.922 E16.41360
G1 X89.580 Y110.420 E16.56499
G1 X88.078 Y108.662 E16.71637
G1 X86.870 Y106.690 E16.86776
G1 X85.985 Y104.554 E17.01914
G1 X85.445 Y102.305 E17.17053
G1 X85.263 Y100.000 E17.32191
G1 X85.445 Y97.695 E17.47329
G1 X85.985 Y95.446 E17.62468
G1 X86.870 Y93.310 E17.77606
G1 X88.078 Y91.338 E17.92745
G1 X89.580 Y89.580 E18.07883
G1 X91.338 Y88.078 E18.23022
G1 X93.310 Y86.870 E18.38160
G1 X95.446 Y85.985 E18.53299
G1 X97.695 Y85.445 E18.68437
G1 X100.000 Y85.263 E18.83575
G1 X102.305 Y85.445 E18.98714
G1 X104.554 Y85.985 E19.13852
G1 X106.690 Y86.870 E19.28991
G1 X108.662 Y88.078 E19.44129
G1 X110.420 Y89.580 E19.59268
G1 X111.922 Y91.338 E19.74406
G1 X113.130 Y93.310 E19.89544
G1 X114.015 Y95.446 E20.04683
G1 X114.555 Y97.695 E20.19821
G1 X114.737 Y100.000 E20.34960
G1 X114.555 Y102.305 E20.50098
G1 X114.015 Y104.554 E20.65237
G1 X113.130 Y106.690 E20.80375
G1 X111.922 Y108.662 E20.95513
G1 X110.505 Y110.321 E21.09796
G1 X110.397 Y110.354 F3900.000
G1 X109.414 Y109.512 F3900.000
G1 F900
G1 X110.875 Y107.819 E21.24555
G1 X111.521 Y106.763 E21.32727
G1 X106.763 Y111.521 E21.77150
G1 X106.028 Y111.972 E21.82841
G1 X105.419 Y112.224 E21.87194
G1 X112.224 Y105.419 E22.50730
G1 X112.678 Y104.323 E22.58555
G1 X104.323 Y112.678 E23.36550
G1 X104.088 Y112.776 E23.38233
G1 X103.425 Y112.935 E23.42732
G1 X112.935 Y103.425 E24.31508
G1 X113.137 Y102.581 E24.37240
G1 X102.581 Y113.137 E25.35790
G1 X102.046 Y113.266 E25.39423
G1 X101.791 Y113.286 E25.41111
G1 X113.286 Y101.791 E26.48424
G1 X113.341 Y101.094 E26.53035
G1 X101.094 Y113.341 E27.67361
G1 X100.398 Y113.395 E27.71972
G1 X113.395 Y100.398 E28.93310
G1 X113.431 Y99.952 E28.96262
G1 X113.414 Y99.738 E28.97679
G1 X99.738 Y113.414 E30.25347
G1 X99.144 Y113.367 E30.29285
G1 X113.367 Y99.144 E31.62069
G1 X113.320 Y98.549 E31.66007
G1 X98.549 Y113.320 E33.03906
G1 X97.954 Y113.273 E33.07845
G1 X113.273 Y97.954 E34.50859
G1 X113.162 Y97.424 E34.54433
G1 X97.424 Y113.162 E36.01349
G1 X96.907 Y113.037 E36.04861
G1 X113.037 Y96.907 E37.55448
G1 X112.913 Y96.390 E37.58960
G1 X96.390 Y112.913 E39.13217
G1 X95.872 Y112.789 E39.16729
G1 X112.789 Y95.872 E40.74656
G1 X112.608 Y95.412 E40.77922
G1 X95.412 Y112.608 E42.38457
G1 X94.958 Y112.420 E42.41699
G1 X112.420 Y94.958 E44.04715
G1 X112.232 Y94.504 E44.07956
G1 X94.504 Y112.232 E45.73454
G1 X94.051 Y112.044 E45.76695
G1 X112.044 Y94.051 E47.44673
G1 X111.972 Y93.877 E47.45917
G1 X111.822 Y93.632 E47.47815
G1 X93.632 Y111.822 E49.17631
G1 X93.234 Y111.578 E49.20711
G1 X111.578 Y93.234 E50.91965
G1 X111.334 Y92.836 E50.95045
G1 X92.836 Y111.334 E52.67737
G1 X92.438 Y111.090 E52.70817
G1 X111.090 Y92.438 E54.44947
G1 X110.841 Y92.046 E54.48014
G1 X92.046 Y110.841 E56.23471
G1 X91.700 Y110.545 E56.26475
G1 X110.545 Y91.700 E58.02403
G1 X110.250 Y91.354 E58.05407
G1 X91.354 Y110.250 E59.81807
G1 X91.008 Y109.954 E59.84811
G1 X109.954 Y91.008 E61.61682
G1 X109.659 Y90.662 E61.64686
G1 X90.662 Y109.659 E63.42028
G1 X90.489 Y109.511 E63.43530
G1 X90.341 Y109.338 E63.45032
G1 X109.338 Y90.341 E65.22375
G1 X108.992 Y90.046 E65.25379
G1 X90.046 Y108.992 E67.02250
G1 X89.750 Y108.646 E67.05254
G1 X108.646 Y89.750 E68.81654
G1 X108.300 Y89.455 E68.84657
G1 X89.455 Y108.300 E70.60586
G1 X89.159 Y107.954 E70.63590
G1 X107.954 Y89.159 E72.39047
G1 X107.562 Y88.910 E72.42114
G1 X88.910 Y107.562 E74.16244
G1 X88.666 Y107.164 E74.19324
G1 X107.164 Y88.666 E75.92016
G1 X106.766 Y88.422 E75.95096
G1 X88.422 Y106.766 E77.66350
G1 X88.178 Y106.368 E77.69430
G1 X106.368 Y88.178 E79.39246
G1 X106.123 Y88.028 E79.41144
G1 X105.949 Y87.956 E79.42388
G1 X87.956 Y105.949 E81.10366
G1 X87.768 Y105.496 E81.13607
G1 X105.496 Y87.768 E82.79105
G1 X105.042 Y87.580 E82.82346
G1 X87.580 Y105.042 E84.45362
G1 X87.392 Y104.588 E84.48604
G1 X104.588 Y87.392 E86.09139
G1 X104.128 Y87.211 E86.12406
G1 X87.211 Y104.128 E87.70332
G1 X87.087 Y103.610 E87.73844
G1 X103.610 Y87.087 E89.28097
G1 X103.092 Y86.963 E89.31611
G1 X86.963 Y103.093 E90.82190
G1 X86.838 Y102.576 E90.85703
G1 X102.575 Y86.840 E92.32608
G1 X102.046 Y86.727 E92.36176
G1 X86.728 Y102.044 E93.79176
G1 X86.681 Y101.450 E93.83112
G1 X101.451 Y86.680 E95.21001
G1 X100.856 Y86.633 E95.24939
G1 X86.634 Y100.856 E96.57717
G1 X86.586 Y100.262 E96.61652
G1 X100.262 Y86.586 E97.89319
G1 X100.048 Y86.569 E97.90736
G1 X99.602 Y86.604 E97.93688
G1 X86.604 Y99.602 E99.15026
G1 X86.659 Y98.906 E99.19637
G1 X98.906 Y86.659 E100.33963
G1 X98.209 Y86.714 E100.38574
G1 X86.714 Y98.209 E101.45887
G1 X86.734 Y97.954 E101.47576
G1 X86.863 Y97.419 E101.51208
G1 X97.419 Y86.863 E102.49759
G1 X96.575 Y87.065 E102.55490
G1 X87.065 Y96.575 E103.44267
G1 X87.224 Y95.912 E103.48766
G1 X87.322 Y95.677 E103.50449
G1 X95.677 Y87.322 E104.28444
G1 X94.581 Y87.776 E104.36270
G1 X87.776 Y94.581 E104.99805
G1 X88.028 Y93.972 E105.04159
G1 X88.478 Y93.237 E105.09850
G1 X93.237 Y88.478 E105.54274
G1 X92.181 Y89.125 E105.62446
G1 X90.490 Y90.584 E105.77187
G1 Z-0.150 F3900.000
M104 S200 ; set temperature
M140 S60 ; set bed temperature
G1 Z0.150 F3900.000
G1 X109.878 Y109.864 F3900.000
G1 F1800
G1 X108.206 Y111.294 E105.88684
G1 X106.338 Y112.439 E106.00129
