; generated by Slic3r 1.3.0 on 2022-04-04 at 08:49:50

; external perimeters extrusion width = 0.44mm (0.85mm^3/s)
; perimeters extrusion width = 0.48mm (3.77mm^3/s)
; infill extrusion width = 0.48mm (4.40mm^3/s)
; solid infill extrusion width = 0.48mm (1.26mm^3/s)
; top infill extrusion width = 0.48mm (0.88mm^3/s)
; support material extrusion width = 0.44mm (3.38mm^3/s)

M190 S65 ; set bed temperature and wait for it to be reached
M104 S205 ; set temperature
; M106 P0 S255 ; turn hot-end fan on
G28 ; home all axes
G1 Z5 F5000 ; lift nozzle


; Filament gcode

M109 S205 ; set temperature and wait for it to be reached
G21 ; set units to millimeters
G90 ; use absolute coordinates
M82 ; use absolute distances for extrusion
G92 E0
G1 Z-0.150 F3900.000
G1 E-3.50000 F3000.00000
G92 E0
G1 X79.807 Y77.957 F3900.000
G1 E3.50000 F3000.00000
G1 F900
G1 X80.277 Y77.542 E3.54106
G1 X82.222 Y75.967 E3.70487
G1 X82.637 Y75.665 E3.73845
G1 X84.831 Y74.240 E3.90976
G1 X85.276 Y73.984 E3.94333
G1 X87.607 Y72.796 E4.11464
G1 X88.076 Y72.587 E4.14822
G1 X90.519 Y71.649 E4.31952
G1 X91.006 Y71.491 E4.35310
G1 X93.534 Y70.813 E4.52441
G1 X94.036 Y70.707 E4.55798
G1 X96.620 Y70.297 E4.72929
G1 X97.130 Y70.244 E4.76286
G1 X99.744 Y70.107 E4.93417
G1 X100.256 Y70.107 E4.96775
G1 X102.870 Y70.244 E5.13906
G1 X103.380 Y70.297 E5.17263
G1 X105.964 Y70.707 E5.34394
G1 X106.466 Y70.813 E5.37751
G1 X108.994 Y71.491 E5.54882
G1 X109.481 Y71.649 E5.58239
G1 X111.924 Y72.587 E5.75370
G1 X112.393 Y72.796 E5.78728
G1 X114.724 Y73.984 E5.95859
G1 X115.169 Y74.240 E5.99216
G1 X117.363 Y75.665 E6.16347
G1 X117.778 Y75.967 E6.19704
G1 X119.812 Y77.614 E6.36835
G1 X120.193 Y77.957 E6.40193
G1 X122.043 Y79.807 E6.57324
G1 X122.386 Y80.188 E6.60681
G1 X124.033 Y82.222 E6.77812
G1 X124.335 Y82.637 E6.81169
G1 X125.760 Y84.831 E6.98300
G1 X126.068 Y85.378 E7.02406
G1 X127.204 Y87.607 E7.18788
G1 X127.413 Y88.076 E7.22145
G1 X128.351 Y90.519 E7.39276
G1 X128.509 Y91.006 E7.42633
G1 X129.187 Y93.534 E7.59764
G1 X129.293 Y94.036 E7.63122
G1 X129.702 Y96.620 E7.80253
G1 X129.756 Y97.130 E7.83610
G1 X129.893 Y99.744 E8.00741
G1 X129.893 Y100.256 E8.04098
G1 X129.756 Y102.870 E8.21229
G1 X129.703 Y103.380 E8.24586
G1 X129.293 Y105.964 E8.41717
G1 X129.187 Y106.466 E8.45075
G1 X128.509 Y108.994 E8.62206
G1 X128.351 Y109.481 E8.65563
G1 X127.413 Y111.924 E8.82694
G1 X127.204 Y112.393 E8.86052
G1 X126.016 Y114.724 E9.03182
G1 X125.760 Y115.169 E9.06540
G1 X124.335 Y117.363 E9.23671
G1 X124.033 Y117.778 E9.27028
G1 X122.386 Y119.812 E9.44159
G1 X122.043 Y120.193 E9.47516
G1 X120.193 Y122.043 E9.64647
G1 X119.812 Y122.386 E9.68005
G1 X117.778 Y124.033 E9.85136
G1 X117.363 Y124.335 E9.88493
G1 X115.169 Y125.760 E10.05624
G1 X114.724 Y126.016 E10.08981
G1 X112.393 Y127.204 E10.26112
G1 X111.924 Y127.413 E10.29470
G1 X109.481 Y128.351 E10.46601
G1 X108.994 Y128.509 E10.49957
G1 X106.466 Y129.187 E10.67089
G1 X105.964 Y129.293 E10.70446
G1 X103.380 Y129.702 E10.87577
G1 X102.870 Y129.756 E10.90935
G1 X100.256 Y129.893 E11.08065
G1 X99.744 Y129.893 E11.11423
G1 X97.130 Y129.756 E11.28554
G1 X96.620 Y129.703 E11.31911
G1 X94.036 Y129.293 E11.49042
G1 X93.534 Y129.187 E11.52399
G1 X91.006 Y128.509 E11.69530
G1 X90.519 Y128.351 E11.72888
G1 X88.076 Y127.413 E11.90019
G1 X87.607 Y127.204 E11.93376
G1 X85.276 Y126.016 E12.10507
G1 X84.831 Y125.760 E12.13864
G1 X82.637 Y124.335 E12.30995
G1 X82.222 Y124.033 E12.34353
G1 X80.188 Y122.386 E12.51483
G1 X79.807 Y122.043 E12.54841
G1 X77.957 Y120.193 E12.71972
G1 X77.614 Y119.812 E12.75329
G1 X75.967 Y117.778 E12.92460
G1 X75.665 Y117.363 E12.95818
G1 X74.240 Y115.169 E13.12948
G1 X73.984 Y114.724 E13.16306
G1 X72.796 Y112.393 E13.33437
G1 X72.546 Y111.818 E13.37542
G1 X71.649 Y109.481 E13.53924
G1 X71.491 Y108.994 E13.57281
G1 X70.813 Y106.466 E13.74412
G1 X70.707 Y105.964 E13.77770
G1 X70.297 Y103.380 E13.94901
G1 X70.244 Y102.870 E13.98258
G1 X70.107 Y100.256 E14.15389
G1 X70.107 Y99.744 E14.18746
G1 X70.244 Y97.130 E14.35877
G1 X70.297 Y96.620 E14.39234
G1 X70.707 Y94.036 E14.56366
G1 X70.813 Y93.534 E14.59723
G1 X71.491 Y91.006 E14.76854
G1 X71.649 Y90.519 E14.80211
G1 X72.587 Y88.076 E14.97342
G1 X72.796 Y87.607 E15.00700
G1 X73.984 Y85.276 E15.17831
G1 X74.240 Y84.831 E15.21188
G1 X75.665 Y82.637 E15.38319
G1 X75.967 Y82.222 E15.41676
G1 X77.614 Y80.188 E15.58807
G1 X77.957 Y79.807 E15.62165
G1 X79.765 Y77.999 E15.78903
G1 X80.125 Y78.275 F3900.000
G1 F900
G1 X80.471 Y77.963 E15.81952
G1 X82.505 Y76.316 E15.99083
G1 X82.882 Y76.043 E16.02132
G1 X85.076 Y74.617 E16.19263
G1 X85.480 Y74.384 E16.22312
G1 X87.811 Y73.196 E16.39443
G1 X88.237 Y73.007 E16.42492
G1 X90.680 Y72.069 E16.59623
G1 X91.123 Y71.925 E16.62672
G1 X93.650 Y71.248 E16.79803
G1 X94.106 Y71.151 E16.82852
G1 X96.691 Y70.742 E16.99983
G1 X97.154 Y70.693 E17.03032
G1 X99.767 Y70.556 E17.20163
G1 X100.233 Y70.556 E17.23212
G1 X102.846 Y70.693 E17.40343
G1 X103.309 Y70.742 E17.43392
G1 X105.894 Y71.151 E17.60523
G1 X106.350 Y71.248 E17.63572
G1 X108.877 Y71.925 E17.80703
G1 X109.320 Y72.069 E17.83752
G1 X111.763 Y73.007 E18.00883
G1 X112.189 Y73.196 E18.03932
G1 X114.520 Y74.384 E18.21063
G1 X114.924 Y74.617 E18.24112
G1 X117.118 Y76.043 E18.41243
G1 X117.495 Y76.316 E18.44292
G1 X119.529 Y77.963 E18.61423
G1 X119.875 Y78.275 E18.64472
G1 X121.725 Y80.125 E18.81603
G1 X122.037 Y80.471 E18.84652
G1 X123.684 Y82.505 E19.01783
G1 X123.957 Y82.882 E19.04832
G1 X125.383 Y85.076 E19.21963
G1 X125.616 Y85.480 E19.25012
G1 X126.804 Y87.811 E19.42143
G1 X126.993 Y88.237 E19.45192
G1 X127.931 Y90.680 E19.62323
G1 X128.075 Y91.123 E19.65372
G1 X128.752 Y93.650 E19.82503
G1 X128.849 Y94.106 E19.85552
G1 X129.258 Y96.691 E20.02683
G1 X129.307 Y97.154 E20.05732
G1 X129.444 Y99.767 E20.22863
G1 X129.444 Y100.233 E20.25912
G1 X129.307 Y102.846 E20.43043
G1 X129.258 Y103.309 E20.46092
G1 X128.849 Y105.894 E20.63223
G1 X128.752 Y106.350 E20.66272
G1 X128.075 Y108.877 E20.83403
G1 X127.931 Y109.320 E20.86452
G1 X126.993 Y111.763 E21.03583
G1 X126.804 Y112.189 E21.06632
G1 X125.616 Y114.520 E21.23763
G1 X125.383 Y114.924 E21.26812
G1 X123.957 Y117.118 E21.43943
G1 X123.684 Y117.495 E21.46992
G1 X122.037 Y119.529 E21.64123
G1 X121.725 Y119.875 E21.67172
G1 X119.875 Y121.725 E21.84303
G1 X119.529 Y122.037 E21.87352
G1 X117.495 Y123.684 E22.04483
G1 X117.118 Y123.957 E22.07532
G1 X114.924 Y125.383 E22.24663
G1 X114.520 Y125.616 E22.27712
G1 X112.189 Y126.804 E22.44843
G1 X111.763 Y126.993 E22.47893
G1 X109.320 Y127.931 E22.65023
G1 X108.877 Y128.075 E22.68072
G1 X106.350 Y128.752 E22.85203
G1 X105.894 Y128.849 E22.88253
G1 X103.309 Y129.258 E23.05383
G1 X102.846 Y129.307 E23.08432
G1 X100.233 Y129.444 E23.25563
G1 X99.767 Y129.444 E23.28613
G1 X97.154 Y129.307 E23.45743
G1 X96.691 Y129.258 E23.48792
G1 X94.106 Y128.849 E23.65923
G1 X93.650 Y128.752 E23.68973
G1 X91.123 Y128.075 E23.86103
G1 X90.680 Y127.931 E23.89153
G1 X88.237 Y126.993 E24.06283
G1 X87.811 Y126.804 E24.09333
G1 X85.480 Y125.616 E24.26463
G1 X85.076 Y125.383 E24.29513
G1 X82.882 Y123.957 E24.46643
G1 X82.505 Y123.684 E24.49693
G1 X80.471 Y122.037 E24.66823
G1 X80.125 Y121.725 E24.69873
G1 X78.275 Y119.875 E24.87004
G1 X77.963 Y119.529 E24.90053
G1 X76.316 Y117.495 E25.07184
G1 X76.043 Y117.118 E25.10233
G1 X74.617 Y114.924 E25.27364
G1 X74.384 Y114.520 E25.30413
G1 X73.196 Y112.189 E25.47544
G1 X72.966 Y111.656 E25.51341
G1 X72.069 Y109.320 E25.67723
G1 X71.925 Y108.877 E25.70772
G1 X71.248 Y106.350 E25.87903
G1 X71.151 Y105.894 E25.90952
G1 X70.742 Y103.309 E26.08083
G1 X70.693 Y102.846 E26.11132
G1 X70.556 Y100.233 E26.28263
G1 X70.556 Y99.767 E26.31312
G1 X70.693 Y97.154 E26.48443
G1 X70.742 Y96.691 E26.51492
G1 X71.151 Y94.106 E26.68623
G1 X71.248 Y93.650 E26.71672
G1 X71.925 Y91.123 E26.88803
G1 X72.069 Y90.680 E26.91852
G1 X73.007 Y88.237 E27.08983
G1 X73.196 Y87.811 E27.12032
G1 X74.384 Y85.480 E27.29163
G1 X74.617 Y85.076 E27.32212
G1 X76.043 Y82.882 E27.49343
G1 X76.316 Y82.505 E27.52392
G1 X77.963 Y80.471 E27.69523
G1 X78.275 Y80.125 E27.72572
G1 X80.083 Y78.317 E27.89310
G1 E24.39310 F3000.00000
G92 E0
G1 X117.635 Y116.029 F3900.000
G1 E3.50000 F3000.00000
G1 F900
G1 X115.949 Y117.714 E3.65601
G1 X114.011 Y119.284 E3.81934
G1 X111.918 Y120.643 E3.98267
G1 X109.695 Y121.775 E4.14600
G1 X107.366 Y122.669 E4.30934
G1 X104.956 Y123.315 E4.47267
G1 X102.492 Y123.706 E4.63600
G1 X100.000 Y123.836 E4.79934
G1 X97.508 Y123.706 E4.96267
G1 X95.044 Y123.315 E5.12600
G1 X92.634 Y122.670 E5.28933
G1 X90.305 Y121.775 E5.45267
G1 X88.082 Y120.643 E5.61600
G1 X85.992 Y119.285 E5.77917
G1 X83.971 Y117.635 E5.94995
G1 X82.286 Y115.949 E6.10596
G1 X80.716 Y114.011 E6.26929
G1 X79.357 Y111.918 E6.43263
G1 X78.225 Y109.695 E6.59596
G1 X77.330 Y107.366 E6.75929
G1 X76.685 Y104.956 E6.92262
G1 X76.294 Y102.492 E7.08596
G1 X76.164 Y100.000 E7.24929
G1 X76.294 Y97.508 E7.41262
G1 X76.685 Y95.044 E7.57596
G1 X77.330 Y92.634 E7.73929
G1 X78.225 Y90.305 E7.90262
G1 X79.357 Y88.082 E8.06595
G1 X80.716 Y85.989 E8.22929
G1 X82.286 Y84.051 E8.39262
G1 X84.051 Y82.286 E8.55595
G1 X85.989 Y80.716 E8.71929
G1 X88.082 Y79.357 E8.88262
G1 X90.305 Y78.225 E9.04595
G1 X92.634 Y77.330 E9.20928
G1 X95.044 Y76.685 E9.37262
G1 X97.506 Y76.295 E9.53578
G1 X100.112 Y76.170 E9.70657
G1 X102.492 Y76.294 E9.86258
G1 X104.956 Y76.685 E10.02591
G1 X107.366 Y77.330 E10.18924
G1 X109.695 Y78.225 E10.35257
G1 X111.918 Y79.357 E10.51591
G1 X114.011 Y80.716 E10.67924
G1 X115.949 Y82.286 E10.84257
G1 X117.714 Y84.051 E11.00591
G1 X119.284 Y85.989 E11.16924
G1 X120.643 Y88.082 E11.33257
G1 X121.775 Y90.305 E11.49590
G1 X122.669 Y92.634 E11.65924
G1 X123.315 Y95.044 E11.82257
G1 X123.706 Y97.508 E11.98590
G1 X123.836 Y100.000 E12.14924
G1 X123.706 Y102.492 E12.31257
G1 X123.315 Y104.956 E12.47590
G1 X122.670 Y107.366 E12.63924
G1 X121.775 Y109.695 E12.80257
G1 X120.643 Y111.918 E12.96590
G1 X119.285 Y114.008 E13.12907
G1 X117.673 Y115.982 E13.29593
G1 X117.983 Y116.313 F3900.000
G1 F900
G1 X116.251 Y118.048 E13.45643
G1 X114.275 Y119.648 E13.62285
G1 X112.143 Y121.033 E13.78927
G1 X109.878 Y122.187 E13.95569
G1 X107.505 Y123.098 E14.12211
G1 X105.049 Y123.756 E14.28853
G1 X102.539 Y124.154 E14.45495
G1 X100.000 Y124.287 E14.62136
G1 X97.461 Y124.154 E14.78778
G1 X94.951 Y123.756 E14.95420
G1 X92.495 Y123.098 E15.12062
G1 X90.122 Y122.187 E15.28704
G1 X87.857 Y121.033 E15.45346
G1 X85.726 Y119.649 E15.61978
G1 X83.669 Y117.969 E15.79366
G1 X81.952 Y116.251 E15.95268
G1 X80.352 Y114.275 E16.11910
G1 X78.967 Y112.143 E16.28552
G1 X77.813 Y109.878 E16.45194
G1 X76.902 Y107.505 E16.61836
G1 X76.244 Y105.049 E16.78478
G1 X75.846 Y102.539 E16.95120
G1 X75.713 Y100.000 E17.11762
G1 X75.846 Y97.461 E17.28404
G1 X76.244 Y94.951 E17.45046
G1 X76.902 Y92.495 E17.61688
G1 X77.813 Y90.122 E17.78330
G1 X78.967 Y87.857 E17.94972
G1 X80.352 Y85.725 E18.11614
G1 X81.952 Y83.749 E18.28256
G1 X83.749 Y81.952 E18.44898
G1 X85.725 Y80.352 E18.61540
G1 X87.857 Y78.967 E18.78182
G1 X90.122 Y77.813 E18.94824
G1 X92.495 Y76.902 E19.11466
G1 X94.951 Y76.244 E19.28108
G1 X97.460 Y75.847 E19.44740
G1 X100.113 Y75.719 E19.62128
G1 X102.539 Y75.846 E19.78030
G1 X105.049 Y76.244 E19.94672
G1 X107.505 Y76.902 E20.11314
G1 X109.878 Y77.813 E20.27956
G1 X112.143 Y78.967 E20.44598
G1 X114.275 Y80.352 E20.61240
G1 X116.251 Y81.952 E20.77882
G1 X118.048 Y83.749 E20.94524
G1 X119.648 Y85.725 E21.11166
G1 X121.033 Y87.857 E21.27808
G1 X122.187 Y90.122 E21.44450
G1 X123.098 Y92.495 E21.61092
G1 X123.756 Y94.951 E21.77734
G1 X124.154 Y97.461 E21.94376
G1 X124.287 Y100.000 E22.11018
G1 X124.154 Y102.539 E22.27660
G1 X123.756 Y105.049 E22.44302
G1 X123.098 Y107.505 E22.60944
G1 X122.187 Y109.878 E22.77586
G1 X121.033 Y112.143 E22.94228
G1 X119.649 Y114.274 E23.10860
G1 X118.021 Y116.267 E23.27707
G1 X118.331 Y116.598 F3900.000
G1 F900
G1 X116.552 Y118.383 E23.44206
G1 X114.540 Y120.013 E23.61157
G1 X112.369 Y121.423 E23.78107
G1 X110.062 Y122.599 E23.95058
G1 X107.644 Y123.526 E24.12009
G1 X105.143 Y124.197 E24.28959
G1 X102.586 Y124.602 E24.45910
G1 X100.000 Y124.737 E24.62861
G1 X97.414 Y124.602 E24.79812
G1 X94.857 Y124.197 E24.96762
G1 X92.356 Y123.526 E25.13713
G1 X89.938 Y122.599 E25.30664
G1 X87.631 Y121.423 E25.47614
G1 X85.460 Y120.013 E25.64561
G1 X83.367 Y118.303 E25.82257
G1 X81.617 Y116.552 E25.98462
G1 X79.987 Y114.540 E26.15413
G1 X78.577 Y112.369 E26.32364
G1 X77.401 Y110.062 E26.49315
G1 X76.474 Y107.644 E26.66265
G1 X75.803 Y105.143 E26.83216
G1 X75.398 Y102.586 E27.00167
G1 X75.263 Y100.000 E27.17117
G1 X75.398 Y97.414 E27.34068
G1 X75.803 Y94.857 E27.51019
G1 X76.474 Y92.356 E27.67969
G1 X77.401 Y89.938 E27.84920
G1 X78.577 Y87.631 E28.01871
G1 X79.987 Y85.460 E28.18821
G1 X81.617 Y83.448 E28.35772
G1 X83.448 Y81.617 E28.52723
G1 X85.460 Y79.987 E28.69674
G1 X87.631 Y78.577 E28.86624
G1 X89.938 Y77.401 E29.03575
G1 X92.356 Y76.474 E29.20526
G1 X94.857 Y75.803 E29.37476
G1 X97.414 Y75.398 E29.54423
G1 X100.114 Y75.269 E29.72119
G1 X102.586 Y75.398 E29.88324
G1 X105.143 Y75.803 E30.05275
G1 X107.644 Y76.474 E30.22226
G1 X110.062 Y77.401 E30.39176
G1 X112.369 Y78.577 E30.56127
G1 X114.540 Y79.987 E30.73078
G1 X116.552 Y81.617 E30.90029
G1 X118.383 Y83.448 E31.06979
G1 X120.013 Y85.460 E31.23930
G1 X121.423 Y87.631 E31.40881
G1 X122.599 Y89.938 E31.57831
G1 X123.526 Y92.356 E31.74782
G1 X124.197 Y94.857 E31.91733
G1 X124.602 Y97.414 E32.08683
G1 X124.737 Y100.000 E32.25634
G1 X124.602 Y102.586 E32.42585
G1 X124.197 Y105.143 E32.59535
G1 X123.526 Y107.644 E32.76486
G1 X122.599 Y110.061 E32.93437
G1 X121.423 Y112.369 E33.10388
G1 X120.013 Y114.540 E33.27334
G1 X118.369 Y116.551 E33.44342
G1 X118.287 Y116.591 F3900.000
G1 E29.94342 F3000.00000
G92 E0
G1 X115.600 Y117.427 F3900.000
G1 E3.50000 F3000.00000
G1 F900
G1 X117.349 Y115.678 E3.66323
G1 X118.969 Y113.695 E3.83220
G1 X119.485 Y112.901 E3.89471
G1 X112.901 Y119.485 E4.50915
G1 X111.645 Y120.300 E4.60792
G1 X111.235 Y120.509 E4.63830
G1 X120.509 Y111.235 E5.50374
G1 X121.175 Y109.927 E5.60057
G1 X109.927 Y121.175 E6.65020
G1 X109.464 Y121.412 E6.68452
G1 X108.792 Y121.669 E6.73201
G1 X121.669 Y108.792 E7.93368
G1 X122.069 Y107.751 E8.00725
G1 X107.751 Y122.069 E9.34334
G1 X107.179 Y122.289 E9.38380
G1 X106.785 Y122.394 E9.41073
G1 X122.394 Y106.785 E10.86738
G1 X122.629 Y105.909 E10.92723
G1 X105.909 Y122.629 E12.48754
G1 X105.033 Y122.864 E12.54738
G1 X122.864 Y105.033 E14.21134
G1 X122.922 Y104.814 E14.22625
G1 X123.013 Y104.242 E14.26448
G1 X104.242 Y123.013 E16.01611
G1 X103.480 Y123.134 E16.06701
G1 X123.134 Y103.480 E17.90101
G1 X123.254 Y102.718 E17.95192
G1 X102.718 Y123.254 E19.86828
G1 X102.397 Y123.305 E19.88976
G1 X102.006 Y123.326 E19.91561
G1 X123.326 Y102.006 E21.90515
G1 X123.361 Y101.329 E21.94987
G1 X101.329 Y123.361 E24.00587
G1 X100.652 Y123.397 E24.05059
G1 X123.397 Y100.652 E26.17306
G1 X123.432 Y99.975 E26.21778
G1 X99.975 Y123.432 E28.40671
G1 X99.364 Y123.403 E28.44712
G1 X123.403 Y99.364 E30.69036
G1 X123.371 Y98.754 E30.73062
G1 X98.754 Y123.371 E33.02775
G1 X98.145 Y123.339 E33.06801
G1 X123.339 Y98.145 E35.41902
G1 X123.307 Y97.535 E35.45928
G1 X97.535 Y123.307 E37.86417
G1 X96.979 Y123.222 E37.90130
G1 X123.222 Y96.979 E40.35014
G1 X123.134 Y96.426 E40.38713
G1 X96.426 Y123.134 E42.87945
G1 X95.872 Y123.046 E42.91643
G1 X123.046 Y95.872 E45.45224
G1 X122.958 Y95.319 E45.48922
G1 X95.319 Y122.958 E48.06850
G1 X95.090 Y122.922 E48.08376
G1 X94.793 Y122.843 E48.10406
G1 X122.843 Y94.793 E50.72157
G1 X122.707 Y94.287 E50.75612
G1 X94.287 Y122.707 E53.40819
G1 X93.781 Y122.572 E53.44274
G1 X122.572 Y93.781 E56.12936
G1 X122.436 Y93.276 E56.16391
G1 X93.276 Y122.436 E58.88508
G1 X92.770 Y122.301 E58.91963
G1 X122.301 Y92.770 E61.67534
G1 X122.126 Y92.303 E61.70824
G1 X92.303 Y122.126 E64.49129
G1 X91.839 Y121.949 E64.52405
G1 X121.949 Y91.839 E67.33375
G1 X121.771 Y91.376 E67.36650
G1 X91.376 Y121.771 E70.20284
G1 X90.913 Y121.593 E70.23559
G1 X121.593 Y90.913 E73.09858
G1 X121.415 Y90.449 E73.13133
G1 X90.449 Y121.415 E76.02097
G1 X90.024 Y121.199 E76.05245
G1 X121.199 Y90.024 E78.96166
